cmpe-260-team-4/drqv2/src/main/tex/others/031508-cheetah-run-train.csv
actor_ent,actor_logprob,actor_loss,batch_reward,buffer_size,critic_loss,critic_q1,critic_q2,critic_target_q,episode,episode_length,episode_reward,fps,frame,step,total_time
8.489292400360107,-5.663229984283447,-0.25330695781391116,0.03642652320861817,2500.0,0.012516637112945319,0.22627010783553123,0.22679023626074196,0.22680309092998505,5.0,1000.0,9.802447440120568,9.074432324625853,5000,2500.0,110.19973683357239
8.483867996215821,-5.614083742141724,-0.37994185781478884,0.0405572856888175,3000.0,0.014325194383971392,0.3491006746292114,0.34907334876060486,0.34927274227142335,6.0,1000.0,12.491357515478859,33.39480563056125,6000,3000.0,140.1445152759552
8.47843869781494,-5.593323831558227,-0.5495139939785003,0.04413129303604364,3500.0,0.019280122051015498,0.5074719759225845,0.5074811704158783,0.5079901794195175,7.0,1000.0,9.118004273049266,34.164815677154586,7000,3500.0,169.41439485549927
8.473004383087158,-5.5893011569976805,-0.723740895986557,0.04593798299133778,4000.0,0.01911222310177982,0.683738099694252,0.6837270539999009,0.684193046092987,8.0,1000.0,8.553518682534607,33.295058169649124,8000,4000.0,199.4488832950592
8.46756530380249,-5.584008087158203,-1.0439617185592651,0.04818079432100058,4500.0,0.03081491857767105,0.9491218407154083,0.9490682792663574,0.9496701688766479,9.0,1000.0,28.26899706042533,34.29623290383318,9000,4500.0,228.60660552978516
8.46212124633789,-5.577715353012085,-1.3597609519958496,0.05765711422264576,5000.0,0.043682879097759725,1.2351699652671815,1.235136082649231,1.2355289354324341,10.0,1000.0,26.265604942704158,33.7093875825144,10000,5000.0,258.2719337940216
8.456672191619873,-5.5724824600219725,-1.7705085597038268,0.06556110717356205,5500.0,0.06345812188088894,1.6117351751327516,1.611726577281952,1.6124991106987,11.0,1000.0,36.05666355206713,12.237453223362179,11000,5500.0,339.98828411102295
8.451218204498291,-5.567246700286865,-2.179506128311157,0.0796545070707798,6000.0,0.068842628210783,2.016781741142273,2.016682953834534,2.017491868495941,12.0,1000.0,38.46053108789741,29.62667549610401,12000,6000.0,373.7416503429413
8.445759254455567,-5.561711902618408,-2.599855936050415,0.0947335895448923,6500.0,0.08985076566040516,2.448534659385681,2.4485412530899047,2.448943335533142,13.0,1000.0,33.727364192271665,33.749560891217044,13000,6500.0,403.3716666698456
8.440295337677002,-5.556486186981201,-2.971800700187683,0.10373324051499366,7000.0,0.1206405190229416,2.8390063247680666,2.838929309844971,2.840148462295532,14.0,1000.0,39.12635180895688,33.85744557436757,14000,7000.0,432.9072685241699
8.43482646560669,-5.551257177352905,-3.267571864128113,0.11167533087730408,7500.0,0.15615117493271827,3.153378499984741,3.1533827667236327,3.1539174556732177,15.0,1000.0,36.20465676904514,33.8077722997322,15000,7500.0,462.48626685142517
8.429352561950683,-5.546030414581299,-3.517284510612488,0.11877089953422547,8000.0,0.1806154747903347,3.419419207572937,3.4194301013946533,3.4199066343307494,16.0,1000.0,30.52696442068932,33.44214131557621,16000,8000.0,492.38865995407104
8.423873683929443,-5.541004922866821,-3.789154317855835,0.12362012815475464,8500.0,0.18042005640268327,3.6874360151290895,3.6874104890823363,3.688203727722168,17.0,1000.0,21.797313609363687,32.60655602526376,17000,8500.0,523.0573410987854
8.4183897895813,-5.534991640090943,-4.029496487617493,0.12473677948117257,9000.0,0.17808033323287964,3.9477696409225462,3.947730417251587,3.948537923812866,18.0,1000.0,35.02431856186934,33.80717716103003,18000,9000.0,552.6368606090546
8.41290087890625,-5.530058288574219,-4.23654994392395,0.128764829069376,9500.0,0.18590137526392936,4.1608890542984005,4.160927934646606,4.161694094657898,19.0,1000.0,28.555468910691225,34.22595062746292,19000,9500.0,581.8544580936432
8.407406944274902,-5.5245579166412355,-4.418617353439331,0.13249716246128082,10000.0,0.18443004193902016,4.3465986156463625,4.346639881134033,4.347358695983886,20.0,1000.0,48.39275325008379,34.03743270050127,20000,10000.0,611.2338783740997
8.401907958984374,-5.519957775115967,-4.6228374519348145,0.13754323083162306,10500.0,0.1750202530324459,4.536574865341186,4.536488626480103,4.537154762268067,21.0,1000.0,49.485781540224664,11.494937174677151,21000,10500.0,698.2287006378174
8.396403945922852,-5.515437376022339,-4.9048564300537105,0.14617921900749206,11000.0,0.1758658736050129,4.797013813018799,4.797061777114868,4.797717351913452,22.0,1000.0,28.316253532393052,33.70978313104201,22000,11000.0,727.8936805725098
8.390894874572753,-5.509535320281983,-5.149034534454346,0.14729527872800827,11500.0,0.1656795015335083,5.017103366851806,5.0171111316680905,5.018155517578125,23.0,1000.0,47.96801746488756,34.633129012407004,23000,11500.0,756.7677693367004
8.385380722045898,-5.503966655731201,-5.473746192932129,0.1530765362381935,12000.0,0.17584071627259254,5.335949691772461,5.335940227508545,5.336489469528198,24.0,1000.0,62.48654702268143,33.43943218761405,24000,12000.0,786.67258477211
8.37986151123047,-5.5000097312927245,-5.8070820064544675,0.16135239401459694,12500.0,0.18091372445225715,5.6662846965789795,5.666255832672119,5.667466157913208,25.0,1000.0,28.44280711704633,34.093791970468104,25000,12500.0,816.0034387111664
8.374337253570557,-5.495602527618408,-6.132142583847046,0.1636736370921135,13000.0,0.1928792021870613,5.9730153465271,5.972892065048217,5.973432767868042,26.0,1000.0,82.49851162776389,33.95154942134936,26000,13000.0,845.4571766853333
8.368807857513428,-5.490118509292603,-6.572919149398803,0.17506970119476317,13500.0,0.22779104870557784,6.398255310058594,6.398248399734497,6.399197460174561,27.0,1000.0,42.986575817065756,33.484870262637436,27000,13500.0,875.3214120864868
8.36327338027954,-5.485671754837036,-7.0752874279022215,0.17955374509096145,14000.0,0.2838286765217781,6.85638224029541,6.856298469543457,6.8569862880706784,28.0,1000.0,48.701993097838205,33.948729931170334,28000,14000.0,904.7775964736938
8.357733833312988,-5.480812767028809,-7.708661666870118,0.1806880947947502,14500.0,0.3581428761482239,7.425794136047363,7.4257875938415525,7.427311227798462,29.0,1000.0,61.76037987891331,34.256049329709406,29000,14500.0,933.9695217609406
8.352189083099365,-5.475171922683716,-8.403108291625976,0.18915153926610948,15000.0,0.38217687118053434,8.078312589645385,8.078303844451904,8.080376903533935,30.0,1000.0,39.40922461093336,33.652474581004704,30000,15000.0,963.685019493103
8.34663924407959,-5.469411075592041,-9.095578998565674,0.18846057760715484,15500.0,0.4165781074166298,8.744091781616211,8.744124639511108,8.745421382904052,31.0,1000.0,66.61579320816058,11.377717006497434,31000,15500.0,1051.5761151313782
8.34108427810669,-5.463602210998535,-9.740738788604736,0.19731106293201447,16000.0,0.4657042833566666,9.400778072357177,9.400803859710694,9.402562591552734,32.0,1000.0,54.604352496439255,33.71309770480922,32000,16000.0,1081.238178730011
8.335524158477783,-5.458893821716309,-10.218673133850098,0.20058867061138153,16500.0,0.5019749556779861,9.892503509521484,9.892375621795654,9.8942836227417,33.0,1000.0,51.21802488482771,33.97610894449235,33000,16500.0,1110.6706256866455
8.329958869934082,-5.453718803405762,-10.706092639923096,0.20404627883434295,17000.0,0.5379032760858535,10.38203422164917,10.382039417266846,10.383290042877197,34.0,1000.0,96.24666798001897,34.19454094942586,34000,17000.0,1139.9150609970093
8.324388427734375,-5.447791849136353,-11.265352680206298,0.2158743161559105,17500.0,0.5502321449518204,10.931803649902344,10.931997871398925,10.933039035797119,35.0,1000.0,47.61994081433172,34.21844084458925,35000,17500.0,1169.1390705108643
8.31881280899048,-5.445036287307739,-11.709880405426025,0.21713061207532883,18000.0,0.5673484841585159,11.359746726989746,11.359692615509033,11.360381965637208,36.0,1000.0,128.71861842671893,33.293503092173914,36000,18000.0,1199.1749613285065
8.313231998443603,-5.439656230926514,-12.34124376296997,0.23078780615329741,18500.0,0.6368164662122726,11.977261577606201,11.977267768859864,11.978933410644531,37.0,1000.0,121.32430996161216,34.09163156623762,37000,18500.0,1228.5076746940613
8.307646003723145,-5.43399875831604,-13.100650005340576,0.24674467688798904,19000.0,0.7152601885795593,12.720847419738769,12.72116876220703,12.722274085998535,38.0,1000.0,62.67357959289152,33.362577959885755,38000,19000.0,1258.4813787937164
8.302054790496825,-5.428798143386841,-13.634085704803466,0.246751488506794,19500.0,0.769068405508995,13.250433166503907,13.250532089233399,13.250929664611816,39.0,1000.0,34.850908464573536,33.013391375180035,39000,19500.0,1288.7721183300018
8.29645837020874,-5.423859352111816,-14.108900661468505,0.24976226335763932,20000.0,0.8235326517820358,13.71316792678833,13.713030937194825,13.715679775238037,40.0,1000.0,133.26997913957123,33.52526662724709,40000,20000.0,1318.6003682613373
8.29085671234131,-5.419058162689209,-14.720477043151856,0.2607874401807785,20500.0,0.8843169009685516,14.316592681884766,14.316715560913085,14.31672758102417,41.0,1000.0,66.83140451967047,11.432469011280121,41000,20500.0,1406.0705389976501
8.285249820709229,-5.413862977981568,-15.37109704208374,0.26339882826805117,21000.0,0.8995324437618255,14.911575344085694,14.911596759796142,14.913489868164062,42.0,1000.0,56.777294895185996,33.986844171339165,42000,21000.0,1435.4936892986298
8.279637683868408,-5.409027505874634,-15.996901180267335,0.26545378482341764,21500.0,0.9746147246360779,15.530427474975586,15.530420078277588,15.531699104309082,43.0,1000.0,72.2326866395293,34.223839904484386,43000,21500.0,1464.7130889892578
8.274020317077637,-5.403297073364258,-16.549169616699217,0.27334762930870055,22000.0,0.9997941079139709,16.092384460449217,16.092478576660156,16.094333293914794,44.0,1000.0,173.8230744296317,33.07208255492952,44000,22000.0,1494.950073003769
8.268397636413575,-5.398691556930542,-17.14502716445923,0.28271246641874315,22500.0,1.0588663170337678,16.669381629943846,16.669422706604003,16.670100574493407,45.0,1000.0,180.77851819350948,34.094444357737785,45000,22500.0,1524.2803659439087
8.26276974105835,-5.393212202072143,-17.947506118774413,0.30226396715641024,23000.0,1.1255605885982514,17.4555389213562,17.45569623184204,17.456584869384766,46.0,1000.0,190.8821151385339,33.520890996468935,46000,23000.0,1554.112509727478
8.25713653564453,-5.387864639282227,-18.68402587890625,0.3192548127770424,23500.0,1.1484387893676757,18.193969581604005,18.193892189025878,18.196289978027345,47.0,1000.0,186.0058310944506,33.81743915208974,47000,23500.0,1583.6830532550812
8.251498027801514,-5.382563112258911,-19.589678565979003,0.3390974266529083,24000.0,1.2232230920791627,19.081303268432617,19.081133438110353,19.082353248596192,48.0,1000.0,184.9336166937597,33.89248130244747,48000,24000.0,1613.1881229877472
8.245854225158691,-5.377797203063965,-20.306860977172853,0.3548761776685715,24500.0,1.2403397030830383,19.792033668518066,19.792175758361818,19.793884506225584,49.0,1000.0,182.48727081583945,34.84835678435327,49000,24500.0,1641.8838820457458
8.240205131530761,-5.372304407119751,-21.17804808807373,0.37155575478076935,25000.0,1.2626296033859252,20.65525833129883,20.655282333374025,20.65644532775879,50.0,1000.0,189.8339702934454,33.7058351058888,50000,25000.0,1671.5523364543915
8.234550682067871,-5.367359176635742,-21.97372981262207,0.38508706152439115,25500.0,1.288357414484024,21.420986167907714,21.420542503356934,21.422871742248535,51.0,1000.0,183.3102205133259,11.444496422691708,51000,25500.0,1758.9305810928345
8.228890895843506,-5.362183330535888,-22.8425650100708,0.40135696065425874,26000.0,1.324541161775589,22.28030171203613,22.28083602142334,22.283232948303223,52.0,1000.0,201.38973359699423,34.168398207092345,52000,26000.0,1788.1973922252655
8.22322582244873,-5.357081020355225,-23.627041816711426,0.41567090737819673,26500.0,1.314884116411209,23.061868522644044,23.06178692626953,23.06195079803467,53.0,1000.0,211.496491633571,33.086799846713674,53000,26500.0,1818.4209263324738
8.217555297851563,-5.351572204589844,-24.466098541259765,0.4280226027965546,27000.0,1.3495385539531708,23.890381134033202,23.890289527893067,23.892681686401367,54.0,1000.0,214.75535559460891,33.454964502460435,54000,27000.0,1848.311857700348
8.211879489898681,-5.346508766174316,-25.269076866149902,0.4444376707077026,27500.0,1.3349167499542236,24.683489891052247,24.68347078704834,24.683806495666502,55.0,1000.0,211.6585315117841,33.66549365559797,55000,27500.0,1878.0158641338348
8.20619826889038,-5.340678777694702,-26.19661604309082,0.4641361973285675,28000.0,1.3514696969985962,25.598785034179688,25.599043617248537,25.601251274108886,56.0,1000.0,212.94726605281824,33.43023679820142,56000,28000.0,1907.928905248642
8.200511646270751,-5.335015205383301,-26.873133651733397,0.4759553349018097,28500.0,1.315090342283249,26.285451377868654,26.285477058410645,26.287277000427245,57.0,1000.0,227.2078788655003,33.559386170824084,57000,28500.0,1937.7268295288086
8.194819683074952,-5.32998245048523,-27.70989172363281,0.490777526974678,29000.0,1.3154372758865356,27.11274488067627,27.112799751281738,27.11372643280029,58.0,1000.0,222.42179997026386,33.065611948519425,58000,29000.0,1967.969731092453
8.189122310638428,-5.32460855102539,-28.485704879760743,0.5038094265460968,29500.0,1.3295635616779327,27.892811935424806,27.892811141967773,27.89450079345703,59.0,1000.0,222.47189818188653,33.7725355751046,59000,29500.0,1997.5795907974243
8.183419479370118,-5.319568063735962,-29.21739101409912,0.5165659599304199,30000.0,1.3622506740093232,28.621778968811036,28.62150135040283,28.622038719177247,60.0,1000.0,239.9785186954723,33.67567277355163,60000,30000.0,2027.2746195793152
8.177711238861084,-5.3137391033172605,-29.972214752197267,0.5365225625038147,30500.0,1.3583120832443236,29.38508615875244,29.385415840148926,29.38766046142578,61.0,1000.0,183.77485716627683,11.288611374848069,61000,30500.0,2115.8594756126404
8.17199758529663,-5.3082736892700195,-30.60685878753662,0.546206657409668,31000.0,1.4437554502487182,30.020830505371094,30.020723693847657,30.02229054260254,62.0,1000.0,201.77021069246635,29.516333573110945,62000,31000.0,2149.739023208618
8.166278625488282,-5.303242534637451,-31.21329206085205,0.5516369193792343,31500.0,1.5704999332427978,30.642048866271974,30.6420059967041,30.64223826599121,63.0,1000.0,210.3774312712096,33.14922436753272,63000,31500.0,2179.9056429862976
8.160553882598878,-5.298402688980103,-31.87151171875,0.5622036460638046,32000.0,1.7355266513824463,31.27509114074707,31.275423614501953,31.277734115600587,64.0,1000.0,239.6183336224203,33.94968757097887,64000,32000.0,2209.3609960079193
8.15482384109497,-5.2931129913330075,-32.41171844482422,0.5754505890607834,32500.0,1.8001047897338867,31.823220695495607,31.82300136566162,31.82370071411133,65.0,1000.0,236.82404159951736,33.3606992137547,65000,32500.0,2239.336388349533
8.149088340759278,-5.288510339736939,-33.128360893249514,0.5893788850307464,33000.0,1.824000636100769,32.51929598236084,32.5197121887207,32.520941078186034,66.0,1000.0,85.66197275431624,33.9196878825595,66000,33000.0,2268.817792892456
8.143347312927245,-5.282839281082153,-33.39471240234375,0.588490013718605,33500.0,1.8433674120903014,32.78879315948486,32.788673751831055,32.79024199676514,67.0,1000.0,267.8535336143668,33.891857708537025,67000,33500.0,2298.323405981064
8.137600788116455,-5.27660795211792,-34.05631140136719,0.6096041173934936,34000.0,1.9208851313591004,33.45820079803467,33.45828174591065,33.45952252960205,68.0,1000.0,228.95419959223764,33.32629696741475,68000,34000.0,2328.3297407627106
8.131848793029786,-5.271304500579834,-34.60815953826904,0.6149998683929443,34500.0,1.8705802292823792,34.014412368774416,34.014199356079104,34.01490309906006,69.0,1000.0,276.2051356838236,33.43026104535194,69000,34500.0,2358.242760658264
8.126091270446777,-5.266821464538574,-35.13144748687744,0.6246976201534271,35000.0,1.8247189784049989,34.52790740966797,34.52775527191162,34.529018760681154,70.0,1000.0,263.5759072190409,33.1433099218449,70000,35000.0,2388.4147629737854
8.120328189849854,-5.261635446548462,-35.78385749816894,0.6477502001523971,35500.0,1.8971839027404784,35.17002526092529,35.17028423309326,35.17084460449219,71.0,1000.0,245.21862434365042,11.45011095893025,71000,35500.0,2475.7501623630524
8.114559574127197,-5.256912508010864,-36.32915184020996,0.6544462788105011,36000.0,1.8615938048362732,35.71649892425537,35.716152137756346,35.71820126342774,72.0,1000.0,96.44719167018577,39.77416813482515,72000,36000.0,2500.892109632492
8.108785442352294,-5.251032934188843,-36.67618823242187,0.6569265081882477,36500.0,1.9541410465240479,36.06525119018555,36.06530744934082,36.066041961669924,73.0,1000.0,240.2151947759644,48.51434769142517,73000,36500.0,2521.50456905365
8.1030057182312,-5.245840887069702,-37.310762329101564,0.6681776893138885,37000.0,1.990443368434906,36.69852920532227,36.69870240783691,36.699518753051755,74.0,1000.0,221.1773865427116,48.44220233335667,74000,37000.0,2542.1477270126343
8.097220439910888,-5.240032928466797,-37.74919786071777,0.6721730139255524,37500.0,1.9720088820457458,37.13355088806152,37.13337405395508,37.13521627807617,75.0,1000.0,275.9339744559197,48.425862514785905,75000,37500.0,2562.797851085663
8.091429496765137,-5.235240661621094,-38.26647483825683,0.6884847550392151,38000.0,2.0923540716171263,37.64776846313477,37.64785940551758,37.64790739440918,76.0,1000.0,175.54522139402448,48.36524241274515,76000,38000.0,2583.473856687546
8.085633083343506,-5.230036092758179,-38.64394743347168,0.6893884992599487,38500.0,2.1092595229148863,38.04401414489746,38.0437626953125,38.04489216613769,77.0,1000.0,224.58577546761953,48.387041325191085,77000,38500.0,2604.1405482292175
8.079831024169922,-5.224356161117553,-39.143289962768556,0.7003874871730804,39000.0,2.190864257335663,38.54363929748535,38.543711380004886,38.54330177307129,78.0,1000.0,247.66857365847576,48.374816806924436,78000,39000.0,2624.8124618530273
8.07402332687378,-5.218704790115356,-39.60182904052734,0.7085811302661896,39500.0,2.248075496673584,38.986796279907225,38.98699685668945,38.98863024902344,79.0,1000.0,239.47210269148763,47.634400560714155,79000,39500.0,2645.805694580078
8.068209991455078,-5.213975162506103,-40.079878494262694,0.7213007528781891,40000.0,2.2206050691604613,39.47129682922363,39.471059020996094,39.47207748413086,80.0,1000.0,294.5246031812846,47.99221049281292,80000,40000.0,2666.6424102783203
8.062391048431396,-5.2097477588653565,-40.388500274658206,0.7305438363552094,40500.0,2.179795276641846,39.79199594116211,39.79227180480957,39.79281184387207,81.0,1000.0,310.8427070011228,18.04093748610144,81000,40500.0,2722.0719032287598
8.056566444396973,-5.205066400527954,-40.97038702392578,0.7440648694038391,41000.0,2.1904099731445315,40.358559936523434,40.358183151245115,40.35907424926758,82.0,1000.0,245.91583552878026,39.086037126453355,82000,41000.0,2747.6564881801605
8.050736190795899,-5.200284547805786,-41.24450299072266,0.7525514028072358,41500.0,2.219791880607605,40.663119689941404,40.66303860473633,40.66401617431641,83.0,1000.0,246.55669013719825,48.498839043453444,83000,41500.0,2768.275539636612
8.044900241851806,-5.1935515785217286,-41.72610034179687,0.7685643830299378,42000.0,2.1689456090927126,41.12159265136719,41.12160902404785,41.12247901916504,84.0,1000.0,104.83924209332206,48.478639835580324,84000,42000.0,2788.9031817913055
8.039058628082275,-5.188146659851074,-41.6978289642334,0.7633773243427276,42500.0,2.3530288066864014,41.10890419006348,41.10899850463867,41.10915916442871,85.0,1000.0,230.60993502945453,48.36953212500531,85000,42500.0,2809.577353954315
8.033211318969727,-5.182963855743409,-42.05556469726562,0.7675587494373322,43000.0,2.4022952275276186,41.46879461669922,41.46866323852539,41.47004891967774,86.0,1000.0,265.9920461269617,48.43595985331042,86000,43000.0,2830.223172903061
8.027358306884766,-5.176912988662719,-42.33003215026856,0.7733437349796295,43500.0,2.3947632603645324,41.7487006072998,41.74870520019531,41.7493200378418,87.0,1000.0,264.7805009837976,48.35343081288688,87000,43500.0,2850.9042296409607
8.021499576568603,-5.171036287307739,-42.7210463104248,0.7860264263153076,44000.0,2.418620213508606,42.13057028198242,42.130600906372074,42.130606979370114,88.0,1000.0,238.49935452782674,48.39338454768387,88000,44000.0,2871.568212747574
8.01563514328003,-5.1660988273620605,-43.04042050170899,0.7933440306186677,44500.0,2.326139702796936,42.45313003540039,42.45343957519531,42.454389633178714,89.0,1000.0,216.13240805363077,48.3724027695795,89000,44500.0,2892.2411580085754
8.0097649269104,-5.160580808639526,-43.342584564208984,0.7990309846401215,45000.0,2.616486872673035,42.76103160095215,42.76025100708008,42.76211875915527,90.0,1000.0,131.4506799870833,47.63359830034198,90000,45000.0,2913.2347440719604
8.003889003753661,-5.154940748214722,-43.34057682800293,0.7980035092830658,45500.0,2.7134246406555174,42.75699740600586,42.757546936035155,42.75728161621094,91.0,1000.0,214.2529479973069,17.992667545612406,91000,45500.0,2968.812940597534
7.99800729560852,-5.149145086288452,-43.562541275024415,0.8026881425380706,46000.0,2.7664252762794495,42.99229765319824,42.991823135375974,42.99254917907715,92.0,1000.0,271.2720588394373,38.98693771053709,92000,46000.0,2994.462559938431
7.992119817733765,-5.144657114028931,-43.999195938110354,0.8127733566761017,46500.0,2.674316420555115,43.41520315551758,43.415517395019535,43.416187118530274,93.0,1000.0,257.7688672515942,48.26401767582378,93000,46500.0,3015.1819298267365
7.986226564407349,-5.1385162143707275,-44.09420484924316,0.8161134877204895,47000.0,2.6900027661323547,43.527017684936524,43.52705485534668,43.52891784667969,94.0,1000.0,258.3512887633258,48.164416485027786,94000,47000.0,3035.9441463947296
7.980327486038208,-5.132314186096192,-44.58392552185059,0.8317475881576538,47500.0,2.600684669971466,44.01872348022461,44.0187127532959,44.01961785888672,95.0,1000.0,270.0100340346116,48.38047654060694,95000,47500.0,3056.6136417388916
7.974422647476196,-5.126653383255005,-44.858208267211914,0.8430349144935608,48000.0,2.6139683322906495,44.293784393310546,44.293990020751956,44.29428108215332,96.0,1000.0,301.2639871007231,48.4047341430533,96000,48000.0,3077.272779226303
7.968511985778808,-5.119953639984131,-44.93374194335937,0.8473066775798798,48500.0,2.6219336352348326,44.36238491821289,44.36210623168945,44.36399942016602,97.0,1000.0,210.4871308890466,47.73448077463555,97000,48500.0,3098.221997022629
7.962595483779907,-5.115819709777832,-45.201376342773436,0.8485330948829651,49000.0,2.869969012260437,44.62255290222168,44.62249214172363,44.62394416809082,98.0,1000.0,275.98503014973227,48.35457358282746,98000,49000.0,3118.902564764023
7.956673133850098,-5.109500814437866,-45.48784703063965,0.8618176248073578,49500.0,2.635664379119873,44.93519418334961,44.93526019287109,44.93579942321777,99.0,1000.0,298.60163977353403,48.26190289702431,99000,49500.0,3139.622843503952
7.950744972229004,-5.103410289764405,-45.812959823608395,0.8658755061626434,50000.0,2.660089150428772,45.23385394287109,45.234208419799806,45.23487118530274,100.0,1000.0,283.7989867303513,48.31801446108422,100000,50000.0,3160.319058895111
7.944810894012451,-5.098425458908081,-45.9582830657959,0.8793301603794098,50500.0,2.8696328434944154,45.38762847900391,45.387347274780275,45.387577346801756,101.0,1000.0,304.31643764960864,17.81191226329986,101000,50500.0,3216.4612629413605
7.938870977401733,-5.091996530532837,-46.30352362060547,0.8894596593379974,51000.0,2.7947313752174376,45.747794494628906,45.74815386962891,45.74990612792969,102.0,1000.0,312.5168269048226,38.84433675013695,102000,51000.0,3242.2050421237946
7.932925138473511,-5.087547843933105,-46.547119415283206,0.8967138669490814,51500.0,2.6615362119674684,45.988270645141604,45.98771893310547,45.98863104248047,103.0,1000.0,323.40880965441806,48.50817300003641,103000,51500.0,3262.820125579834
7.926973432540893,-5.082479600906372,-46.69829542541504,0.9070074398517609,52000.0,2.44584672832489,46.15523516845703,46.15520234680176,46.15489022827148,104.0,1000.0,274.7515997960601,48.30754672045823,104000,52000.0,3283.520826101303
7.921015825271606,-5.077551208496094,-46.9422266998291,0.9141372022628784,52500.0,2.56953537273407,46.39182696533203,46.39212394714355,46.393414688110354,105.0,1000.0,72.54082789819262,48.41119878781789,105000,52500.0,3304.1772050857544
7.915052270889282,-5.070914434432983,-46.76471711730957,0.907675348520279,53000.0,2.897107144832611,46.205298721313476,46.20467445373535,46.20599726867676,106.0,1000.0,287.79470844345,48.31630625687102,106000,53000.0,3324.874151945114
7.909082818984985,-5.065223146438599,-47.09348602294922,0.9180464224815369,53500.0,2.8220237255096436,46.535294128417966,46.5360357208252,46.53609547424316,107.0,1000.0,197.41305085630722,48.2553498148269,107000,53500.0,3345.597243785858
7.90310735321045,-5.059350030899048,-47.1155846862793,0.9159601602554321,54000.0,2.886058662891388,46.55773684692383,46.55701657104492,46.55839953613281,108.0,1000.0,266.76878869083436,48.337574185134706,108000,54000.0,3366.285084962845
7.897125984191894,-5.053904134750367,-47.31663125610351,0.9254858663082123,54500.0,3.2790173692703246,46.764012939453124,46.76415298461914,46.7656092376709,109.0,1000.0,303.4019352217335,48.35537243896505,109000,54500.0,3386.9653112888336
7.891138631820679,-5.048600429534912,-47.572845748901365,0.934508505821228,55000.0,3.0843719115257264,47.03857646179199,47.03884902954101,47.03910273742676,110.0,1000.0,252.82601396633416,48.22399274204479,110000,55000.0,3407.7018778324127
7.885145311355591,-5.043383304595947,-47.75486256408691,0.9361945509910583,55500.0,3.072895017147064,47.22060746765137,47.220472259521486,47.222895339965824,111.0,1000.0,281.68145439173776,17.951786221141735,111000,55500.0,3463.406641960144
7.879145978927612,-5.038629114151001,-48.025438339233396,0.944816647529602,56000.0,3.2832258439064024,47.46876611328125,47.46873416137695,47.469708389282225,112.0,1000.0,207.87270013341154,38.33288878386849,112000,56000.0,3489.4939024448395
7.873140642166137,-5.033210334777832,-48.02305688476562,0.9478971567153931,56500.0,3.1799895634651185,47.46380380249023,47.463852386474606,47.463716537475584,113.0,1000.0,299.7079594496248,48.221257215490915,113000,56500.0,3510.2316455841064
7.867129318237304,-5.027425746917725,-48.232903564453125,0.9543556668758393,57000.0,3.0354435353279112,47.68342692565918,47.683750244140626,47.683795135498045,114.0,1000.0,287.5271681510784,48.290678220128164,114000,57000.0,3530.939577102661
7.861111942291259,-5.0233859558105465,-48.572688354492186,0.9625497977733612,57500.0,2.752961503982544,48.02795944213867,48.028099304199216,48.029878005981445,115.0,1000.0,143.93301181989327,48.454635584935836,115000,57500.0,3551.577438354492
7.8550885372161865,-5.017030466079712,-48.45322001647949,0.9630596232414246,58000.0,3.1484637994766236,47.903443649291994,47.903201568603514,47.904739395141604,116.0,1000.0,276.3792327664247,48.219286431577316,116000,58000.0,3572.316029071808
7.849059061050415,-5.014695537567139,-48.60510870361328,0.9633921117782592,58500.0,3.122637423992157,48.05918118286133,48.05919172668457,48.058265396118166,117.0,1000.0,293.6534757411215,48.26988149164437,117000,58500.0,3593.032881975174
7.8430235385894775,-5.006777156829834,-48.78630841064453,0.9680329113006592,59000.0,3.217941076755524,48.23082537841797,48.230629959106444,48.233704055786134,118.0,1000.0,278.7310320527138,46.45451222869593,118000,59000.0,3614.559317111969
7.836981889724732,-5.002492567062378,-49.112306915283206,0.9705060718059539,59500.0,3.2848652658462525,48.54838813781738,48.54852227783203,48.54807615661621,119.0,1000.0,289.3334760691506,48.310461204996265,119000,59500.0,3635.2587683200836
7.830934213638305,-4.996535932540893,-49.58538577270508,0.9876256024837494,60000.0,2.89725040769577,49.03114013671875,49.03117372131348,49.0333321685791,120.0,1000.0,284.7684802548723,48.2663798051717,120000,60000.0,3655.977123975754
7.824880424499511,-4.991964935302734,-49.67387161254883,0.9931072723865509,60500.0,3.3234883136749267,49.10352017211914,49.10376223754883,49.104113174438474,121.0,1000.0,126.09131040146377,17.97873808676661,121000,60500.0,3711.5983810424805
7.818820503234863,-4.985976554870605,-49.679488540649416,0.9926135008335113,61000.0,3.1974973859786986,49.130983367919924,49.1307607421875,49.130820693969724,122.0,1000.0,283.51644215601203,38.73149743520311,122000,61000.0,3737.4171617031097
7.812754474639893,-4.980242694854736,-49.82029483032227,0.9889935026168823,61500.0,3.5784154472351073,49.25275389099121,49.2529429321289,49.255254501342776,123.0,1000.0,304.6320988253125,47.34738084219986,123000,61500.0,3758.537654876709
7.806682285308838,-4.975091634750366,-50.269158737182615,1.005315019607544,62000.0,3.1005318670272826,49.72454237365723,49.72442486572265,49.72657507324219,124.0,1000.0,297.16872480079815,47.85349230843952,124000,62000.0,3779.4347727298737
7.800603916168213,-4.9705933017730715,-50.372832244873045,1.008624962568283,62500.0,3.150363450050354,49.8228978881836,49.822682388305665,49.821570571899414,125.0,1000.0,304.1602358307732,48.219768163880055,125000,62500.0,3800.1731560230255
7.794519449234008,-4.96373929977417,-50.583998123168946,1.0118803720474243,63000.0,3.0375064520835875,50.0378660736084,50.03768260192871,50.039071395874025,126.0,1000.0,288.4078911547249,47.88675614432232,126000,63000.0,3821.0557572841644
7.788428787231445,-4.9569187927246094,-50.64263400268555,1.0153242092132568,63500.0,3.094643404960632,50.082826446533204,50.08349052429199,50.08385232543945,127.0,1000.0,298.98236475576584,48.344103927910034,127000,63500.0,3841.7408039569855
7.782331926345825,-4.9506909370422365,-51.02651225280762,1.0244535269737243,64000.0,3.0329826211929323,50.46815951538086,50.46771842956543,50.46810057067871,128.0,1000.0,247.3861245526592,48.18830394473448,128000,64000.0,3862.492728471756
7.7762288475036625,-4.9458561038970945,-51.12786238098145,1.0279020404815673,64500.0,2.9034080276489256,50.58333512878418,50.583638214111325,50.58456430053711,129.0,1000.0,307.40879405008207,48.21356791246945,129000,64500.0,3883.233779191971
7.770119585037231,-4.942483009338379,-51.39073068237305,1.0343804051876069,65000.0,2.875466359615326,50.82655078125,50.82633177185058,50.827470657348634,130.0,1000.0,303.2020786510007,48.25445100090356,130000,65000.0,3903.957257270813
7.764004072189331,-4.936169025421143,-51.56676638793945,1.0426009666919709,65500.0,2.8545051021575927,51.00753833007813,51.00750270080567,51.008672042846676,131.0,1000.0,316.5959254739718,18.030781954111806,131000,65500.0,3959.4179694652557
7.757882326126099,-4.931497200012207,-51.87323454284668,1.0478812141418457,66000.0,2.8627272329330444,51.312240814208984,51.312097427368165,51.31300489807129,132.0,1000.0,265.1585356024576,38.87256166035235,132000,66000.0,3985.1430566310883
7.751754350662232,-4.927240581512451,-51.77229188537598,1.0528446595668792,66500.0,2.97017614364624,51.231272583007815,51.2313807220459,51.23292852783203,133.0,1000.0,268.9706222347798,38.956219151097955,133000,66500.0,4010.8128995895386
7.745620077133179,-4.919410753250122,-52.05682327270508,1.0544238803386687,67000.0,3.1594058084487915,51.506569915771486,51.506475189208984,51.5059909362793,134.0,1000.0,251.00819137204678,47.43669503704725,134000,67000.0,4031.8936274051666
7.7394795455932615,-4.912843448638916,-52.225532135009765,1.0573557479381561,67500.0,3.5034811320304873,51.66505442810059,51.665270111083984,51.666800430297855,135.0,1000.0,318.7327788467612,47.676302234844854,135000,67500.0,4052.868409395218
7.733332662582398,-4.906940967559814,-52.48807080078125,1.0617205293178558,68000.0,3.4584357657432556,51.92367280578613,51.92379646301269,51.92508326721192,136.0,1000.0,339.552929546588,48.16654596045067,136000,68000.0,4073.6297082901
7.7271795711517335,-4.902603258132935,-52.56408460998535,1.0717337372303009,68500.0,3.4006735835075377,52.00351084899902,52.00336878967285,52.003897064208985,137.0,1000.0,307.4876498144893,47.9948245327,137000,68500.0,4094.465288877487
7.721020133972168,-4.894956245422363,-53.12371530151367,1.0804243421554565,69000.0,3.307351947784424,52.554607528686525,52.554238723754885,52.55428378295898,138.0,1000.0,62.33247398611526,48.24138173362175,138000,69000.0,4115.194380998611
7.714854337692261,-4.889880588531494,-52.66159307861328,1.0707307870388032,69500.0,3.1336041746139527,52.106587326049805,52.1066014251709,52.1082861328125,139.0,1000.0,301.6996447355918,48.22440359681526,139000,69500.0,4135.930771589279
7.708682233810425,-4.884366138458252,-53.039108779907224,1.0792000017166137,70000.0,3.2656250467300416,52.49303143310547,52.49315483093262,52.493031677246094,140.0,1000.0,338.8188339709693,48.38969073868143,140000,70000.0,4156.596331119537
7.702503761291504,-4.877353769302368,-53.0481340637207,1.0864693877696991,70500.0,3.402783173561096,52.501726318359374,52.50140866088867,52.50355065917969,141.0,1000.0,91.2879235262702,18.031891374817146,141000,70500.0,4212.053631782532
7.696318922042846,-4.8705576820373535,-53.03913935852051,1.078262695789337,71000.0,3.29151150226593,52.48831912231445,52.48875309753418,52.48962040710449,142.0,1000.0,322.9707225848129,38.50468131212239,142000,71000.0,4238.024500608444
7.690127681732178,-4.8647048397064205,-53.03011987304688,1.0803472244739531,71500.0,3.452237190246582,52.486624282836914,52.48631784057617,52.48498057556152,143.0,1000.0,307.3106270497453,48.22082313026388,143000,71500.0,4258.76243019104
7.683930034637451,-4.858659923553467,-53.42048338317871,1.0995210237503052,72000.0,3.3031677021980284,52.86139653015137,52.86158193969727,52.86359889221191,144.0,1000.0,300.668801742795,48.24279277137943,144000,72000.0,4279.490916013718
7.67772603225708,-4.853158721923828,-53.71319937133789,1.0953513150215148,72500.0,3.3377834625244143,53.16181460571289,53.16138429260254,53.162973876953124,145.0,1000.0,156.39359465156457,47.969763443632615,145000,72500.0,4300.3373827934265
7.671515556335449,-4.8474659309387205,-53.49582391357422,1.1013549525737762,73000.0,3.6644224023818968,52.957828033447264,52.95787393188476,52.95910708618164,146.0,1000.0,300.9210733803563,47.496777921446814,146000,73000.0,4321.391443490982
7.665298692703247,-4.8435463581085205,-53.696124542236326,1.103963798046112,73500.0,3.3561821932792664,53.157304290771485,53.1570252532959,53.15864288330078,147.0,1000.0,348.8821211981222,47.96837546364639,147000,73500.0,4342.238512516022
7.65907533454895,-4.835987716674805,-53.973996978759764,1.1082484810352324,74000.0,3.2621273221969607,53.42070101928711,53.421006240844726,53.420318359375,148.0,1000.0,272.01417905423904,48.26645701010327,148000,74000.0,4362.956835508347
7.6528455371856685,-4.831713390350342,-53.92610467529297,1.108221164226532,74500.0,3.621376570224762,53.36803515625,53.368149780273434,53.369748825073245,149.0,1000.0,290.72591231815363,48.2529615639637,149000,74500.0,4383.680952548981
7.646609262466431,-4.826597196578979,-54.34097334289551,1.1162838785648346,75000.0,3.4790911140441896,53.77911784362793,53.778840347290036,53.77869232177734,150.0,1000.0,298.37707692732243,48.22518429561473,150000,75000.0,4404.417006969452
7.640366500854492,-4.818893772125244,-54.594195770263674,1.1219222950935364,75500.0,4.068323121070862,54.0360128326416,54.03623867797852,54.03730418395996,151.0,1000.0,312.5984308690298,18.021778157136737,151000,75500.0,4459.905427932739
7.634117233276367,-4.812022371292114,-54.828826431274415,1.1288353168964387,76000.0,3.4775775451660156,54.282602676391605,54.28250769042969,54.282947845458985,152.0,1000.0,341.6170179770515,38.9451151378923,152000,76000.0,4485.582589864731
7.627861427307129,-4.808855491638184,-54.83372955322265,1.1271501247882842,76500.0,3.532100350379944,54.27280210876465,54.27303506469727,54.27378019714355,153.0,1000.0,317.57383166427405,48.09698033632008,153000,76500.0,4506.373916625977
7.621599145889283,-4.8022288265228275,-55.09151403808594,1.1354710340499878,77000.0,3.584874615192413,54.528373275756834,54.528253692626954,54.530560791015624,154.0,1000.0,298.90641321062174,47.503414952381846,154000,77000.0,4527.425035715103
7.615330308914184,-4.796776578903199,-55.340398880004884,1.1424108607769012,77500.0,3.7606624331474303,54.7804178314209,54.780529357910154,54.7799857635498,155.0,1000.0,180.80196433937286,47.36108140750455,155000,77500.0,4548.5394196510315
7.609054878234863,-4.790574892044067,-55.396344955444334,1.1420809400081635,78000.0,3.6904574217796324,54.83809605407715,54.838149322509764,54.84051737976074,156.0,1000.0,339.0347466936091,47.62765170499177,156000,78000.0,4569.535626649857
7.602772920608521,-4.784654048919678,-55.30445777893066,1.139068356513977,78500.0,3.641799288272858,54.7530251159668,54.753342651367184,54.75214649963379,157.0,1000.0,316.95709044041115,47.96128649787759,157000,78500.0,4590.385776996613
7.596484352111816,-4.7804577407836915,-55.62567221069336,1.1480452375411987,79000.0,3.597577996253967,55.06696472167969,55.06686128234863,55.06777430725098,158.0,1000.0,324.7570235584689,47.30049083502129,158000,79000.0,4611.527207612991
7.590189182281494,-4.77337520980835,-55.797552856445314,1.1582394399642943,79500.0,3.7953176441192626,55.237927474975585,55.23805133056641,55.240136962890624,159.0,1000.0,309.6448885509735,47.668535439373734,159000,79500.0,4632.505407094955
7.583887392044067,-4.767993667602539,-55.85917449951172,1.1581734182834624,80000.0,3.7867735834121703,55.313406509399414,55.313300033569334,55.31480859375,160.0,1000.0,316.4522709665468,48.20435528687196,160000,80000.0,4653.250421285629
7.57757900428772,-4.761542135238647,-56.15564823913574,1.1660796597003937,80500.0,3.405878866672516,55.601416000366214,55.60161471557617,55.60300329589844,161.0,1000.0,306.5936987721638,18.031597417747708,161000,80500.0,4708.708625555038
7.571263954162598,-4.756342288970948,-56.191694076538084,1.169335455417633,81000.0,3.7073714013099672,55.65010285949707,55.65016302490234,55.650439331054685,162.0,1000.0,343.8769314977859,39.81493642583167,162000,81000.0,4733.824829339981
7.564942260742187,-4.751439105987549,-56.28552458190918,1.1724115643501283,81500.0,3.5581988186836244,55.72985891723633,55.72962265014648,55.73017350769043,163.0,1000.0,330.7534420504844,48.07817802551847,163000,81500.0,4754.6242871284485
7.558613937377929,-4.747626131057739,-56.52433966064453,1.1730750348567962,82000.0,3.693804534435272,55.97250093078613,55.97291426086426,55.973388870239255,164.0,1000.0,328.6300105275804,47.493224015494306,164000,82000.0,4775.679923295975
7.552278881072998,-4.739611066818237,-56.64041436767578,1.1798646202087402,82500.0,3.4090274772644045,56.08141918945312,56.08146879577637,56.083043243408206,165.0,1000.0,357.19209176113236,47.69677710626932,165000,82500.0,4796.645701646805
7.545937120437622,-4.73400098991394,-56.89562828063965,1.1817285470962524,83000.0,3.8340739579200744,56.34059471130371,56.340440307617186,56.3415556640625,166.0,1000.0,313.7981170950574,47.989162420637264,166000,83000.0,4817.48374080658
7.539588691711426,-4.727555044174195,-57.037309005737306,1.1880907073020934,83500.0,3.5746205101013184,56.49671492004394,56.49682870483399,56.498080230712894,167.0,1000.0,338.09361485902343,46.95537036409079,167000,83500.0,4838.780560255051
7.533233512878418,-4.72084912109375,-57.3035285949707,1.1986972641944886,84000.0,3.670937255859375,56.7588621673584,56.75834278869629,56.7589914855957,168.0,1000.0,336.1653299496067,48.19359616725748,168000,84000.0,4859.530206441879
7.5268716144561765,-4.7169543018341065,-57.35143037414551,1.197794358253479,84500.0,4.1633987064361575,56.78759278869629,56.787832778930664,56.78909242248535,169.0,1000.0,175.19778881316228,48.03406988061238,169000,84500.0,4880.348764181137
7.520502935409546,-4.710847631454468,-57.44861654663086,1.1959513444900514,85000.0,3.631110823631287,56.87321449279785,56.873056594848634,56.874301712036136,170.0,1000.0,283.61366668327446,47.292064259822396,170000,85000.0,4901.493961572647
7.514127508163452,-4.704426000595093,-57.57174533081054,1.203276335954666,85500.0,3.5037249660491945,57.014453063964844,57.01437528991699,57.0154471282959,171.0,1000.0,311.37478335041095,17.95742194551739,171000,85500.0,4957.181243658066
7.507745286941528,-4.69887618637085,-57.73501641845703,1.2080338873863221,86000.0,3.7873713693618773,57.18740057373047,57.18728855895996,57.18805682373047,172.0,1000.0,364.90813636561415,38.826235594499565,172000,86000.0,4982.93702507019
7.5013562793731685,-4.693241193771362,-57.91326985168457,1.215260245323181,86500.0,3.6855606527328493,57.36476138305664,57.36467170715332,57.36668911743164,173.0,1000.0,339.9833905458856,48.11138090073027,173000,86500.0,5003.722128629684
7.494960487365723,-4.686313467025757,-58.07719357299805,1.219160394191742,87000.0,3.7782935791015624,57.52497343444824,57.52487481689453,57.52390161132813,174.0,1000.0,60.347418713759346,48.31013457382556,174000,87000.0,5024.421719789505
7.488557830810547,-4.6789178371429445,-57.70329104614258,1.2110732755661011,87500.0,3.4314526743888853,57.14752207946778,57.14789971923828,57.14851629638672,175.0,1000.0,266.17854934948866,48.0245990869232,175000,87500.0,5045.244382619858
7.482148330688476,-4.671799755096435,-57.89120463562012,1.2194683299064637,88000.0,3.6280707907676697,57.33101338195801,57.33070465087891,57.33244267272949,176.0,1000.0,340.4539954124979,48.31945726136964,176000,88000.0,5065.93998003006
7.475732004165649,-4.668274307250977,-58.01529524230957,1.21979070520401,88500.0,4.375101697921753,57.45839836120606,57.45855226135254,57.45951142883301,177.0,1000.0,329.20419272355906,48.23429616531099,177000,88500.0,5086.672117233276
7.469308801651001,-4.661388500213623,-58.511286102294925,1.2324987044334412,89000.0,3.973181999206543,57.949074676513675,57.94919659423828,57.94955894470215,178.0,1000.0,331.6112828063855,48.28619235640539,178000,89000.0,5107.381972074509
7.462878667831421,-4.654102638244629,-58.311211959838865,1.2220833196640015,89500.0,3.8707812356948854,57.7415302734375,57.74108329772949,57.74316584777832,179.0,1000.0,340.7239412089098,48.42252767200565,179000,89500.0,5128.033517837524
7.456441711425781,-4.6490165309906,-58.57267138671875,1.2330375499725341,90000.0,4.185023908615112,58.023717819213864,58.023759368896485,58.02316143798828,180.0,1000.0,108.74017750290473,48.597627312297014,180000,90000.0,5148.610655069351
7.449997804641724,-4.642452781677246,-58.23880224609375,1.232437756061554,90500.0,3.793827299594879,57.69182557678223,57.69174076843262,57.691450469970704,181.0,1000.0,94.22045012216293,17.74820090336619,181000,90500.0,5204.954395055771
7.443546991348267,-4.636358541488647,-58.300713638305666,1.2247468252182008,91000.0,4.0623923478126525,57.73703123474121,57.736590911865235,57.739799896240235,182.0,1000.0,307.99156958561264,38.96882545249524,182000,91000.0,5230.615933895111
7.437089223861694,-4.631481517791748,-58.62407385253906,1.2341053557395936,91500.0,4.599055230617523,58.06604396057129,58.06648915100098,58.066493789672855,183.0,1000.0,321.7836316640946,47.48062183333347,183000,91500.0,5251.677158355713
7.43062448310852,-4.6254967555999755,-58.54009733581543,1.2312515544891358,92000.0,4.477437896251678,57.971318756103514,57.97145509338379,57.97392858886719,184.0,1000.0,121.53468457803427,48.58586741409807,184000,92000.0,5272.259276151657
7.424152791976929,-4.619138277053833,-58.538924377441404,1.2345007553100587,92500.0,4.242948668003082,57.96417739868164,57.9640143737793,57.96548187255859,185.0,1000.0,360.4779456076243,48.425606445195804,185000,92500.0,5292.909509181976
7.417674076080322,-4.613856729507447,-58.4350057220459,1.2356612310409545,93000.0,4.596535166740417,57.87293531799316,57.8733709564209,57.87435861206055,186.0,1000.0,261.20260177695064,48.35071179504593,186000,93000.0,5313.591728925705
7.4111884059906,-4.607796981811523,-58.755963989257815,1.229221646785736,93500.0,3.849214352607727,58.204838562011716,58.204495391845704,58.204836318969726,187.0,1000.0,359.796654757909,48.45844065038992,187000,93500.0,5334.227969408035
7.404695671081543,-4.602325456619263,-58.94302299499512,1.2398644261360168,94000.0,4.668596402168274,58.393126525878905,58.39315171813965,58.39353889465332,188.0,1000.0,188.20065674600562,48.48327529729485,188000,94000.0,5354.853639602661
7.39819595336914,-4.5946346969604495,-58.824755340576175,1.2416810183525084,94500.0,4.537730860710144,58.2598641204834,58.259853927612305,58.2609079284668,189.0,1000.0,236.27639445640312,48.52713522517672,189000,94500.0,5375.460667848587
7.391689126968384,-4.588742248535156,-58.998719589233396,1.2444812111854553,95000.0,4.6828595495224,58.42317256164551,58.42301072692871,58.424275436401366,190.0,1000.0,324.70703076238453,48.40521679476039,190000,95000.0,5396.119599342346
7.385175279617309,-4.582592439651489,-59.195827880859376,1.2430071282386779,95500.0,4.610867446899414,58.63373606872558,58.63405387878418,58.633363967895505,191.0,1000.0,337.05980504626706,17.90811106476669,191000,95500.0,5451.960218906403
7.37865432548523,-4.575495687484741,-59.248629119873044,1.244814049243927,96000.0,4.833101295471192,58.665782150268555,58.6652978515625,58.668950790405276,192.0,1000.0,299.3962163387747,38.499048695407794,192000,96000.0,5477.934887647629
7.372126314163208,-4.569388679504394,-59.46729678344727,1.2536827096939087,96500.0,4.470303292274475,58.91656753540039,58.91688034057617,58.9167544708252,193.0,1000.0,330.8226695164585,48.105867812660975,193000,96500.0,5498.722373008728
7.365591150283813,-4.5623219833374025,-59.575920852661135,1.2537899141311646,97000.0,4.28864528465271,59.0101589050293,59.009974105834964,59.012556549072265,194.0,1000.0,367.88291841630587,48.18536155547065,194000,97000.0,5519.475564479828
7.3590488986969,-4.5576644649505615,-59.73669439697266,1.2627867527008056,97500.0,4.379063321113587,59.171340789794925,59.17140930175781,59.17224592590332,195.0,1000.0,335.30779103408173,48.2234787675938,195000,97500.0,5540.212352275848
7.35249948310852,-4.553785863876342,-59.75366157531738,1.262675039768219,98000.0,4.307234391689301,59.192289321899416,59.19219804382324,59.19332231140137,196.0,1000.0,345.3599634815834,48.26027861950997,196000,98000.0,5560.933327913284
7.34594289970398,-4.546908332824707,-59.73172039794922,1.262628894329071,98500.0,4.596208724975586,59.18926245117188,59.18926712036133,59.18928730773926,197.0,1000.0,362.5427655325719,48.36607341186419,197000,98500.0,5581.608978271484
7.339379173278808,-4.5393904666900635,-60.26173643493652,1.2776642441749573,99000.0,4.05099910068512,59.697897399902345,59.69754331970215,59.69912461853027,198.0,1000.0,397.1359754690142,48.18621572478212,198000,99000.0,5602.361802101135
7.332808238983154,-4.533978776931763,-60.173249481201175,1.2749638533592225,99500.0,4.059972304821015,59.6030559387207,59.60291024780273,59.60397821044922,199.0,1000.0,333.59201833772374,48.28395835249807,199000,99500.0,5623.072615146637
7.326230108261108,-4.525974571228027,-60.24470553588867,1.2826933650970458,100000.0,4.326383632659912,59.68546865844726,59.685259216308594,59.686678436279294,200.0,1000.0,352.0433042652855,48.19864197011195,200000,100000.0,5643.820088624954
7.319644752502441,-4.520522415161133,-60.398898147583004,1.282171654701233,100500.0,4.168312706947327,59.827702514648436,59.82837464904785,59.82906524658203,201.0,1000.0,350.68199817304236,18.040325868457224,201000,100500.0,5699.251460790634
7.313052169799804,-4.514647665023804,-60.646414031982424,1.290734766960144,101000.0,4.2817137861251835,60.081563674926755,60.08164709472656,60.084341506958005,202.0,1000.0,132.45850129612583,38.62522117989877,202000,101000.0,5725.141280889511
7.306452320098877,-4.508578145980835,-60.592773818969725,1.28780637550354,101500.0,4.4950683045387265,60.039632400512694,60.03942610168457,60.037795623779296,203.0,1000.0,368.84041619705425,47.38462118972759,203000,101500.0,5746.245175600052
7.299845218658447,-4.504461553573608,-60.69856266784668,1.2913565473556519,102000.0,4.395148184299469,60.152328186035156,60.15264314270019,60.15549436950683,204.0,1000.0,193.02133190064632,47.90660839296982,204000,102000.0,5767.119122982025
7.293230850219727,-4.498192375183105,-60.46016223144531,1.2829145312309265,102500.0,4.312289053916931,59.89368171691895,59.89324694824219,59.89437406921387,205.0,1000.0,362.740132080167,48.151627001778316,205000,102500.0,5787.8868544101715
7.286609146118164,-4.4893701419830325,-60.7315227355957,1.2920289359092711,103000.0,4.466941470623016,60.16129902648926,60.161527420043946,60.1603814239502,206.0,1000.0,316.82199942654034,48.18088029232027,206000,103000.0,5808.641976594925
7.2799801368713375,-4.482097595214844,-61.044752624511716,1.2984152255058288,103500.0,4.94758716583252,60.48872036743164,60.48855450439453,60.49098564147949,207.0,1000.0,376.7474700308312,48.04658563541683,207000,103500.0,5829.455110788345
7.273343818664551,-4.477367544174195,-61.0797497253418,1.3005890159606934,104000.0,4.52005995464325,60.5142740020752,60.5141979675293,60.51523693847656,208.0,1000.0,352.2292843038944,48.12452282698848,208000,104000.0,5850.234538555145
7.266700094223022,-4.470254537582398,-61.38769631958008,1.305266673564911,104500.0,4.253334888458252,60.82246025085449,60.82268251037598,60.82424560546875,209.0,1000.0,360.608665678035,47.89859462759012,209000,104500.0,5871.1119792461395
7.260049053192139,-4.465971908569336,-61.48962915039063,1.3149637551307678,105000.0,4.612039659500122,60.95477619934082,60.95458589172363,60.954483047485354,210.0,1000.0,345.61537452491143,48.1310249573637,210000,105000.0,5891.888599872589
7.253390625,-4.459538621902466,-61.70318208312988,1.318840271949768,105500.0,4.425856050491333,61.148800964355466,61.14917150878906,61.150351943969724,211.0,1000.0,262.56033424550253,17.961423730809273,211000,105500.0,5947.563474178314
7.24672479057312,-4.4510404510498045,-61.48702864074707,1.3099239115715027,106000.0,4.215576942443848,60.91037547302246,60.91018228149414,60.91184378051758,212.0,1000.0,355.26780445456563,38.794843852636674,212000,106000.0,5973.340096235275
7.240051555633545,-4.445700899124145,-61.856180587768556,1.3162975339889527,106500.0,4.3054509382247925,61.28281367492676,61.28289781188965,61.28502377319336,213.0,1000.0,290.646618869813,47.883087883699794,213000,106500.0,5994.224297761917
7.233370901107788,-4.439861989974975,-62.18708233642578,1.3215544543266295,107000.0,4.954395038604736,61.631829238891605,61.63157069396973,61.63177732849121,214.0,1000.0,334.47736517575277,47.32671401627881,214000,107000.0,6015.35401391983
7.2266827583312985,-4.4329840927124025,-62.19848098754883,1.3239074459075928,107500.0,4.97140340089798,61.646061233520506,61.646156768798825,61.64755741882324,215.0,1000.0,382.9024175443526,47.61064606312616,215000,107500.0,6036.357721090317
7.219987161636353,-4.429480768203735,-62.30239511108398,1.3288294882774354,108000.0,4.8228962612152095,61.727144165039064,61.72709539794922,61.72654313659668,216.0,1000.0,366.68837707595327,48.247598021223446,216000,108000.0,6057.084142208099
7.213284093856812,-4.421058193206787,-62.65760250854492,1.3319561338424684,108500.0,4.495037606239319,62.06668663024902,62.06687106323242,62.07105284118652,217.0,1000.0,355.73528594898005,48.203229023697006,217000,108500.0,6077.829641580582
7.2065735492706295,-4.41630931854248,-62.54874978637695,1.3311000366210937,109000.0,4.3988489198684695,61.97801918029785,61.978015914916995,61.97674069213867,218.0,1000.0,363.8543184913894,47.961664918033804,218000,109000.0,6098.679627656937
7.19985544013977,-4.410536991119384,-62.93934565734863,1.3364148716926574,109500.0,4.404511613845825,62.37655513000488,62.37652433776856,62.38007873535156,219.0,1000.0,391.9573627610652,48.00755502195311,219000,109500.0,6119.50968337059
7.193129877090454,-4.403397951126099,-63.086419723510744,1.3457826867103577,110000.0,4.923227259635925,62.511356170654295,62.51098397827148,62.50994180297852,220.0,1000.0,355.16862448625693,48.085318128621125,220000,110000.0,6140.3060529232025
7.18639670753479,-4.396234050750732,-63.081464828491214,1.3494131608009339,110500.0,4.378458448886871,62.51522976684571,62.51513436889648,62.51598168945313,221.0,1000.0,316.74503390830586,17.986391763608392,221000,110500.0,6195.903641462326
7.179655982971191,-4.391837285995483,-63.12795768737793,1.3496470260620117,111000.0,4.565516414642334,62.5659027709961,62.56571746826172,62.568868057250974,222.0,1000.0,332.07007443322664,38.93296758922418,222000,111000.0,6221.588814735413
7.172907695770264,-4.3840737037658695,-63.37017303466797,1.351933189868927,111500.0,5.30898025226593,62.795389266967774,62.79554931640625,62.79653453063965,223.0,1000.0,198.106432184956,38.83547032535589,223000,111500.0,6247.338471651077
7.166151777267456,-4.378448709487915,-63.234464065551755,1.3553781585693359,112000.0,4.679565838813781,62.653102676391605,62.6528920135498,62.65414094543457,224.0,1000.0,163.63162781909216,48.1641526644289,224000,112000.0,6268.100801706314
7.159388277053833,-4.372648731231689,-63.13641828918457,1.348306058883667,112500.0,4.671074398517609,62.56020703125,62.560021865844725,62.5624315032959,225.0,1000.0,383.78529291340084,48.078595768418175,225000,112500.0,6288.900079250336
7.152617126464844,-4.367736362457276,-63.32281712341309,1.3527278604507447,113000.0,4.3570492677688595,62.75141674804688,62.75159104919434,62.75219981384277,226.0,1000.0,358.234027501596,48.185764002177095,226000,113000.0,6309.653098106384
7.145838346481323,-4.362255828857422,-63.69598466491699,1.3676982164382934,113500.0,4.419293678283691,63.130138854980466,63.12990084838867,63.13083419799805,227.0,1000.0,334.8795165420162,48.08326087357261,227000,113500.0,6330.450357437134
7.139051866531372,-4.354910280227661,-63.40411750793457,1.3575527296066283,114000.0,4.871177996635437,62.83297619628906,62.832947265625,62.83424119567871,228.0,1000.0,376.0256209684842,48.0509863520115,228000,114000.0,6351.261585950851
7.1322577209472655,-4.347600688934326,-63.69544111633301,1.3682730174064637,114500.0,4.687007480621338,63.133185592651365,63.133376083374024,63.13435452270508,229.0,1000.0,405.935587836367,47.07285893637976,229000,114500.0,6372.505250692368
7.125455867767334,-4.339874464035034,-63.72844630432129,1.3690317816734314,115000.0,4.996329438209534,63.16290266418457,63.16293792724609,63.164836303710935,230.0,1000.0,369.7250524972843,47.80983560558737,230000,115000.0,6393.421449661255
7.118646291732788,-4.33287433052063,-63.851836807250976,1.3725504417419434,115500.0,5.390477643966674,63.2886545715332,63.288707061767575,63.28925509643555,231.0,1000.0,403.68778216129994,16.521976835645695,231000,115500.0,6453.946895837784
7.111828985214234,-4.327469678878784,-64.06296313476562,1.3785043530464172,116000.0,4.736641912460327,63.4868207244873,63.48684622192383,63.48627973937988,232.0,1000.0,370.84483919794746,47.83897996164217,232000,116000.0,6474.850352048874
7.105003932952881,-4.318616847991944,-64.24647373962402,1.3828940572738648,116500.0,4.771546177864074,63.661376739501954,63.66114065551758,63.664494674682615,233.0,1000.0,63.85287790609146,47.692452415928045,233000,116500.0,6495.818031072617
7.098171104431152,-4.313640445709228,-64.08075180053712,1.3785888657569885,117000.0,4.469684066772461,63.51704069519043,63.5172417602539,63.517384063720705,234.0,1000.0,389.2631374028434,48.06985389026952,234000,117000.0,6516.621091127396
7.091330471038819,-4.307205097198486,-64.14028077697753,1.3793343920707704,117500.0,4.54761439704895,63.582277374267576,63.58233316040039,63.582891204833984,235.0,1000.0,367.52921975556853,48.13526327747821,235000,117500.0,6537.395882368088
7.084482036590576,-4.300703420639038,-64.16496157836914,1.3822435798645019,118000.0,4.747561394691467,63.60708743286133,63.60668809509277,63.60745663452148,236.0,1000.0,438.3340309382989,48.13619301274037,236000,118000.0,6558.170272111893
7.077625772476196,-4.295172164916992,-64.42177963256836,1.388703537940979,118500.0,4.386402592658997,63.84533821105957,63.84577189636231,63.847876556396486,237.0,1000.0,373.3842395695874,48.255192145231575,237000,118500.0,6578.893431901932
7.070761770248413,-4.289398077011108,-64.50139308166504,1.3916375827789307,119000.0,4.345477395057678,63.93648416137695,63.93665673828125,63.9371923828125,238.0,1000.0,380.17962832200595,48.13412422119949,238000,119000.0,6599.668715000153
7.063889713287353,-4.282597957611084,-64.6548278503418,1.3961142830848694,119500.0,4.984525790214539,64.0757767944336,64.07562100219727,64.07666275024414,239.0,1000.0,381.86400219534806,48.14175615422032,239000,119500.0,6620.440703630447
7.057009860992432,-4.276288228988648,-64.9455421295166,1.4036077780723573,120000.0,4.982282052993774,64.38076051330566,64.38112167358399,64.38167846679687,240.0,1000.0,377.55784531066433,48.12244068323681,240000,120000.0,6641.2210302352905
7.050122144699096,-4.270359388351441,-64.71895170593261,1.39780637216568,120500.0,4.628856943130494,64.15782557678223,64.15746528625488,64.16061357116699,241.0,1000.0,384.3386991150252,16.471609919472623,241000,120500.0,6701.931551218033
7.043226488113404,-4.262006837844849,-64.97413589477539,1.4028348422050476,121000.0,4.462818528175354,64.40001222229004,64.40000717163086,64.40027458190917,242.0,1000.0,419.9310009348776,48.14969009528425,242000,121000.0,6722.700118303299
7.036322883605957,-4.255679397583008,-65.3404581451416,1.4074981546401977,121500.0,4.207033062458039,64.76752583312988,64.76805244445801,64.76827209472657,243.0,1000.0,386.90653602713064,47.94594193081301,243000,121500.0,6743.55694103241
7.029411354064941,-4.251681453704834,-65.33686515808105,1.4173586854934692,122000.0,4.98190625,64.76950645446777,64.7690301361084,64.77016653442382,244.0,1000.0,370.741165245801,47.91863078541112,244000,122000.0,6764.425652503967
7.022491828918457,-4.244331691741944,-65.8102589111328,1.4191201472282409,122500.0,4.772693518638611,65.21507453918457,65.21504499816895,65.21511590576172,245.0,1000.0,408.8911243530261,47.11958698911968,245000,122500.0,6785.648251056671
7.015564323425293,-4.238445512771606,-65.99420448303222,1.4227669258117677,123000.0,4.526641400337219,65.41052467346191,65.4108804473877,65.41255757141113,246.0,1000.0,383.48526267821757,47.446569747386484,246000,123000.0,6806.724591255188
7.008628841400147,-4.232686706542969,-66.03641246032714,1.4249202318191527,123500.0,4.450740748405456,65.45382264709473,65.45383450317382,65.45492207336426,247.0,1000.0,181.83325728738836,48.05630461611627,247000,123500.0,6827.533516407013
7.001685276031494,-4.224215402603149,-66.05616142272949,1.423652702331543,124000.0,4.497403677940369,65.47256430053712,65.4723536376953,65.47291229248047,248.0,1000.0,256.8690809331622,47.98042449050862,248000,124000.0,6848.375350236893
6.994733688354493,-4.2168161277771,-65.97838455200196,1.4220832009315492,124500.0,4.6827207937240605,65.38750950622558,65.38774317932129,65.3896372833252,249.0,1000.0,367.6534490495385,47.970473922966214,249000,124500.0,6869.221507072449
6.987774080276489,-4.2106296157836915,-66.28598313903808,1.4280916080474853,125000.0,5.546152983665467,65.69420613098144,65.69403285217285,65.69479341125488,250.0,1000.0,435.7220407343904,48.0636150209752,250000,125000.0,6890.0272669792175
6.980806343078613,-4.201662044525147,-66.42854278564454,1.4306084299087525,125500.0,5.84843239402771,65.83238404846192,65.83300929260254,65.83420594787597,251.0,1000.0,401.5001426239459,16.50551112284961,251000,125500.0,6950.613092422485
6.973830501556397,-4.195563577651978,-66.76609736633301,1.4424498343467713,126000.0,4.841541002273559,66.162323928833,66.16211209106446,66.16209582519531,252.0,1000.0,409.29399765075686,48.065575854283345,252000,126000.0,6971.418003320694
6.9668465557098385,-4.191516115188598,-66.63765222167969,1.4379719767570496,126500.0,4.532026627063751,66.05311553955079,66.05261219787597,66.05430392456054,253.0,1000.0,363.4879292789723,48.09588886669014,253000,126500.0,6992.209801912308
6.959854467391968,-4.184933856964111,-66.84850387573242,1.448917154788971,127000.0,4.522736617088318,66.2611344909668,66.26123083496094,66.2640842590332,254.0,1000.0,439.1576631348171,47.946256530689325,254000,127000.0,7013.066488265991
6.952854221343994,-4.177070777893066,-66.80977713012695,1.4502994151115418,127500.0,4.836831352233887,66.21621789550781,66.21686694335938,66.21641552734376,255.0,1000.0,388.4185597046809,47.998060625235965,255000,127500.0,7033.900664329529
6.945845792770386,-4.171902921676636,-67.22284356689453,1.4560343465805055,128000.0,5.272944570541382,66.61830563354492,66.61845654296874,66.6197419128418,256.0,1000.0,406.6223018067894,47.93627520422156,256000,128000.0,7054.761693954468
6.93882918548584,-4.1637944393157955,-67.24286853027344,1.4543535552024842,128500.0,4.9039942760467525,66.64164924621582,66.64114338684082,66.64300582885743,257.0,1000.0,404.04939384838343,47.66468603226363,257000,128500.0,7075.741587638855
6.9318043403625484,-4.158398952484131,-67.5941464996338,1.4558918781280517,129000.0,4.976148657798767,66.98223361206054,66.98212208557129,66.98372212219239,258.0,1000.0,396.1295456113415,47.219542439096045,258000,129000.0,7096.91926074028
6.924771284103394,-4.149760059356689,-67.7756996459961,1.4608108716011048,129500.0,4.630690443992615,67.15684660339356,67.15693473815918,67.15753184509278,259.0,1000.0,360.4391648024905,47.63631624923249,259000,129500.0,7117.911649227142
6.917729961395263,-4.143987852096558,-67.99412315368653,1.4626900081634522,130000.0,4.919917139053345,67.38514848327637,67.38510862731934,67.38601026916504,260.0,1000.0,393.64876700098324,47.93367520724412,260000,130000.0,7138.773810148239
6.910680360794068,-4.136177690505981,-68.06632859802247,1.4651202077865602,130500.0,4.847874985694885,67.45073588562012,67.45088493347168,67.45173092651368,261.0,1000.0,413.41955741675037,16.46534368595754,261000,130500.0,7199.507435560226
6.903622482299805,-4.1319966506958,-68.46092221069335,1.4791064558029174,131000.0,4.661276564598084,67.85404620361328,67.85451892089844,67.85488372802735,262.0,1000.0,421.13091356355505,48.24661402967591,262000,131000.0,7220.234279632568
6.896556285858154,-4.126831108093262,-68.29270352172851,1.4747766013145447,131500.0,5.146949591636658,67.68578622436523,67.68546830749511,67.68784996032714,263.0,1000.0,441.8064304963832,47.43332069818145,263000,131500.0,7241.3165073394775
6.8894817276000975,-4.11741704750061,-68.7219013671875,1.4799718356132507,132000.0,4.832661732673645,68.12147033691406,68.12135279846191,68.12066975402833,264.0,1000.0,406.3467211137936,47.93961573228033,264000,132000.0,7262.17608332634
6.882398866653443,-4.1108759479522705,-68.57939526367187,1.4853760619163514,132500.0,5.088398759841919,67.96939091491699,67.96997413635253,67.97155155944824,265.0,1000.0,403.39254907157317,48.21597554466165,265000,132500.0,7282.916097640991
6.875307611465454,-4.105264579772949,-69.01219314575195,1.4888252325057982,133000.0,4.691508725166321,68.41638275146484,68.41599725341797,68.41625427246093,266.0,1000.0,405.77084777184575,48.21796490469411,266000,133000.0,7303.655256509781
6.868207983016967,-4.099573923110962,-68.97725051879883,1.4860335998535157,133500.0,4.683078443527221,68.37386163330078,68.37403128051758,68.3759919128418,267.0,1000.0,423.27680296807864,48.41679326382599,267000,133500.0,7324.309247970581
6.861099908828735,-4.09265513420105,-69.11047485351563,1.4845881028175354,134000.0,4.858839718818665,68.48627526855469,68.48626409912109,68.48760206604004,268.0,1000.0,402.97511245490267,47.961947365955304,268000,134000.0,7345.159111022949
6.853983438491821,-4.083682209014893,-69.73539334106445,1.4923061804771423,134500.0,5.2058788032531735,69.11602632141113,69.11593298339844,69.11646376037598,269.0,1000.0,412.9152774901518,47.83696937331714,269000,134500.0,7366.063446521759
6.846858509063721,-4.076691774368286,-70.01753848266601,1.5079040608406067,135000.0,4.6634937181472775,69.39142181396484,69.39143133544921,69.39237005615234,270.0,1000.0,406.55728467254056,47.2772615604252,270000,135000.0,7387.215265035629
6.8397251262664795,-4.071710786819458,-69.92984442138672,1.5095269250869752,135500.0,5.031564082145691,69.29851135253907,69.29827905273437,69.30024893188477,271.0,1000.0,371.07765822666056,16.44309887389441,271000,135500.0,7448.031052827835
6.832583164215088,-4.0640992813110355,-70.29791693115234,1.5104789991378784,136000.0,5.094356939315796,69.67530612182617,69.67519479370117,69.67763055419923,272.0,1000.0,429.20798930609095,48.04427138560243,272000,136000.0,7468.845190048218
6.825432779312134,-4.059167575836182,-70.11139529418945,1.5074336199760436,136500.0,5.322682501792908,69.50294563293457,69.50333338928223,69.50302043151855,273.0,1000.0,279.0419367417997,48.077026790110445,273000,136500.0,7489.645145654678
6.81827384185791,-4.053047288894653,-70.40914208984375,1.511753565788269,137000.0,5.419853781700135,69.79470721435547,69.79447897338868,69.79509878540038,274.0,1000.0,417.1907214678252,47.77573050335613,274000,137000.0,7510.576276540756
6.811106363296509,-4.042933988571167,-70.28797817993164,1.5149101734161377,137500.0,5.234406416893005,69.67586965942382,69.67595053100585,69.67614822387695,275.0,1000.0,374.85021798680566,47.88285610786785,275000,137500.0,7531.460578918457
6.803930301666259,-4.03427614402771,-70.65515687561034,1.52278901386261,138000.0,5.558961003303528,70.0216155090332,70.0218334350586,70.0234218597412,276.0,1000.0,393.0788428351927,47.98737581863945,276000,138000.0,7552.299393415451
6.796745635986328,-4.029176538467407,-70.49237730407715,1.516966007232666,138500.0,5.811532819747925,69.88135647583007,69.88060374450684,69.88253674316407,277.0,1000.0,456.5704111674868,47.96800461776949,277000,138500.0,7573.146623849869
6.789552400588989,-4.0231222190856935,-70.9658232421875,1.5291116175651551,139000.0,5.373639248847962,70.33606875610351,70.33648120117188,70.3360477294922,278.0,1000.0,417.06264155274437,47.829101059271665,278000,139000.0,7594.054397821426
6.78235046005249,-4.01719732093811,-71.14226815795898,1.5352653269767762,139500.0,5.730062118530274,70.5103713684082,70.51042544555663,70.51355758666992,279.0,1000.0,328.04113624550706,48.042614948916786,279000,139500.0,7614.869252204895
6.775139909744262,-4.012316781044007,-71.13842056274414,1.5297887878417968,140000.0,5.523960677146912,70.50558013916016,70.50530654907226,70.50561065673828,280.0,1000.0,416.23323622118255,48.02388865301691,280000,140000.0,7635.692222833633
6.767920598983765,-4.004619536399841,-71.32743878173828,1.5326377549171448,140500.0,5.174676014900207,70.70400427246093,70.70448986816406,70.70516931152343,281.0,1000.0,432.528725101002,16.271799459432117,281000,140500.0,7697.148242235184
6.760692733764649,-3.9974061679840087,-71.41970437622071,1.5373385338783263,141000.0,5.6998247680664065,70.78320147705078,70.78312783813476,70.78399255371093,282.0,1000.0,355.29269902251053,47.983545010582674,282000,141000.0,7717.988720655441
6.753456081390381,-3.991280453681946,-71.64767166137695,1.5409200410842896,141500.0,5.790074861526489,71.00278811645508,71.00327575683593,71.00474633789062,283.0,1000.0,401.22489331133465,47.88508649670048,283000,141500.0,7738.872050523758
6.746210721969605,-3.9856104183197023,-71.91741976928711,1.5423654608726503,142000.0,5.8367366733551025,71.27802981567383,71.27803295898437,71.27794250488282,284.0,1000.0,464.3812684961205,47.79870168579865,284000,142000.0,7759.793123006821
6.738956548690796,-3.9777028675079347,-72.11946740722657,1.5477192268371582,142500.0,5.553036527633667,71.47902813720704,71.47896997070312,71.4807165222168,285.0,1000.0,436.30047559485007,47.99276952194405,285000,142500.0,7780.6295964717865
6.731693609237671,-3.9691523237228394,-72.37907788085937,1.55510875415802,143000.0,5.6268437433242795,71.73618798828124,71.7359821472168,71.73836514282226,286.0,1000.0,409.8765663846896,47.996372771679,286000,143000.0,7801.464504957199
6.724421880722046,-3.962921136856079,-72.18069927978516,1.5578382425308228,143500.0,5.390787276268005,71.5441435546875,71.54436471557617,71.54616473388671,287.0,1000.0,431.8015714223151,38.823511814006615,287000,143500.0,7827.222093582153
6.717141317367553,-3.9556507244110106,-72.45470452880859,1.5542908844947816,144000.0,5.873888303756714,71.79954580688477,71.79937612915039,71.80056161499023,288.0,1000.0,343.3827535659551,48.085218900060525,288000,144000.0,7848.018505573273
6.709851961135865,-3.9476621017456055,-72.56341384887695,1.5655031518936158,144500.0,6.253659961700439,71.93329138183594,71.93325308227539,71.93207092285157,289.0,1000.0,427.18147244645127,47.32519853253323,289000,144500.0,7869.148899078369
6.702553674697876,-3.9415114822387696,-72.71648803710937,1.5650678968429566,145000.0,6.2860155019760136,72.07597174072265,72.07614163208008,72.07677001953125,290.0,1000.0,410.60405365509325,47.91121828860487,290000,145000.0,7890.020838975906
6.6952465019226075,-3.9333604373931883,-73.14571188354492,1.5724508776664734,145500.0,6.450890712738037,72.47553405761718,72.47534448242187,72.47744873046875,291.0,1000.0,41.875537101628325,16.427788462660367,291000,145500.0,7950.893305778503
6.687930433273316,-3.9251267232894897,-73.12454418945312,1.5652519483566285,146000.0,5.83316276550293,72.46701315307617,72.46698458862305,72.46943298339843,292.0,1000.0,200.4140215910919,47.5514150956819,292000,146000.0,7971.923174858093
6.680605459213257,-3.919216533660889,-72.90430645751952,1.5596778874397277,146500.0,5.787421960830688,72.2562434387207,72.25565390014648,72.25539938354493,293.0,1000.0,395.0406529487996,48.06597520090041,293000,146500.0,7992.727913141251
6.673271511077881,-3.9146537303924562,-73.06636270141601,1.5689359111785888,147000.0,5.583652898788452,72.42070166015625,72.42083489990235,72.42308215332031,294.0,1000.0,288.6049717264302,48.24318563496135,294000,147000.0,8013.456230401993
6.665928564071655,-3.907867814064026,-73.19180554199218,1.5607821459770204,147500.0,5.733378535270691,72.55148822021485,72.55151672363282,72.55113858032226,295.0,1000.0,457.6653940439748,48.07775753438998,295000,147500.0,8034.255870103836
6.658576627731323,-3.9016613416671753,-73.302978515625,1.5662945094108582,148000.0,6.883362524032592,72.64715280151367,72.64704299926758,72.6501462097168,296.0,1000.0,430.56204383666557,47.98006169120662,296000,148000.0,8055.097861289978
6.651215705871582,-3.8948940000534056,-73.15192691040039,1.566407352924347,148500.0,6.475455850601196,72.52388754272461,72.52452905273438,72.52323733520508,297.0,1000.0,411.0058888895952,48.05687780366609,297000,148500.0,8075.906539201736
6.643845706939698,-3.888275394439697,-73.44078387451172,1.5765598998069763,149000.0,6.2599369869232175,72.79886227416992,72.79912484741212,72.80043145751954,298.0,1000.0,445.99933613059284,48.059495038337104,298000,149000.0,8096.714082956314
6.636466667175293,-3.880778345108032,-73.51906634521484,1.578458086013794,149500.0,5.711777258872986,72.85958563232421,72.85918106079102,72.86258053588867,299.0,1000.0,410.4166379405907,48.10100800662035,299000,149500.0,8117.503669261932
6.629078535079956,-3.872132791519165,-73.52042025756836,1.5773334064483642,150000.0,6.8146320905685425,72.87331616210938,72.87399227905273,72.87322845458985,300.0,1000.0,438.9863701259839,46.49105847989425,300000,150000.0,8139.01318192482
6.621681262969971,-3.8657292957305907,-73.74050408935547,1.5814810495376588,150500.0,6.765650435447693,73.08491635131836,73.0849094543457,73.08634310913087,301.0,1000.0,459.76518202015353,16.48659764274936,301000,150500.0,8199.668511867523
6.614274909973145,-3.8597276430130005,-74.19164318847656,1.584897644519806,151000.0,6.8212733659744265,73.5297427368164,73.52913861083984,73.53063232421874,302.0,1000.0,455.4177549901942,47.94219445398621,302000,151000.0,8220.526965618134
6.606859405517578,-3.853966682434082,-74.2573623046875,1.5899848690032958,151500.0,6.334380286216736,73.60722708129883,73.60761538696289,73.60853280639648,303.0,1000.0,416.7498751802916,47.3187030235994,303000,151500.0,8241.660259723663
6.599434671401977,-3.8466463317871096,-74.30353607177734,1.5977290782928466,152000.0,6.09575239276886,73.65416891479492,73.65335815429688,73.65394262695312,304.0,1000.0,403.8839650580378,47.221228197721466,304000,152000.0,8262.83717751503
6.592000831604004,-3.8375456056594848,-74.2121846923828,1.5962485647201539,152500.0,6.688021241188049,73.55972772216796,73.56007836914063,73.5625277709961,305.0,1000.0,410.0843192986073,47.67274092027409,305000,152500.0,8283.813525915146
6.584557643890381,-3.8320690135955813,-74.81412451171875,1.5983789401054382,153000.0,6.488845617294311,74.15394152832032,74.15408718872071,74.15144686889649,306.0,1000.0,61.90802201005752,47.90615970881654,306000,153000.0,8304.68766951561
6.577105270385742,-3.8244996643066407,-74.81272302246094,1.6014118824005128,153500.0,6.388139576911926,74.14506414794921,74.14534817504882,74.14807217407227,307.0,1000.0,428.17061316308803,48.07836430047932,307000,153500.0,8325.487046957016
6.569643632888794,-3.818356601715088,-74.73308203125,1.6013636875152588,154000.0,6.228796774864197,74.0880149230957,74.08753131103515,74.08870993041992,308.0,1000.0,319.57029347266445,47.931794137923056,308000,154000.0,8346.350026369095
6.562172714233398,-3.8105623836517335,-74.79378665161133,1.5984894309043884,154500.0,7.070462526321411,74.13738351440429,74.13716748046875,74.13779446411132,309.0,1000.0,405.04474534048023,48.139232718771645,309000,154500.0,8367.123104810715
6.554692438125611,-3.8049945306777953,-74.94519668579102,1.6072445034980773,155000.0,6.68318058013916,74.29049108886718,74.29060946655274,74.29068682861327,310.0,1000.0,361.81141228694895,48.08085324879664,310000,155000.0,8387.92140507698
6.547202898025513,-3.798061411857605,-74.9998483581543,1.6028705172538757,155500.0,6.297421411514282,74.35165539550782,74.3523235168457,74.3542091369629,311.0,1000.0,413.826961760308,16.54058402312113,311000,155500.0,8448.378763437271
6.5397039299011235,-3.7920421810150144,-74.90018966674805,1.6005107131004332,156000.0,7.112739394187927,74.25322842407226,74.25303369140624,74.25412805175782,312.0,1000.0,413.13163469574795,48.04523503304955,312000,156000.0,8469.192482471466
6.532195657730102,-3.783659317970276,-75.1504695739746,1.6048898396492004,156500.0,7.96914040184021,74.50123791503906,74.50144125366211,74.50304397583008,313.0,1000.0,404.27364627844383,48.15864682954385,313000,156500.0,8489.957186698914
6.524677875518798,-3.7778031091690063,-75.3814069519043,1.6130316433906555,157000.0,7.551856066703796,74.71312881469727,74.71309652709961,74.71308297729492,314.0,1000.0,465.5059988772566,47.859393314675685,314000,157000.0,8510.851727247238
6.517150714874267,-3.7703294429779053,-75.5306442565918,1.6195022449493408,157500.0,6.732199533462524,74.87558416748047,74.8756003112793,74.87521200561524,315.0,1000.0,358.08142547820484,47.90900735425349,315000,157500.0,8531.724629878998
6.5096141052246095,-3.762474041938782,-75.69691864013672,1.616701919555664,158000.0,6.92999329662323,75.03419357299805,75.0345698852539,75.03577645874023,316.0,1000.0,432.86303974479824,47.24628794043227,316000,158000.0,8552.890314817429
6.5020680103302,-3.7547700786590577,-75.73140997314454,1.6204954471588136,158500.0,6.287706011772156,75.05693612670899,75.0568862915039,75.05758233642578,317.0,1000.0,447.22157796126237,47.68316788280058,317000,158500.0,8573.86207652092
6.494512393951416,-3.747950637817383,-75.91568930053711,1.6229751977920532,159000.0,6.772446369171143,75.25482040405274,75.25517098999023,75.25703253173828,318.0,1000.0,418.0334224647362,47.82261862786989,318000,159000.0,8594.772684812546
6.486947269439697,-3.7418491382598877,-75.99265545654296,1.6292048873901368,159500.0,6.68388056564331,75.34074084472657,75.34068362426758,75.3409150390625,319.0,1000.0,456.9296888710959,47.812888736551294,319000,159500.0,8615.687548398972
6.4793725624084475,-3.7346968955993654,-76.15082833862304,1.6307432160377502,160000.0,6.731212368011475,75.4937825012207,75.49375045776367,75.49643377685547,320.0,1000.0,425.68639392827225,47.607420389681515,320000,160000.0,8636.692678451538
6.471788341522217,-3.7261359367370606,-76.29275537109375,1.6303012256622313,160500.0,6.286288605690002,75.61596786499024,75.61565188598632,75.6167099609375,321.0,1000.0,459.42723492425125,16.421572622306606,321000,160500.0,8697.588186502457
6.464194480895996,-3.718926930427551,-76.43710739135742,1.6385555896759034,161000.0,7.261831004142762,75.77308255004883,75.7733949584961,75.77315670776368,322.0,1000.0,464.36410284615164,47.09151428742696,322000,161000.0,8718.823437213898
6.4565910091400145,-3.7118496007919313,-76.57897534179688,1.6411879634857178,161500.0,7.200316203117371,75.91021395874023,75.90978009033203,75.91094400024414,323.0,1000.0,436.96903085245003,47.11761100785331,323000,161500.0,8740.046924829483
6.448977891921997,-3.706971040725708,-76.82262631225586,1.6428290047645568,162000.0,7.7335336284637455,76.1533366394043,76.15420324707031,76.15341525268555,324.0,1000.0,424.0428179471994,47.31564969346216,324000,162000.0,8761.18158197403
6.44135510635376,-3.6985777797698973,-77.18164880371094,1.642080367565155,162500.0,7.445797587394714,76.49374404907226,76.49341424560546,76.49457904052734,325.0,1000.0,445.5627004273984,47.38209835245836,325000,162500.0,8782.286600351334
6.433722570419311,-3.6898855142593385,-77.08888592529297,1.6501045136451722,163000.0,7.3021538524627685,76.41136822509766,76.41111669921875,76.4132829284668,326.0,1000.0,427.06064405745985,47.274152833404415,326000,163000.0,8803.439809322357
6.426080379486084,-3.6849971027374266,-77.186189453125,1.6535643167495728,163500.0,6.7678524122238155,76.54534518432617,76.54607348632813,76.54779238891602,327.0,1000.0,412.67839249087257,47.296323038303065,327000,163500.0,8824.583102941513
6.418428407669067,-3.6776588973999025,-77.40011288452149,1.6572254986763,164000.0,7.302141607284546,76.71904077148437,76.71894146728516,76.7185315246582,328.0,1000.0,466.15446007315626,46.43880535941146,328000,164000.0,8846.116818904877
6.410766681671142,-3.672345567703247,-77.60590173339844,1.660795153617859,164500.0,6.755467664718628,76.91906475830078,76.91885513305664,76.9211333618164,329.0,1000.0,437.83994615798713,46.80150153418909,329000,164500.0,8867.483655452728
6.403095123291016,-3.664317949295044,-77.5232190246582,1.65788996219635,165000.0,6.666893394470215,76.84744815063476,76.84761639404297,76.84865872192383,330.0,1000.0,370.8523692714938,47.179948198056834,330000,165000.0,8888.679101705551
6.395413812637329,-3.6561729211807252,-77.6717904663086,1.6575280966758728,165500.0,6.079520379066468,77.00305545043945,77.00335760498047,77.00431262207032,331.0,1000.0,308.1319221521338,16.443276018870073,331000,165500.0,8949.494234085083
6.387722602844239,-3.6499947814941405,-78.0003586730957,1.6631245031356812,166000.0,6.865197289466858,77.31359707641602,77.3127805480957,77.31340838623046,332.0,1000.0,466.6344481380016,47.53137021546412,332000,166000.0,8970.532972335815
6.380021556854248,-3.641956113815308,-78.17534732055664,1.6682060928344726,166500.0,6.854923390388489,77.47918167114258,77.4797092590332,77.48107006835937,333.0,1000.0,468.369146760364,47.405734048264875,333000,166500.0,8991.627467632294
6.372310598373413,-3.6361615743637086,-77.96637344360352,1.6651002883911132,167000.0,6.702467499732971,77.27016394042968,77.26974249267577,77.26986563110351,334.0,1000.0,397.4020021098206,47.42928231545774,334000,167000.0,9012.711489915848
6.364589702606201,-3.628976598739624,-78.27743090820313,1.6698600597381592,167500.0,7.098966510772705,77.58937322998047,77.58978750610352,77.59294140625,335.0,1000.0,420.2163278249298,47.277716660359296,335000,167500.0,9033.863104581833
6.356858871459961,-3.621576920509338,-78.64089346313476,1.673131769657135,168000.0,7.04888987827301,77.95129788208008,77.95097018432617,77.95207177734375,336.0,1000.0,418.65350289873686,47.47084093671901,336000,168000.0,9054.928668260574
6.349118061065674,-3.6146302518844604,-78.53443099975586,1.6781248264312745,168500.0,7.018219051361084,77.85848861694336,77.85855706787109,77.85787298583985,337.0,1000.0,416.0404220818303,47.43652335797833,337000,168500.0,9076.009472370148
6.341367254257202,-3.6069271907806395,-78.83247900390624,1.6792926964759827,169000.0,7.351031860351562,78.15806497192384,78.1580372314453,78.15870556640625,338.0,1000.0,463.5604904316138,47.52637267552657,338000,169000.0,9097.050422668457
6.333606424331665,-3.6020881719589233,-78.89716854858399,1.6849884681701661,169500.0,7.534720304489135,78.22138534545898,78.22173529052735,78.22301385498046,339.0,1000.0,401.0178144744694,47.61072712940599,339000,169500.0,9118.054094314575
6.325835525512695,-3.5926760787963867,-78.71996936035156,1.684046778202057,170000.0,7.626867780685425,78.03556433105469,78.0351769104004,78.03603063964843,340.0,1000.0,456.9566104320112,46.83090311886394,340000,170000.0,9139.407516479492
6.318054567337036,-3.584175904273987,-78.83832278442382,1.6883347568511964,170500.0,7.020740381240845,78.17092736816406,78.1712886352539,78.1711039428711,341.0,1000.0,80.2173806919055,16.232777285675944,341000,170500.0,9201.011269807816
6.310263523101806,-3.5773786687850953,-78.9358775024414,1.6825919318199158,171000.0,7.179193029403686,78.26907708740234,78.26843203735352,78.27028228759765,342.0,1000.0,173.43746090755718,38.50462334118058,342000,171000.0,9226.982177972794
6.302462324142456,-3.569564610481262,-78.99135751342773,1.6827318453788758,171500.0,7.064961462020874,78.31259289550782,78.31306216430664,78.31317297363282,343.0,1000.0,335.20983021107395,47.35755472977524,343000,171500.0,9248.098134040833
6.294650943756103,-3.5626785230636595,-78.46296948242187,1.671676112651825,172000.0,7.039143175125122,77.79215682983398,77.79206451416016,77.79434225463868,344.0,1000.0,68.88356636438044,47.573450113416,344000,172000.0,9269.11826300621
6.286829442977905,-3.556560824394226,-78.45229214477538,1.6766540808677672,172500.0,7.549795224189758,77.79007830810546,77.79022888183594,77.7893422241211,345.0,1000.0,215.66819764065932,47.42426600240118,345000,172500.0,9290.204515695572
6.278997674942016,-3.548130787849426,-78.9321752319336,1.6828789043426513,173000.0,8.375232146263123,78.26412353515624,78.26349111938477,78.26720318603516,346.0,1000.0,469.92230837865924,47.44243895460867,346000,173000.0,9311.282690525055
6.271155696868896,-3.5396868591308595,-78.86170626831054,1.678277473449707,173500.0,8.262996147155762,78.17073260498047,78.17163446044921,78.16990844726563,347.0,1000.0,412.6336311377641,47.4145672677352,347000,173500.0,9332.373256444931
6.263303430557251,-3.5317228240966796,-78.8730185546875,1.6816421132087707,174000.0,8.284004036903381,78.16818026733398,78.16806079101562,78.16937197875977,348.0,1000.0,460.185017924179,45.93462627196372,348000,174000.0,9354.143326759338
6.255440832138062,-3.524305561065674,-79.11082913208008,1.6797029013633729,174500.0,7.36197140789032,78.43851644897461,78.43894256591797,78.43951098632813,349.0,1000.0,451.65662290783746,46.273325060415466,349000,174500.0,9375.75405049324
6.2475680751800535,-3.517961172103882,-78.77672521972656,1.68189110994339,175000.0,7.914055579185486,78.09396264648437,78.09342880249024,78.09575997924804,350.0,1000.0,457.7309891440464,47.539988983627104,350000,175000.0,9396.788974046707
6.2396848697662355,-3.5133696002960204,-79.44851943969726,1.6902427787780763,175500.0,8.088627784729004,78.78437423706055,78.78430679321289,78.78634317016602,351.0,1000.0,431.04613746802715,17.79909410195924,351000,175500.0,9452.97160935402
6.231791315078735,-3.506331069946289,-79.23683572387695,1.6933796048164367,176000.0,7.737364967346191,78.57473107910157,78.57499899291992,78.57459170532226,352.0,1000.0,471.39481261271993,38.27611716479581,352000,176000.0,9479.097562074661
6.223887348175049,-3.4972790479660034,-79.44186294555664,1.697450620174408,176500.0,7.6363349618911744,78.76957110595703,78.76937017822266,78.77157586669922,353.0,1000.0,454.21504705025285,47.659964775770945,353000,176500.0,9500.079533815384
6.215972948074341,-3.490101396560669,-79.34734005737305,1.6969841284751892,177000.0,7.015222658157349,78.6575975036621,78.6576071472168,78.65820022583007,354.0,1000.0,449.8003395557058,47.153893723748865,354000,177000.0,9521.28669142723
6.208048124313354,-3.4834629011154177,-79.67651977539063,1.7038077721595764,177500.0,7.874164400100708,78.99926889038086,78.99886065673829,79.00008090209961,355.0,1000.0,484.0174013967016,47.53463084327871,355000,177500.0,9542.323985815048
6.200112819671631,-3.4740074825286866,-79.70394717407227,1.702470470905304,178000.0,6.928940399169922,79.03148114013672,79.03258963012695,79.03348602294922,356.0,1000.0,488.5297879868819,47.70349131264556,356000,178000.0,9563.286812543869
6.192166965484619,-3.4689339179992675,-79.88172192382812,1.71410706615448,178500.0,7.482787197113037,79.19875729370118,79.19866644287109,79.20070104980469,357.0,1000.0,406.4911425259767,47.36881573443222,357000,178500.0,9584.397748470306
6.184210605621338,-3.461478446006775,-80.07433880615234,1.7117053155899047,179000.0,7.917949697494507,79.39310546875,79.39287698364258,79.39452307128906,358.0,1000.0,402.53854300689153,47.73909074664035,358000,179000.0,9605.344943284988
6.176243667602539,-3.4551426105499266,-79.94738095092774,1.7112966032028198,179500.0,8.714611311912536,79.27698803710938,79.27727801513672,79.27723709106445,359.0,1000.0,449.88950171720364,47.783056494982915,359000,179500.0,9626.272864580154
6.168266147613525,-3.4465072402954102,-80.06189880371093,1.7191933341026306,180000.0,7.567201054573059,79.38282141113281,79.38238668823242,79.38431048583985,360.0,1000.0,461.1389547052484,47.78715262716408,360000,180000.0,9647.198991775513
6.160277988433838,-3.4373274488449095,-80.29859545898438,1.713793273448944,180500.0,8.174622853279114,79.58544555664062,79.58551782226563,79.58814840698243,361.0,1000.0,428.7783255153137,16.47535423028562,361000,180500.0,9707.895714759827
6.152279186248779,-3.4299172191619873,-80.52020767211914,1.717163297176361,181000.0,7.956114310264588,79.82781616210937,79.82797296142579,79.82832867431641,362.0,1000.0,435.53899457634304,47.81874974775557,362000,181000.0,9728.808014631271
6.144269695281983,-3.424171646118164,-80.56294696044922,1.7224093360900878,181500.0,6.855563490867615,79.88300915527344,79.88320123291015,79.88525015258789,363.0,1000.0,464.5607331435629,47.191220458892914,363000,181500.0,9749.998397350311
6.136249536514282,-3.4184577922821044,-80.52569567871093,1.7259793663024903,182000.0,7.674559865951538,79.84290072631836,79.8432341003418,79.84350588989258,364.0,1000.0,431.35424975630605,39.24212097029282,364000,182000.0,9775.481220722198
6.128218656539917,-3.412737480163574,-80.86398684692382,1.729909700870514,182500.0,7.6277298030853276,80.20134170532226,80.20129211425781,80.20156478881836,365.0,1000.0,429.1942302916864,47.70204274593909,365000,182500.0,9796.444684028625
6.120176961898804,-3.403096489906311,-80.9562185974121,1.7333312740325928,183000.0,7.721604596138,80.28891473388671,80.2881890258789,80.29017376708984,366.0,1000.0,432.28431360031846,47.85152417392396,366000,183000.0,9817.342660665512
6.112124481201172,-3.3968729705810548,-80.67124835205078,1.7336380648612977,183500.0,8.246334355354309,80.00840139770507,80.00868704223633,80.0074391784668,367.0,1000.0,452.7955426466299,47.85198875918005,367000,183500.0,9838.240434646606
6.10406120300293,-3.389784390449524,-80.77870346069336,1.728637472629547,184000.0,7.629728361129761,80.10159219360352,80.10134301757813,80.10550674438477,368.0,1000.0,496.1114305478785,47.86871765336661,368000,184000.0,9859.130905628204
6.095987066268921,-3.380293755531311,-81.06502069091798,1.7340957608222962,184500.0,8.069917562484742,80.39689099121094,80.396861328125,80.39431686401367,369.0,1000.0,451.3537308502888,47.88528166560933,369000,184500.0,9880.01415014267
6.087902021408081,-3.3738261365890505,-81.13131005859375,1.7359743938446044,185000.0,8.155938002586364,80.45270581054687,80.45275875854492,80.45584732055664,370.0,1000.0,229.2396993456498,47.82780355979096,370000,185000.0,9900.922491788864
6.079806089401245,-3.3666093101501464,-81.16250756835937,1.7415783977508545,185500.0,7.835365089416504,80.50088272094726,80.50118359375,80.5008980102539,371.0,1000.0,471.25979121318466,16.454260979873197,371000,185500.0,9961.697024583817
6.071699226379395,-3.3578053159713743,-81.44915859985352,1.7510684766769409,186000.0,6.737687109947204,80.77774298095703,80.77761083984375,80.78072036743164,372.0,1000.0,482.19102801695124,47.94761308440563,372000,186000.0,9982.553120613098
6.063581396102905,-3.3507795619964598,-81.04470376586914,1.7434693412780762,186500.0,7.927409639358521,80.3700968322754,80.36993212890626,80.3693276977539,373.0,1000.0,460.9553681852757,47.83126371485455,373000,186500.0,10003.459949016571
6.055452548980713,-3.3423493165969846,-81.51861044311524,1.7473205547332764,187000.0,7.22060764503479,80.84510375976562,80.84443978881836,80.84565191650391,374.0,1000.0,478.517185078994,47.93223344258782,374000,187000.0,10024.322737693787
6.047312671661377,-3.3361931848526,-81.45011026000977,1.7538162531852721,187500.0,7.249001858711242,80.77849783325195,80.77898275756836,80.77990676879882,375.0,1000.0,455.14312221481623,46.990112670403555,375000,187500.0,10045.603810787201
6.039161714553833,-3.327791763305664,-81.5259053955078,1.7555814428329468,188000.0,7.894665491104126,80.8347307434082,80.83493249511719,80.8366598815918,376.0,1000.0,492.27950947696087,47.36279761095154,376000,188000.0,10066.71742939949
6.030999753952027,-3.319689853668213,-81.66308203125,1.759683298587799,188500.0,7.909885231018066,80.97576303100585,80.97551846313476,80.97713665771484,377.0,1000.0,75.994959403826,47.88099323644943,377000,188500.0,10087.60254406929
6.022826620101929,-3.316474024772644,-81.51476754760742,1.7600292682647705,189000.0,7.016835384368896,80.83780471801758,80.83816918945313,80.83940798950195,378.0,1000.0,449.56583133697603,46.743374183457234,378000,189000.0,10108.99595117569
6.014642364501953,-3.3061042642593383,-81.54848422241211,1.7532682156562804,189500.0,8.296692882537842,80.87730770874023,80.87723318481446,80.87740518188477,379.0,1000.0,452.74770995753244,47.86659094083262,379000,189500.0,10129.887350082397
6.006446855545044,-3.3016995000839233,-81.40019409179688,1.7594966011047364,190000.0,7.046837230682373,80.74887573242188,80.74924517822265,80.74992980957032,380.0,1000.0,473.66318295542874,47.85168631369947,380000,190000.0,10150.785256147385
5.9982402153015135,-3.2918817977905275,-81.6021756591797,1.7644822125434876,190500.0,8.708175879478455,80.91933624267578,80.91842337036132,80.92053930664062,381.0,1000.0,464.11949435751694,16.463121310856504,381000,190500.0,10211.527079820633
5.990022302627564,-3.283698655128479,-82.01183380126953,1.758943696498871,191000.0,7.116382293701172,81.32356564331054,81.32440798950195,81.32518661499023,382.0,1000.0,500.45829352827036,47.826728090252736,382000,191000.0,10232.435892105103
5.981793136596679,-3.274507130622864,-81.8989348449707,1.7679557328224182,191500.0,7.359415509223938,81.20575817871094,81.20496728515624,81.20570971679687,383.0,1000.0,481.7803716335735,47.853323058887185,383000,191500.0,10253.33308339119
5.97355265045166,-3.2687358684539793,-81.84300189208984,1.7694258241653442,192000.0,8.596198859214782,81.14977954101562,81.14982382202149,81.15039651489258,384.0,1000.0,463.2599944289467,47.75567770892836,384000,192000.0,10274.273002624512
5.965300838470459,-3.2601318101882937,-82.0821561279297,1.7747403240203858,192500.0,8.625262325286865,81.39640466308593,81.396548828125,81.39890103149413,385.0,1000.0,489.5749792683793,47.628038399497306,385000,192500.0,10295.269039392471
5.957037656784058,-3.2550069522857665,-82.20726159667969,1.7755030789375306,193000.0,7.634401846885681,81.56525729370117,81.56453289794922,81.56577893066407,386.0,1000.0,475.52445906536633,47.54708007212893,386000,193000.0,10316.300825595856
5.948763095855713,-3.2465409088134765,-81.95663040161133,1.7698569722175599,193500.0,7.327193690299988,81.2944631652832,81.29521249389649,81.2934716796875,387.0,1000.0,396.09593230543305,46.72682537774324,387000,193500.0,10337.701810359955
5.940477111816406,-3.2402202129364013,-82.15885552978516,1.778816279888153,194000.0,7.785387999534607,81.49726107788086,81.49697744750976,81.49892776489258,388.0,1000.0,474.5517156035956,47.11055059784336,388000,194000.0,10358.928478717804
5.932179634094238,-3.2303998098373414,-82.38809805297852,1.777217369556427,194500.0,8.187519322395325,81.70088735961914,81.70128829956055,81.70113961791992,389.0,1000.0,231.35679918375035,47.41202998601458,389000,194500.0,10380.020173072815
5.923870687484741,-3.219996081352234,-82.6719873046875,1.7949449219703675,195000.0,8.19329831790924,82.00275762939454,82.0024684753418,82.00442559814454,390.0,1000.0,488.06508702325834,47.527827288008645,390000,195000.0,10401.060479164124
5.915550199508667,-3.2149062185287476,-82.47148239135743,1.7805625123977662,195500.0,7.2467374458312985,81.80201876831055,81.80193215942383,81.80507489013672,391.0,1000.0,476.07424885849093,16.435783761641385,391000,195500.0,10461.903334379196
5.907218183517456,-3.206421854019165,-82.74251431274413,1.7893123331069947,196000.0,8.6452390127182,82.05044219970704,82.05039093017578,82.0516325378418,392.0,1000.0,482.50418853171556,47.58633377798484,392000,196000.0,10482.917771816254
5.898874549865723,-3.19759574508667,-82.61626998901367,1.7822761716842652,196500.0,7.928804528236389,81.92393930053711,81.92401525878907,81.92512338256836,393.0,1000.0,484.0171095337067,47.501115074107695,393000,196500.0,10503.969910144806
5.890519346237182,-3.1923950510025025,-82.47074420166015,1.7943281331062317,197000.0,7.832587008476257,81.8130778503418,81.81343209838867,81.8118074951172,394.0,1000.0,478.881474116922,47.54052998317715,394000,197000.0,10525.0045940876
5.882152435302735,-3.1842544946670532,-82.82465402221679,1.791975296497345,197500.0,7.931533574104309,82.15637768554687,82.15627490234375,82.15947702026367,395.0,1000.0,483.9418220947081,47.51699280609298,395000,197500.0,10546.049698114395
5.873773880004883,-3.1767827529907224,-82.83437023925781,1.8007714204788208,198000.0,7.630711135864257,82.16548388671875,82.16526077270508,82.16665512084961,396.0,1000.0,482.15084144372275,47.535472872217284,396000,198000.0,10567.086620092392
5.86538360786438,-3.1690748329162597,-83.0939983215332,1.806929169178009,198500.0,8.160447402954102,82.40104968261718,82.4017023010254,82.40062341308594,397.0,1000.0,204.68273184682297,47.54117122368963,397000,198500.0,10588.121020317078
5.856981569290161,-3.161998544692993,-82.9967663269043,1.805398551940918,199000.0,7.4978834247589115,82.33170819091796,82.3312592163086,82.33395715332031,398.0,1000.0,459.71769543298734,47.25170689770393,398000,199000.0,10609.284277439117
5.848567735671997,-3.1554545221328736,-83.17269351196289,1.8027991766929627,199500.0,8.274588111877442,82.49261590576172,82.49300180053712,82.49144342041015,399.0,1000.0,514.4041817464595,46.64857402619929,399000,199500.0,10630.721160650253
5.840142105102539,-3.1454945182800294,-83.21269381713867,1.7992113280296325,200000.0,8.187398559570312,82.52641296386719,82.52590173339844,82.52675549316406,400.0,1000.0,485.85455901827675,47.22161257391803,400000,200000.0,10651.897905349731
5.83170461845398,-3.1367697105407717,-83.15845944213868,1.801155553817749,200500.0,8.19097514629364,82.48656826782226,82.48709747314453,82.48880432128907,401.0,1000.0,493.7527424597586,16.436253933050782,401000,200500.0,10712.739021062851
5.823255279541016,-3.1282270441055298,-83.55332846069336,1.8023649230003358,201000.0,7.912329095840454,82.87292266845704,82.8722236328125,82.87421423339843,402.0,1000.0,506.1343738893293,38.531618850179484,402000,201000.0,10738.691734313965
5.814793998718262,-3.1234993391036987,-83.78885922241211,1.8130628499984742,201500.0,7.851054587364197,83.11938446044923,83.12018920898437,83.12129208374023,403.0,1000.0,492.24861266895516,47.44124122899742,403000,201500.0,10759.770441055298
5.806320772171021,-3.11488205909729,-84.02904962158203,1.8116786675453187,202000.0,7.76777106666565,83.34381448364257,83.34305624389648,83.3445573425293,404.0,1000.0,477.6165167900815,47.51410544985692,404000,202000.0,10780.816823720932
5.797835563659668,-3.105876162528992,-83.75549435424804,1.8160430560112,202500.0,7.576648493766784,83.07973278808593,83.07980221557617,83.07780435180663,405.0,1000.0,477.8011300357146,47.54752421128892,405000,202500.0,10801.848413944244
5.7893383502960205,-3.0976413469314577,-83.98254837036133,1.8255549302101135,203000.0,7.684307213783264,83.31426409912109,83.31388348388671,83.3181577758789,406.0,1000.0,490.2718337484015,47.64428686442936,406000,203000.0,10822.837290763855
5.780829048156738,-3.0883989362716675,-84.03593969726562,1.825193747997284,203500.0,7.17141197681427,83.36721801757812,83.36749728393555,83.36875708007813,407.0,1000.0,503.6230472253959,47.52382502941499,407000,203500.0,10843.8793694973
5.772307703018188,-3.0829331893920897,-84.24945629882812,1.8273482637405396,204000.0,7.723160653114319,83.5556739807129,83.55603057861327,83.55667538452148,408.0,1000.0,478.5252761318305,47.44078512179313,408000,204000.0,10864.95827960968
5.763774213790893,-3.0741260375976562,-84.26902462768555,1.8278098158836364,204500.0,8.343174615859985,83.57548175048828,83.57556616210937,83.57758129882812,409.0,1000.0,492.7732782668723,47.488043085312526,409000,204500.0,10886.016212940216
5.755228582382202,-3.0673302087783814,-84.14732189941407,1.8293573579788207,205000.0,7.789180324554444,83.47819561767578,83.47779409790039,83.47843795776367,410.0,1000.0,488.0305785624698,47.114842901360326,410000,205000.0,10907.240947723389
5.746670783996582,-3.0615389137268068,-84.46387814331055,1.8329533910751343,205500.0,7.4657088661193844,83.79319839477539,83.7927861328125,83.79435763549805,411.0,1000.0,514.3421014807041,16.21667909236668,411000,205500.0,10968.905854701996
5.738100742340088,-3.049906325340271,-84.64711593627929,1.8331238708496094,206000.0,7.6045387306213375,83.95906451416016,83.9588462524414,83.95967770385742,412.0,1000.0,515.2544144775533,38.338781619124276,412000,206000.0,10994.989104747772
5.729518449783325,-3.0417672576904295,-84.86217636108398,1.8356115436553955,206500.0,7.203656332015991,84.18492053222656,84.1853727722168,84.18562042236329,413.0,1000.0,461.242908370769,47.51541289860916,413000,206500.0,11016.034908294678
5.720923818588257,-3.0362686338424685,-84.81136074829102,1.8425542607307435,207000.0,7.95653164100647,84.14319104003906,84.1436043395996,84.14354721069336,414.0,1000.0,214.7923696927249,47.693027802906215,414000,207000.0,11037.002334356308
5.712316909790039,-3.0291409120559694,-84.7458955078125,1.8382267518043518,207500.0,7.374604546546936,84.06708847045898,84.06720547485351,84.0678098449707,415.0,1000.0,462.6184118559892,47.705631229077554,415000,207500.0,11057.96422123909
5.7036976146697995,-3.0225672216415407,-85.12717678833008,1.847835060596466,208000.0,8.037767391204834,84.45222415161133,84.45220938110351,84.4556979675293,416.0,1000.0,454.64455121475606,47.67790207336781,416000,208000.0,11078.938299179077
5.69506591796875,-3.013213152885437,-84.98778680419922,1.850275818824768,208500.0,7.832039296150207,84.31771185302735,84.31763684082031,84.31689669799805,417.0,1000.0,513.0286493094338,47.451864568120335,417000,208500.0,11100.012287378311
5.686421760559082,-3.008251452445984,-85.13588763427734,1.8519146456718445,209000.0,8.061595606803895,84.4580126953125,84.4580315246582,84.45906817626953,418.0,1000.0,501.52715191711513,47.024623308382644,418000,209000.0,11121.27774310112
5.677765184402466,-2.9982187538146974,-85.08330233764649,1.8575518016815185,209500.0,7.153318098068238,84.42289263916015,84.42241482543945,84.42428067016601,419.0,1000.0,446.923179466756,47.7114496904782,419000,209500.0,11142.237073898315
5.6690960712432865,-2.99291938495636,-85.25674285888672,1.8614766273498535,210000.0,8.457230058670044,84.59123767089844,84.59161538696289,84.593259765625,420.0,1000.0,504.45826545826736,47.88176176266818,420000,210000.0,11163.121853113174
5.660414430618286,-2.98363339805603,-85.15888107299804,1.8583480553627014,210500.0,8.36083919620514,84.47923120117187,84.4796831665039,84.48117041015625,421.0,1000.0,471.675945668593,17.625976867031593,421000,210500.0,11219.856297969818
