cmpe-260-team-4/drqv2/src/main/tex/others/154418-walker-walk-train.csv
actor_ent,actor_logprob,actor_loss,batch_reward,buffer_size,critic_loss,critic_q1,critic_q2,critic_target_q,episode,episode_length,episode_reward,fps,frame,step,total_time
8.390933879852295,-5.526939750671387,-0.234900217294693,0.0681497902572155,2500.0,0.005577888587489724,0.23237164509296418,0.23270972600579262,0.23262178540229797,5.0,1000.0,27.6274065278928,5.373692612025545,5000,2500.0,186.0917785167694
8.363312587738037,-5.484421060562134,-0.4925337229967117,0.06689146910607814,3000.0,0.006559163984842599,0.440462201833725,0.4404318308830261,0.440784765958786,6.0,1000.0,54.589534295009905,15.630229146624885,6000,3000.0,250.0703682899475
8.335563495635986,-5.455375135421753,-0.9539962575435639,0.07193023730814457,3500.0,0.015604973547160625,0.8441515762805939,0.8441078462600708,0.8445141162872315,7.0,1000.0,57.9304902690385,15.452586192286859,7000,3500.0,314.7844560146332
8.307685493469238,-5.428610509872437,-1.3610966267585753,0.07745136608183384,4000.0,0.018538073524832725,1.2701164531707763,1.270115505695343,1.2708080940246582,8.0,1000.0,61.411442004896955,15.43468158863308,8000,4000.0,379.57361459732056
8.279677364349364,-5.401822982788086,-1.7510370769500732,0.0842706019282341,4500.0,0.01665573125332594,1.6706371026039124,1.6706553730964662,1.6714688458442688,9.0,1000.0,16.05324286470365,15.57097313358725,9000,4500.0,443.7956771850586
8.251537845611573,-5.374816236495971,-2.047870331287384,0.08233474595844746,5000.0,0.020148814473301174,1.99851056432724,1.998491289138794,1.9992212710380555,10.0,1000.0,55.68308503829576,15.632858259089472,10000,5000.0,507.76350688934326
8.223265785217285,-5.347411827087402,-2.303808391571045,0.08398102551698684,5500.0,0.023735899489372967,2.249571569442749,2.2496034445762634,2.2498933753967285,11.0,1000.0,60.63919263611267,6.494636584705602,11000,5500.0,661.7367115020752
8.194859832763672,-5.320104066848755,-2.5882765197753907,0.08661126625537872,6000.0,0.03405730979144573,2.525708817481995,2.5256819133758546,2.5262625913619994,12.0,1000.0,55.44909731774957,14.597068244822283,12000,6000.0,730.2436203956604
8.166318798065186,-5.292444316864014,-2.8314701175689696,0.08722435154020786,6500.0,0.038636936761438846,2.7748020973205567,2.774842140197754,2.7749293994903566,13.0,1000.0,59.494536362839824,15.466369769289832,13000,6500.0,794.9000346660614
8.137641296386718,-5.264752088546753,-3.0728752737045286,0.09178670993447303,7000.0,0.04104794761538506,3.0303890523910524,3.0304216661453247,3.030836950302124,14.0,1000.0,55.307006119683926,15.63237169299557,14000,7000.0,858.8698556423187
8.10882611465454,-5.237228406906128,-3.2457953910827637,0.0926330741494894,7500.0,0.04887823726981878,3.2174628934860228,3.2174949264526367,3.217833699226379,15.0,1000.0,60.952435553935146,15.643369965294637,15000,7500.0,922.7947018146515
8.079871807098389,-5.209061841964722,-3.426330716133118,0.09398731867969036,8000.0,0.05079240385442972,3.4026244173049927,3.4025881366729736,3.403051772117615,16.0,1000.0,12.027740724438049,15.659321293487304,16000,8000.0,986.6544308662415
8.050777179718018,-5.181570087432862,-3.47879895401001,0.08927370040118694,8500.0,0.050180785544216636,3.4684320583343506,3.46846861743927,3.46881791973114,17.0,1000.0,6.407794962876641,15.608685031296867,17000,8500.0,1050.7213280200958
8.021540733337403,-5.153043823242188,-3.479025122642517,0.08673222297430039,9000.0,0.04334264363348484,3.483517623901367,3.483494155883789,3.483647527694702,18.0,1000.0,57.9356700649589,15.606700246993666,18000,9000.0,1114.7963728904724
7.9921611900329586,-5.124974710464477,-3.5475218172073366,0.08714748786389828,9500.0,0.033821765035390854,3.556466272354126,3.556478907585144,3.5564069719314575,19.0,1000.0,16.16498938616359,15.592499508931345,19000,9500.0,1178.9297733306885
7.962636985778809,-5.096301431655884,-3.5034169483184816,0.0834266340881586,10000.0,0.02881024794653058,3.5174152479171754,3.5173763875961304,3.517953331947327,20.0,1000.0,58.71280557067381,15.567178123614612,20000,10000.0,1243.1674926280975
7.932966854095459,-5.068387395858765,-3.5911091270446778,0.0853911092877388,10500.0,0.02369357667118311,3.6042616052627565,3.604326933860779,3.6043790130615236,21.0,1000.0,7.315614275507455,7.4996381516998385,21000,10500.0,1376.5072593688965
7.903149227142334,-5.040013605117798,-3.5745886583328246,0.08365743234753609,11000.0,0.023952286545187235,3.5876780376434327,3.587643961906433,3.5879050064086915,22.0,1000.0,6.245521285893238,15.80403226670655,22000,11000.0,1439.7822511196136
7.8731827068328855,-5.0107730236053465,-3.5168832263946532,0.08012876012921333,11500.0,0.0222497636936605,3.5292699241638186,3.529320468902588,3.5294310092926025,23.0,1000.0,53.40879800224497,15.09959571224739,23000,11500.0,1506.0091905593872
7.8430657482147215,-4.981700717926025,-3.584841429710388,0.08037674321234226,12000.0,0.021407315984368323,3.595625389099121,3.5955965175628664,3.5956847801208496,24.0,1000.0,53.00071537568753,15.893433649477576,24000,12000.0,1568.9282574653625
7.812796878814697,-4.953017129898071,-3.658236844062805,0.08073480215668678,12500.0,0.019913794461637737,3.6686322717666626,3.668641085624695,3.668749140739441,25.0,1000.0,10.236735890497878,16.212525124838507,25000,12500.0,1630.6089644432068
7.782374513626099,-4.923513763427734,-3.6599663610458375,0.0801187645792961,13000.0,0.017762820087373257,3.670651782989502,3.670616635322571,3.6709313955307006,26.0,1000.0,6.375909325349571,16.08905963247395,26000,13000.0,1692.7630014419556
7.751797136306763,-4.89485305595398,-3.626807168960571,0.07745475146174431,13500.0,0.01815032285824418,3.6380397367477415,3.638056918144226,3.638094729423523,27.0,1000.0,7.834015091277912,16.190706179116535,27000,13500.0,1754.5268306732178
7.7210631160736085,-4.865192939758301,-3.564297819137573,0.07456835334002972,14000.0,0.01717223510146141,3.5770784311294554,3.577018078804016,3.5770545301437378,28.0,1000.0,6.429174415399999,16.01962242416534,28000,14000.0,1816.9502749443054
7.690170846939087,-4.835680980682373,-3.509263953208923,0.07181970094144344,14500.0,0.021368636291474105,3.522668138504028,3.522709268569946,3.5229488945007326,29.0,1000.0,55.396413812656135,16.185019723725453,29000,14500.0,1878.7358047962189
7.6591187152862545,-4.8059986915588375,-3.598971318244934,0.0737255349457264,15000.0,0.018054742064327,3.611422930717468,3.611385245323181,3.611367664337158,30.0,1000.0,11.042277426103132,16.086599371155437,30000,15000.0,1940.8993480205536
7.627904985427857,-4.775875085830688,-3.575297354698181,0.07221794137358666,15500.0,0.018964589066803456,3.588668399810791,3.588701343536377,3.5887239265441893,31.0,1000.0,49.42106944397123,8.46372931918882,31000,15500.0,2059.050575017929
7.596528076171875,-4.745866065979004,-3.644796465873718,0.07253105220198632,16000.0,0.019454383436590433,3.656067498207092,3.6560158014297484,3.656245358467102,32.0,1000.0,53.04057638570747,16.166946491833002,32000,16000.0,2120.905175447464
7.564986186981201,-4.716179773330689,-3.721303825378418,0.07332855252921582,16500.0,0.018360411373898388,3.732042995452881,3.73209965801239,3.7319549207687377,33.0,1000.0,53.6356760943502,14.39554895254042,33000,16500.0,2190.371092557907
7.533277669906616,-4.686114019393921,-3.8130077753067018,0.0750401508808136,17000.0,0.017904310684651138,3.8238570280075073,3.823801555633545,3.8241474113464355,34.0,1000.0,12.89949833046018,15.496548789274303,34000,17000.0,2254.901591062546
7.501400592803955,-4.655325607299805,-3.792155692100525,0.07361760906875134,17500.0,0.02033159787580371,3.805798954963684,3.8057954902648925,3.8059152336120605,35.0,1000.0,49.976336610036775,15.860399035809058,35000,17500.0,2317.951707839966
7.469353361129761,-4.624390775680542,-3.8360988903045654,0.07419940313696861,18000.0,0.018976869815960525,3.8509273805618287,3.850912802696228,3.8509444818496705,36.0,1000.0,8.10985730028739,15.734554068164831,36000,18000.0,2381.5060997009277
7.437133922576904,-4.5946195011138915,-3.7844655323028564,0.07241395564377308,18500.0,0.019438259106129407,3.7977702836990357,3.797782871246338,3.797848490715027,37.0,1000.0,47.90425866318687,15.42239953305212,37000,18500.0,2446.3468544483185
7.40474063873291,-4.56332381439209,-3.8574093255996704,0.07270961259305476,19000.0,0.017506092980504036,3.8715379695892334,3.871546890258789,3.8715039834976195,38.0,1000.0,50.87636555620844,15.868072855355464,38000,19000.0,2509.366480588913
7.372171417236328,-4.5322810001373295,-3.95185847568512,0.07430270573496818,19500.0,0.01713949419930577,3.9655582637786866,3.9655630493164065,3.965523436546326,39.0,1000.0,7.11688358379203,16.143763706361973,39000,19500.0,2571.309905767441
7.339424520492554,-4.501047382354736,-3.8959769115447997,0.07231533420085907,20000.0,0.01686469866335392,3.9096184072494506,3.9096043901443482,3.9096106872558596,40.0,1000.0,48.43527774327807,16.024520553320134,40000,20000.0,2633.7142696380615
7.306497880935669,-4.4698136615753175,-3.954722172737122,0.07266508902609348,20500.0,0.016905897075310348,3.9688907766342165,3.9689024591445925,3.968960421562195,41.0,1000.0,5.534544556632069,9.021215272145154,41000,20500.0,2744.564080476761
7.273389570236206,-4.440756809234619,-4.4553459815979,0.07158790814876556,21000.0,0.03903514616563916,4.226098857879639,4.22606090927124,4.227041880607605,42.0,1000.0,20.1819217129759,16.053764900337267,42000,21000.0,2806.8547656536102
7.240097522735596,-4.407380317687989,-6.023103553771973,0.07092486132681369,21500.0,0.07122822438180447,5.597764005661011,5.597763256072998,5.598876539230346,43.0,1000.0,56.329044675354254,15.899811366998312,43000,21500.0,2869.7485942840576
7.2066197662353515,-4.375814386367798,-7.060968381881714,0.07169171026349068,22000.0,0.03968863940238953,6.71462300491333,6.714625392913819,6.715470783233642,44.0,1000.0,56.31106005515551,16.19531352640231,44000,22000.0,2931.4948523044586
7.1729541015625,-4.343508096694946,-7.776849046707153,0.07230296823382378,22500.0,0.03051934648305178,7.519488601684571,7.51949924659729,7.51985333442688,45.0,1000.0,51.71643466365721,14.482910085713138,45000,22500.0,3000.541750431061
7.139098495483398,-4.311442821502686,-8.265202167510987,0.0735908064097166,23000.0,0.022516865108162164,8.090217182159424,8.09022763824463,8.090785284042358,46.0,1000.0,109.2550189366264,15.043078169441436,46000,23000.0,3067.017507791519
7.105050792694092,-4.278869497299194,-8.55302541732788,0.07610904189944268,23500.0,0.019684983864426613,8.443377799987793,8.443303970336913,8.443459812164306,47.0,1000.0,86.89711305084607,16.087175092484866,47000,23500.0,3129.178827047348
7.070808740615845,-4.246702970504761,-8.751068138122559,0.07821783137321472,24000.0,0.020430074609816076,8.662758930206298,8.662775054931641,8.662973274230957,48.0,1000.0,73.7077463704711,6.110837208550546,48000,24000.0,3292.8225252628326
7.036370218276978,-4.213594276428223,-8.964413867950439,0.07965025354921818,24500.0,0.02447123622521758,8.866342060089112,8.866311286926269,8.866651363372803,49.0,1000.0,77.24290842165972,15.506768822173504,49000,24500.0,3357.310493707657
7.001732805252075,-4.181438060760498,-9.220009838104248,0.08106296183168889,25000.0,0.029231242645531893,9.100144104003906,9.100120162963867,9.100442081451416,50.0,1000.0,123.9709832088825,16.24240367363066,50000,25000.0,3418.8777368068695
6.966894342422485,-4.148519653320313,-9.535444869995118,0.08419695401191711,25500.0,0.04095168923586607,9.405276062011719,9.405317451477051,9.405398818969726,51.0,1000.0,98.6210914838249,8.898784838705176,51000,25500.0,3531.252631664276
6.931852336883545,-4.115459884643554,-9.822640750885009,0.08656301398575306,26000.0,0.050122864685952666,9.692806854248047,9.692769905090332,9.693467868804932,52.0,1000.0,108.45743357939716,15.996476118076833,52000,26000.0,3593.766401529312
6.8966044960021975,-4.081711006164551,-10.170560707092285,0.08916084292531014,26500.0,0.06094640982896089,10.020023960113525,10.020113246917724,10.020366855621338,53.0,1000.0,188.55925397583897,16.206855962239203,53000,26500.0,3655.468684196472
6.861148376464843,-4.048482751846313,-10.54239379119873,0.09430460327863693,27000.0,0.08833967864513398,10.384339866638184,10.384358283996582,10.38454934310913,54.0,1000.0,98.5063718148758,15.19490529508887,54000,27000.0,3721.2802169322968
6.825481544494629,-4.014718531608581,-10.931311069488526,0.09639371299743653,27500.0,0.1021924246251583,10.75612356185913,10.756050895690917,10.756660724639893,55.0,1000.0,121.41540081284163,14.305010862186872,55000,27500.0,3791.1857919692993
6.789601314544678,-3.9807476663589476,-11.365034477233888,0.09817935034632683,28000.0,0.12421713577210904,11.183479110717773,11.183470035552979,11.183631832122803,56.0,1000.0,94.85964653400467,15.810430201308806,56000,28000.0,3854.435179233551
6.753505270004273,-3.946046061515808,-11.807060287475586,0.09959574234485626,28500.0,0.1349401748329401,11.62281921005249,11.622809925079345,11.623408416748047,57.0,1000.0,108.5600700867678,16.11468651201564,57000,28500.0,3916.4903740882874
6.717190750122071,-3.9121471042633056,-12.28787483215332,0.10313377895951271,29000.0,0.1548790757060051,12.080797340393067,12.080776988983155,12.081484985351562,58.0,1000.0,106.10771721222653,15.960718442536443,58000,29000.0,3979.1441962718964
6.680655157089233,-3.8774380464553833,-12.743212413787841,0.1040068182349205,29500.0,0.16645752426981925,12.527547283172607,12.52764266204834,12.528094429016113,59.0,1000.0,109.276064702278,16.13688894874315,59000,29500.0,4041.1140110492706
6.643895654678345,-3.842942663192749,-13.343820262908936,0.10588192415237427,30000.0,0.18003936979174615,13.089431201934815,13.08953012084961,13.089999057769775,60.0,1000.0,200.91678503832338,16.281072775060462,60000,30000.0,4102.535025835037
6.606909587860107,-3.8083540887832643,-13.919850597381592,0.11113535636663437,30500.0,0.22793582490086556,13.684561115264893,13.68466297531128,13.684820007324218,61.0,1000.0,107.13420830321162,8.065966997116831,61000,30500.0,4226.512722015381
6.569694082260132,-3.7730257482528686,-14.433661701202393,0.11342396205663681,31000.0,0.22653628751635552,14.202872638702393,14.202800979614258,14.203872707366944,62.0,1000.0,147.08600644925903,15.82498470258597,62000,31000.0,4289.70393705368
6.532246337890625,-3.7382962589263915,-14.940896541595459,0.11627347812056542,31500.0,0.23052957844734193,14.739684017181396,14.739749530792237,14.740165740966797,63.0,1000.0,135.79129794831297,15.95551957036399,63000,31500.0,4352.378174066544
6.494563331604004,-3.702644262313843,-15.386834175109863,0.11860965847969056,32000.0,0.2399592456817627,15.181187168121339,15.181027420043945,15.181655258178711,64.0,1000.0,132.2984808341834,16.12960853958492,64000,32000.0,4414.375960350037
6.456642221450806,-3.667770784378052,-15.881549484252929,0.12094165584444999,32500.0,0.22603498116135598,15.665522457122803,15.665583839416504,15.665750823974609,65.0,1000.0,133.8877351542936,16.175389227572815,65000,32500.0,4476.19827580452
6.418479885101318,-3.6314009914398193,-16.332938930511474,0.12376601102948188,33000.0,0.21550508373975755,16.1198759803772,16.119910480499268,16.12044905090332,66.0,1000.0,141.39308300615195,15.192208620776023,66000,33000.0,4542.021490812302
6.380073278427124,-3.595905294418335,-16.758180683135986,0.12507625871896744,33500.0,0.21625158271193504,16.54433415222168,16.544333274841307,16.544634086608887,67.0,1000.0,137.1993352646554,13.904488313362148,67000,33500.0,4613.940715789795
6.3414192924499515,-3.5597469968795776,-17.20132466506958,0.1277793315947056,34000.0,0.21496498018503188,16.972632751464843,16.972597061157227,16.973370555877686,68.0,1000.0,134.6053403804864,15.79072102231522,68000,34000.0,4677.269046783447
6.302514602661133,-3.5233372344970704,-17.693220680236816,0.12947468331456186,34500.0,0.2155497807264328,17.460854324340822,17.460893646240233,17.461310745239256,69.0,1000.0,154.97257901777905,15.886761733875348,69000,34500.0,4740.214537620544
6.263356014251709,-3.4863830881118774,-18.246986221313477,0.13224624615907668,35000.0,0.23855225640535355,17.994416313171385,17.994447799682618,17.994685852050782,70.0,1000.0,201.36931429712385,15.931135566218826,70000,35000.0,4802.984703063965
6.2239401798248295,-3.4492958974838257,-18.71515187072754,0.13503187182545662,35500.0,0.25170905369520186,18.48542163848877,18.485426124572754,18.485671211242675,71.0,1000.0,124.87403103287694,8.948471461487488,71000,35500.0,4914.735633850098
6.184263748168945,-3.4134122476577757,-19.15047686767578,0.1376432617008686,36000.0,0.25092581313848494,18.921165145874024,18.9211432800293,18.92200412750244,72.0,1000.0,127.06176486041467,15.949335500886383,72000,36000.0,4977.434172153473
6.144323114395141,-3.3762436065673826,-19.643191719055174,0.13833317196369171,36500.0,0.2503042987585068,19.41363459777832,19.413639694213867,19.413675949096678,73.0,1000.0,201.05943058965715,15.619440702335602,73000,36500.0,5041.45695233345
6.10411491394043,-3.3383958711624144,-20.096342735290527,0.14347221583127975,37000.0,0.27788428646326063,19.866787590026856,19.866827323913576,19.86758792877197,74.0,1000.0,137.56674943364138,14.338243844147366,74000,37000.0,5111.200501680374
6.0636353664398195,-3.3002248058319092,-20.45308702850342,0.1443990525007248,37500.0,0.2801300003528595,20.225511085510252,20.22546297454834,20.225798904418944,75.0,1000.0,145.51915687519985,16.058906015819808,75000,37500.0,5173.471245288849
6.022880886077881,-3.263344910621643,-20.823976127624512,0.14653972470760346,38000.0,0.26238674449920657,20.60303786468506,20.602977279663087,20.603737968444825,76.0,1000.0,136.68004716545784,15.907414664451435,76000,38000.0,5236.335012435913
5.981847705841065,-3.224799221992493,-21.221820846557616,0.14818793693184854,38500.0,0.2672481922507286,20.99806147003174,20.99806002044678,20.998136390686035,77.0,1000.0,181.47656004488724,15.822773576363781,77000,38500.0,5299.535058736801
5.9405319709777835,-3.1862105836868286,-21.672567985534666,0.1509315432906151,39000.0,0.3028853227198124,21.449753784179688,21.449777565002442,21.45081909942627,78.0,1000.0,142.69766352687645,16.085306662591098,78000,39000.0,5361.703597545624
5.8989297351837156,-3.1475009336471556,-22.067400619506834,0.1521727281808853,39500.0,0.2920892219543457,21.840709480285646,21.840802688598632,21.84086479949951,79.0,1000.0,120.6024956260417,16.13290817341898,79000,39500.0,5423.688702821732
5.857037061691284,-3.109037796020508,-22.437263702392578,0.1545973333120346,40000.0,0.32064080291986463,22.219053451538088,22.218988899230958,22.219684394836428,80.0,1000.0,135.50382889887044,16.054105748752647,80000,40000.0,5485.978066205978
5.814849758148194,-3.0697869930267334,-22.79956926727295,0.15551415491104126,40500.0,0.30850302439928057,22.572029975891112,22.572059837341307,22.57269299316406,81.0,1000.0,205.90156049503477,8.552733327536085,81000,40500.0,5602.899752616882
5.772363790512085,-3.0303258142471314,-23.18500495147705,0.15908431178331375,41000.0,0.354898325920105,22.967152641296387,22.96726225280762,22.967698181152343,82.0,1000.0,145.68471834738185,15.31046701344174,82000,41000.0,5668.214547395706
5.72957486152649,-2.9901284866333007,-23.503009994506836,0.15901813566684722,41500.0,0.3369143753647804,23.287249473571777,23.287211105346678,23.287736320495604,83.0,1000.0,143.9900520297521,15.4618273253982,83000,41500.0,5732.889956951141
5.686478513717652,-2.9504839420318603,-23.90964973449707,0.1609993183016777,42000.0,0.35135091745853425,23.70035120391846,23.70031620788574,23.700564437866213,84.0,1000.0,135.4526717565352,16.191914246054747,84000,42000.0,5794.649178266525
5.643070434570313,-2.910680347442627,-24.21817491912842,0.1625725982785225,42500.0,0.36227246749401093,24.00619500732422,24.00626870727539,24.006690254211424,85.0,1000.0,156.06380640342908,15.618968057704693,85000,42500.0,5858.673895597458
5.599345947265625,-2.871667538642883,-24.444407890319823,0.16605163151025773,43000.0,0.3579433563351631,24.23675065612793,24.23661735534668,24.23724626159668,86.0,1000.0,143.3119215551754,15.263289398576097,86000,43000.0,5924.190573453903
5.55530057144165,-2.830428246498108,-24.709966201782226,0.16566832411289215,43500.0,0.37280542999505994,24.4995500869751,24.49959154510498,24.499972496032715,87.0,1000.0,144.16488845001587,14.38244560801754,87000,43500.0,5993.719779014587
5.510929349899292,-2.790144253730774,-25.031360961914064,0.16764701634645462,44000.0,0.4066633159518242,24.82833683013916,24.828496208190916,24.829132705688476,88.0,1000.0,143.11079322317752,15.852382968277663,88000,44000.0,6056.801778554916
5.46622767829895,-2.7498746547698976,-25.365888458251952,0.1699372365474701,44500.0,0.41659005433321,25.154079055786134,25.153990707397462,25.15427918243408,89.0,1000.0,147.0315049523115,14.757351607666841,89000,44500.0,6124.564615726471
5.421190341949463,-2.7083363008499144,-25.61145545196533,0.17072392362356187,45000.0,0.40163836044073103,25.398119903564453,25.39815827178955,25.398595237731932,90.0,1000.0,183.25510176741068,15.923917709943042,90000,45000.0,6187.363233327866
5.375812507629394,-2.666136775016785,-25.927390815734864,0.17346375173330306,45500.0,0.4281183741092682,25.71798072052002,25.718003860473633,25.718657104492188,91.0,1000.0,115.05173782312127,8.324522694278908,91000,45500.0,6307.490241765976
5.33008875465393,-2.6262737874984743,-26.214748992919922,0.17474403464794158,46000.0,0.4495275559425354,26.000580772399903,26.000460899353026,26.000653213500975,92.0,1000.0,150.03371505992962,14.16389107391578,92000,46000.0,6378.092311143875
5.284013950347901,-2.5824935989379885,-26.53485546875,0.17301411998271943,46500.0,0.4433512716889381,26.305515716552733,26.30552085876465,26.306056983947755,93.0,1000.0,147.78401299564607,15.805127273658918,93000,46500.0,6441.362919807434
5.237582509994507,-2.5387786540985107,-26.793431877136232,0.17543744468688965,47000.0,0.46892477226257323,26.558642219543458,26.558751556396484,26.559066268920898,94.0,1000.0,150.17466506703627,15.866716770686377,94000,47000.0,6504.387931346893
5.1907890510559085,-2.496849334716797,-27.210593879699708,0.1765920807123184,47500.0,0.4882762810587883,26.9547004776001,26.954559364318847,26.955580001831056,95.0,1000.0,172.89600370248485,16.11365145036094,95000,47500.0,6566.447112321854
5.143627702713013,-2.4535809841156007,-27.612967430114747,0.17872486478090285,48000.0,0.5350561378598213,27.373619804382326,27.373652694702148,27.374058074951172,96.0,1000.0,293.1555686052167,15.82307746660937,96000,48000.0,6629.645944595337
5.096092765808105,-2.411874086380005,-28.153865364074708,0.18317390763759614,48500.0,0.5995899424552917,27.923451667785645,27.923402282714843,27.923667335510252,97.0,1000.0,83.16937445101158,16.11993301742425,97000,48500.0,6691.680941820145
5.048178195953369,-2.369512433052063,-28.358743003845216,0.1831804252266884,49000.0,0.5970010548830033,28.124083206176756,28.12419934082031,28.125103271484374,98.0,1000.0,215.5796076207787,15.909479996545837,98000,49000.0,6754.536549091339
4.999877906799316,-2.323807285308838,-28.857829986572266,0.18523151916265487,49500.0,0.6123144533634186,28.609553932189943,28.60952626800537,28.60984848022461,99.0,1000.0,174.4935036059661,15.978610846125019,99000,49500.0,6817.120213270187
4.951185667037964,-2.280868695259094,-29.265611862182617,0.18717633694410324,50000.0,0.6373491245508194,29.015770080566405,29.01580638885498,29.016494277954102,100.0,1000.0,82.72900789941252,16.066073984631068,100000,50000.0,6879.363174676895
4.902095003128052,-2.234925428390503,-29.550847526550292,0.18731853848695754,50500.0,0.635058151602745,29.30266535949707,29.302684875488282,29.302923027038574,101.0,1000.0,277.62631912152943,8.20889743818841,101000,50500.0,7001.182214260101
4.8525993957519535,-2.190179941177368,-29.997751251220702,0.18946269673109054,51000.0,0.7007601788043976,29.751651977539062,29.751717147827147,29.752854988098143,102.0,1000.0,10.699754091997283,15.80443089908704,102000,51000.0,7064.455609798431
4.802692068099976,-2.1460482349395753,-30.302815284729004,0.19024343866109847,51500.0,0.6738181037902832,30.07262043762207,30.07268300628662,30.07290673828125,103.0,1000.0,336.7666880901648,15.850461875019763,103000,51500.0,7127.545255184174
4.7523661403656,-2.1026313581466676,-30.73482792663574,0.19466111713647843,52000.0,0.7149280506372452,30.49920341491699,30.499062881469726,30.499667015075683,104.0,1000.0,290.71531291738603,16.065075678353907,104000,52000.0,7189.79208445549
4.701614465713501,-2.0562299699783324,-31.201082412719728,0.19813881742954254,52500.0,0.8245433439016342,30.966938972473145,30.967026473999024,30.96802892303467,105.0,1000.0,329.9881010293258,15.748680274392566,105000,52500.0,7253.289469003677
4.650429946899414,-2.0095051283836365,-31.669024024963377,0.20190342384576798,53000.0,0.8756235021352768,31.41011572265625,31.40989562988281,31.410207778930666,106.0,1000.0,212.42188627122195,15.882089733407131,106000,53000.0,7316.253477334976
4.598804882049561,-1.9625339183807373,-32.04277323913574,0.20431191647052765,53500.0,0.8915714557170868,31.79491162109375,31.795065612792968,31.79582974243164,107.0,1000.0,97.85119558464693,15.70956169952658,107000,53500.0,7379.908977508545
4.546731927871704,-1.915492024421692,-32.34335572814941,0.20502545243501663,54000.0,0.8843463605642319,32.089007164001465,32.088961395263674,32.08945999145508,108.0,1000.0,256.87848482452586,15.584230500770827,108000,54000.0,7444.076407194138
4.494202932357788,-1.8684836201667785,-32.77762191772461,0.20655753171443939,54500.0,0.9258623222112655,32.50639751434326,32.50646353912354,32.50768102264404,109.0,1000.0,360.9562625847923,15.533493881380261,109000,54500.0,7508.4534277915955
4.441210094451904,-1.825017961025238,-33.295766647338866,0.2108957729935646,55000.0,1.0525780013799668,33.02365822601318,33.0236477355957,33.0245866394043,110.0,1000.0,120.28007650312567,15.912472840498662,110000,55000.0,7571.297209739685
4.38774493598938,-1.7765801353454589,-33.666481742858885,0.21353759860992433,55500.0,1.135138186454773,33.39329039001465,33.39335873413086,33.39447227478027,111.0,1000.0,236.94636660726283,7.9752165727576605,111000,55500.0,7696.685655117035
4.333799171447754,-1.7320241227149964,-34.154832107543946,0.2146061298251152,56000.0,1.1340630519390107,33.85803121948242,33.85787576293945,33.858219291687014,112.0,1000.0,119.44393529114622,14.74485594922608,112000,56000.0,7764.505918979645
4.279363920211792,-1.6825776543617248,-34.63377996826172,0.21432200706005097,56500.0,1.2161395263671875,34.317620338439944,34.31757684326172,34.31857006072998,113.0,1000.0,309.9406479847342,16.120172347741846,113000,56500.0,7826.539996385574
4.224430252075195,-1.6410005502700806,-35.19898287963867,0.21799349409341812,57000.0,1.2686133973598481,34.842775772094726,34.84280187988281,34.842781799316406,114.0,1000.0,140.27622986673254,16.225719751746375,114000,57000.0,7888.170545339584
4.168989036560059,-1.5882662572860717,-35.97993037414551,0.21981939643621445,57500.0,1.3316149790287017,35.56189077758789,35.56212080383301,35.5634917602539,115.0,1000.0,309.78772624519814,15.916119130567633,115000,57500.0,7950.999932765961
4.113030710220337,-1.5394018845558166,-36.76485026550293,0.22113066285848618,58000.0,1.352613983631134,36.35261653137207,36.35236724853516,36.353419708251955,116.0,1000.0,389.97831433231113,15.851003206213143,116000,58000.0,8014.087423324585
4.056545600891114,-1.4955290260314942,-37.62570245361328,0.2278691828250885,58500.0,1.434247627735138,37.21992663574219,37.22001774597168,37.220622741699216,117.0,1000.0,298.8002191884581,15.909867490840739,117000,58500.0,8076.941498994827
3.9995236473083495,-1.4497775654792786,-38.41014042663574,0.22990795785188675,59000.0,1.5354096581935883,37.97091011047363,37.97090235900879,37.971370986938474,118.0,1000.0,265.2373071164436,16.10652317329716,118000,59000.0,8139.0281457901
3.941954568862915,-1.3991302165985107,-39.16754837036133,0.2314284151792526,59500.0,1.5715756323337555,38.736681076049805,38.736728576660155,38.738888442993165,119.0,1000.0,240.32818955625442,15.84045424199316,119000,59500.0,8202.157650709152
3.883827768325806,-1.348382261276245,-39.98068797302246,0.23396255254745482,60000.0,1.6443534116744996,39.55599942016602,39.55591438293457,39.557341110229494,120.0,1000.0,395.9704393975404,16.014751869825403,120000,60000.0,8264.600080251694
3.825132333755493,-1.2942438778877259,-40.8632446899414,0.2390652117729187,60500.0,1.7105743646621705,40.41958222961426,40.41951229858398,40.42032441711426,121.0,1000.0,262.09485773946864,7.937140766331752,121000,60500.0,8390.590035200119
3.765857027053833,-1.2445993008613587,-41.57460856628418,0.23962476652860643,61000.0,1.8069210772514344,41.11666239929199,41.11684898376465,41.11818344116211,122.0,1000.0,397.38221680935357,15.967355132746391,122000,61000.0,8453.217816352844
3.705990267753601,-1.1957032351493835,-42.378247833251955,0.24550393879413604,61500.0,1.7999420866966247,41.943022857666016,41.943049682617186,41.94349606323242,123.0,1000.0,392.83571944926564,14.657899701913339,123000,61500.0,8521.440414905548
3.6455201292037964,-1.1447376346588134,-43.19396987915039,0.24993065315485,62000.0,1.890802836894989,42.73996499633789,42.74002508544922,42.741647369384765,124.0,1000.0,289.11951882271313,15.741389620462671,124000,62000.0,8584.967209339142
3.5844343338012696,-1.0959885964393616,-43.94914242553711,0.25190165454149244,62500.0,1.9307793388366699,43.4980270690918,43.49789318847656,43.49854476928711,125.0,1000.0,356.02053434843185,16.05978192312625,125000,62500.0,8647.234556674957
3.5227202425003052,-1.04504065823555,-44.712946075439454,0.2557398185133934,63000.0,1.9528355016708374,44.280387680053714,44.280499465942384,44.28187577819824,126.0,1000.0,338.24746149967314,15.86051586744725,126000,63000.0,8710.284209251404
3.4603647451400756,-0.9903582403659821,-45.416931076049806,0.26053139823675153,63500.0,2.0451784377098083,44.97746047973633,44.9773902130127,44.97919309997559,127.0,1000.0,343.96438608360273,15.857360578402526,127000,63500.0,8773.346408367157
3.3973544101715087,-0.9372500326633454,-46.204953125,0.2622474141716957,64000.0,2.0807358951568604,45.76685662841797,45.7666813659668,45.76789958190918,128.0,1000.0,314.133792183013,15.7718898735599,128000,64000.0,8836.750352621078
3.3336753330230713,-0.8797131423950195,-46.947332244873046,0.26499342459440234,64500.0,2.1648461613655092,46.47601889038086,46.476200866699216,46.47700285339356,129.0,1000.0,366.351876480232,14.933483505199373,129000,64500.0,8903.713965415955
3.269313129425049,-0.825939790725708,-47.75871852111816,0.2695913081765175,65000.0,2.1340785937309263,47.28816143798828,47.2879754486084,47.2895075378418,130.0,1000.0,295.8988261280927,14.58963138082536,130000,65000.0,8972.25579404831
3.204253023147583,-0.773383278131485,-48.46476449584961,0.2725977368950844,65500.0,2.207881872653961,48.00336964416504,48.00364445495605,48.00426058959961,131.0,1000.0,468.87775031697953,8.371217832982989,131000,65500.0,9091.712727546692
3.13847971534729,-0.7191030571460724,-49.08305393981934,0.2792440684437752,66000.0,2.2325463066101072,48.6552515258789,48.655046051025394,48.65601130676269,132.0,1000.0,402.4551969186474,17.607984589352768,132000,66000.0,9148.505145788193
3.071977337837219,-0.659842972278595,-49.6915235748291,0.2787277522087097,66500.0,2.234696141719818,49.268413986206056,49.26854339599609,49.26937356567383,133.0,1000.0,398.78921724027106,17.13155780942337,133000,66500.0,9206.876955032349
3.0047296333312987,-0.6039950063228607,-50.340359115600585,0.2850014838576317,67000.0,2.2081149477958677,49.890798385620116,49.89065657043457,49.89226741027832,134.0,1000.0,168.59795121092628,17.660294663438613,134000,67000.0,9263.50115275383
2.9367196416854857,-0.5478802618980407,-51.06194792175293,0.2877655938863754,67500.0,2.3307774443626403,50.58965936279297,50.58946839904785,50.5897032623291,135.0,1000.0,411.21491078639997,17.389317975579512,135000,67500.0,9321.007721662521
2.8679298820495607,-0.4839342839717865,-51.67474806213379,0.2889152879118919,68000.0,2.313022985458374,51.2098395690918,51.209827026367186,51.21202864074707,136.0,1000.0,103.13908422366639,15.570269148270375,136000,68000.0,9385.23268866539
2.798342339515686,-0.42534704864025114,-52.29905032348633,0.28990756851434707,68500.0,2.3053353633880613,51.84007075500488,51.84030397033691,51.841706451416016,137.0,1000.0,411.73762231783985,15.153051399417084,137000,68500.0,9451.225997924805
2.727938190460205,-0.36783298778533935,-52.88790412902832,0.2932292746901512,69000.0,2.3276507301330565,52.40779789733887,52.40786274719238,52.4079751739502,138.0,1000.0,300.64707037356845,16.48996606788656,138000,69000.0,9511.86893749237
2.6566981048583984,-0.3096388407945633,-53.60646223449707,0.2963274648785591,69500.0,2.37605336523056,53.154479949951174,53.15436973571777,53.15597573852539,139.0,1000.0,441.24507025472735,16.737133577765295,139000,69500.0,9571.616325855255
2.5846019840240477,-0.2469239379763603,-54.25807565307617,0.2999126413464546,70000.0,2.3620955390930174,53.794536834716794,53.7943272857666,53.79550151062012,140.0,1000.0,436.98773889715864,16.83138437701501,140000,70000.0,9631.02914595604
2.511628984451294,-0.1858613283932209,-54.80649742126465,0.3047905551791191,70500.0,2.379167085170746,54.34666799926758,54.34686178588867,54.34840014648437,141.0,1000.0,532.2064092924115,8.986099969402341,141000,70500.0,9742.312128782272
2.437757532119751,-0.12007630676031113,-55.52255941772461,0.30994005185365675,71000.0,2.423132956504822,55.06310609436035,55.06299464416504,55.064178924560544,142.0,1000.0,430.8383542291244,17.082815404624156,142000,71000.0,9800.850490570068
2.362965216636658,-0.06100279619731009,-56.22394314575195,0.31283448880910875,71500.0,2.3355488395690918,55.74282928466797,55.74282887268066,55.74406660461426,143.0,1000.0,452.2842558247663,16.97335101450083,143000,71500.0,9859.766376495361
2.2872287893295287,0.0033391138846054673,-56.93917584228516,0.3164882174730301,72000.0,2.343596887588501,56.45443521118164,56.45457597351074,56.456007568359375,144.0,1000.0,419.320560682198,16.99166398502223,144000,72000.0,9918.618765354156
2.2105240802764894,0.06759385835379363,-57.638385803222654,0.3218858479857445,72500.0,2.3789840631484984,57.154529037475584,57.1544197845459,57.15546705627441,145.0,1000.0,434.07649192109403,16.767226421842395,145000,72500.0,9978.258922100067
2.1328260984420777,0.1383524392545223,-58.2264832611084,0.32360906422138214,73000.0,2.4713390321731565,57.72741912841797,57.727530807495114,57.7287536315918,146.0,1000.0,405.61168941531776,16.801076216399483,146000,73000.0,10037.778920173645
2.0541086797714234,0.20627987211942672,-58.88805305480957,0.3263240423202515,73500.0,2.4708781456947326,58.40104109191895,58.401022979736325,58.402640213012695,147.0,1000.0,395.1038938767303,16.92916924359674,147000,73500.0,10096.848564386368
1.9743447761535644,0.2672446507811546,-59.59326359558106,0.3298484172821045,74000.0,2.4084274983406067,59.11709178161621,59.116943389892576,59.11792007446289,148.0,1000.0,390.69315753732513,17.00386273084937,148000,74000.0,10155.658731937408
1.8935062007904053,0.3291660655736923,-60.23492408752441,0.33260925912857053,74500.0,2.497620346069336,59.750746032714844,59.751020248413084,59.751045669555666,149.0,1000.0,537.7954325921293,15.535293677144097,149000,74500.0,10220.02829170227
1.8115635595321655,0.3991564918756485,-60.89659547424316,0.33863271260261535,75000.0,2.491332149028778,60.406247497558596,60.4062080078125,60.40882664489746,150.0,1000.0,379.4192732279806,16.92727186398353,150000,75000.0,10279.10455775261
1.72848627948761,0.46429172813892367,-61.54225364685058,0.3423333798646927,75500.0,2.5550092153549193,61.05215444946289,61.0519150390625,61.05311389160156,151.0,1000.0,442.96324707826534,9.005513617931554,151000,75500.0,10390.14764213562
1.6442425317764282,0.5405460854768753,-62.146728439331056,0.3442571754455566,76000.0,2.4659610376358034,61.65666300964355,61.65674530029297,61.656422607421874,152.0,1000.0,450.1504590243845,17.01985734968461,152000,76000.0,10448.902542591095
1.558799062728882,0.6105103511810303,-62.81940116882324,0.3475947741270065,76500.0,2.5144344124794005,62.324038269042966,62.32388401794434,62.32694595336914,153.0,1000.0,519.6345886662195,16.6138673267009,153000,76500.0,10509.093225002289
1.4721211681365967,0.6739447145462036,-63.45366117858887,0.35393397295475004,77000.0,2.577058882236481,62.96487643432617,62.96494869995117,62.96451062011719,154.0,1000.0,563.3614336203868,16.807390644572013,154000,77000.0,10568.590861320496
1.3841727018356322,0.7463030998706818,-64.13934748840332,0.358510639667511,77500.0,2.56628706407547,63.65641459655762,63.656461029052736,63.65869271850586,155.0,1000.0,486.880571481901,16.81124276229053,155000,77500.0,10628.07486486435
1.2949158725738525,0.8215084671974182,-64.73873016357422,0.3614087407588959,78000.0,2.542231692790985,64.24506314086914,64.24483476257325,64.24593408203125,156.0,1000.0,452.129081242171,14.955100920556664,156000,78000.0,10694.941682815552
1.2043111267089843,0.8981425704956054,-65.41061582946777,0.3664675318002701,78500.0,2.6548165035247804,64.8852619934082,64.88535206604004,64.88702272033692,157.0,1000.0,472.7817167137386,15.698093217765866,157000,78500.0,10758.643687963486
1.1123171482086183,0.9717075884342193,-66.09315103149414,0.37068326914310457,79000.0,2.696399139404297,65.565462890625,65.56527433776856,65.56596771240234,158.0,1000.0,523.1671688084972,16.91347058072894,158000,79000.0,10817.768159627914
1.0188906812667846,1.0501882581710815,-66.73922576904297,0.3723845442533493,79500.0,2.6841334018707275,66.20223748779297,66.20259008789063,66.2041222229004,159.0,1000.0,565.4583582009893,15.239670633909016,159000,79500.0,10883.38637638092
0.9239864187240601,1.130529984474182,-67.43777209472657,0.3789594075679779,80000.0,2.6652077879905702,66.9105200805664,66.91066250610352,66.91196997070313,160.0,1000.0,412.6084565594885,15.960700282544044,160000,80000.0,10946.040270805359
0.8275567846298217,1.20612397813797,-68.06588287353516,0.38147488617897035,80500.0,2.714917042732239,67.56345983886719,67.56328085327148,67.56481268310547,161.0,1000.0,452.71861526814695,8.882256644601625,161000,80500.0,11058.62427353859
0.7295520000457764,1.2868156023025512,-68.81221212768554,0.3839294711351395,81000.0,2.7643671011924744,68.27514202880859,68.27515142822266,68.27518176269531,162.0,1000.0,189.1569631957307,16.440523160834886,162000,81000.0,11119.449589252472
0.6299197053909302,1.3659050283432006,-69.49133908081055,0.3826857982873917,81500.0,2.7842190613746642,68.95282409667969,68.95262817382813,68.95507293701172,163.0,1000.0,369.0891569065418,16.92782406955012,163000,81500.0,11178.523927927017
0.5286050004959106,1.442009439945221,-70.16167834472657,0.3850504024028778,82000.0,2.8822642250061037,69.62362112426757,69.62374380493164,69.62475317382813,164.0,1000.0,110.94002324671843,16.252882347685095,164000,82000.0,11240.051476716995
0.42555004405975344,1.5233260140419007,-70.62780325317382,0.3874663373231888,82500.0,2.8847228956222533,70.09262503051758,70.09261492919921,70.0934504699707,165.0,1000.0,483.95673448611393,16.391796924686414,165000,82500.0,11301.057601928711
0.3206940221786499,1.602324658870697,-71.19648904418945,0.39062261426448824,83000.0,2.9070309133529664,70.65493692016602,70.65496426391601,70.6552169494629,166.0,1000.0,471.93350630052703,16.322094376553327,166000,83000.0,11362.324250221252
0.213972825050354,1.688449511051178,-71.92907754516601,0.3910751340389252,83500.0,2.9861724457740784,71.39565246582032,71.39578591918945,71.39806365966797,167.0,1000.0,236.72369492331632,16.77975591809381,167000,83500.0,11421.919873476028
0.10531892108917236,1.7696865787506104,-72.5287321472168,0.39463543260097506,84000.0,3.0129674844741823,71.9765046081543,71.97644485473633,71.97650411987304,168.0,1000.0,395.9475343019329,16.967142940383205,168000,84000.0,11480.85731625557
-0.005339040756225586,1.8494052023887635,-73.09423260498046,0.39521877896785734,84500.0,3.146802700996399,72.54188702392578,72.54175762939452,72.54359448242188,169.0,1000.0,315.2460967153703,17.038959291599536,169000,84500.0,11539.546347618103
-0.11807628536224365,1.9548713388442993,-73.71797961425781,0.3966852023601532,85000.0,3.150972783088684,73.16606286621094,73.1661476135254,73.16725982666016,170.0,1000.0,561.592463938467,16.76289190771016,170000,85000.0,11599.20192694664
-0.2329725294113159,2.0551808800697327,-74.38850122070312,0.3995041471719742,85500.0,3.3722549962997435,73.8285290222168,73.8286118774414,73.82998333740234,171.0,1000.0,623.6621002847332,8.378002404048749,171000,85500.0,11718.562122106552
-0.35011207008361817,2.1495796890258787,-75.09418170166016,0.4085344967842102,86000.0,3.3147555809020997,74.54668417358398,74.54657318115234,74.5479900817871,172.0,1000.0,590.4829562283221,15.604990696207981,172000,86000.0,11782.644186019897
-0.46958423137664795,2.249980107307434,-75.75610906982422,0.41199571585655215,86500.0,3.414341999053955,75.19335342407227,75.1934958190918,75.19466442871094,173.0,1000.0,511.66913600414233,15.978864869349142,173000,86500.0,11845.226855278015
-0.5914838047027587,2.3491871347427367,-76.39440911865235,0.4134321475028992,87000.0,3.4317825078964233,75.82781387329102,75.82770654296876,75.82860314941406,174.0,1000.0,548.1130413662111,16.51955924504674,174000,87000.0,11905.761159181595
-0.715911563873291,2.4377203311920166,-77.00854071044922,0.41718417048454287,87500.0,3.4789818840026854,76.45324334716797,76.45322290039063,76.45449398803711,175.0,1000.0,434.799883920313,16.117408555735434,175000,87500.0,11967.805874347687
-0.8429744853973389,2.541671432495117,-77.61223638916016,0.42012524700164794,88000.0,3.6321921520233156,77.05743475341797,77.05721984863281,77.0575397644043,176.0,1000.0,520.3528860549421,7.878035156983567,176000,88000.0,12094.741079330444
-0.9727866697311401,2.6474392795562744,-78.31413983154297,0.42427911221981046,88500.0,3.609779077529907,77.76391125488281,77.76396310424805,77.76518395996094,177.0,1000.0,570.126540535731,5.18968922738223,177000,88500.0,12287.430855512619
-1.105469744682312,2.74685059261322,-78.8754047241211,0.42899073553085326,89000.0,3.7027747831344606,78.29096560668945,78.29113101196289,78.29259512329102,178.0,1000.0,544.5444519813707,6.9786700629550715,178000,89000.0,12430.724632024765
-1.2411535835266114,2.864405339241028,-79.7098677368164,0.4325616774559021,89500.0,3.7365617609024047,79.09328952026367,79.09323434448243,79.09639447021485,179.0,1000.0,617.3720065560038,8.526362955290892,179000,89500.0,12548.007934570312
-1.3799770317077638,2.9767716245651243,-80.43915054321289,0.4373587547540665,90000.0,3.895378338813782,79.84582516479492,79.8453166809082,79.8455317993164,180.0,1000.0,615.5991058428388,10.299813729066683,180000,90000.0,12645.097070932388
-1.5220888423919678,3.0904386892318727,-81.1413807067871,0.4415179967880249,90500.0,3.9372216119766237,80.55079373168945,80.55078967285156,80.55188372802735,181.0,1000.0,636.5546952318224,4.03433374701879,181000,90500.0,12892.969475984573
-1.6676486263275145,3.2043990211486815,-81.78937112426757,0.4449327493906021,91000.0,3.9087306365966796,81.2033853149414,81.2036076965332,81.20474627685547,182.0,1000.0,568.2177815529815,6.217279297605205,182000,91000.0,13053.811534881592
-1.816827844619751,3.3276959037780762,-82.46013140869141,0.4501808556318283,91500.0,4.185972518920899,81.85410885620117,81.85406854248046,81.8555622253418,183.0,1000.0,624.5494329111854,12.074017806734002,183000,91500.0,13136.634007453918
-1.9698111305236816,3.454272882461548,-83.23396911621094,0.45268687307834626,92000.0,4.122245478630066,82.62726586914063,82.62696557617187,82.62838970947266,184.0,1000.0,623.5959779275819,12.320190938426695,184000,92000.0,13217.801581859589
-2.1267975826263426,3.5892158851623535,-83.86910501098633,0.4564635585546494,92500.0,4.227896159172058,83.2641676940918,83.26415570068359,83.26666928100586,185.0,1000.0,638.5722325931861,12.36243142287916,185000,92500.0,13298.691819190979
-2.2880023384094237,3.725088830947876,-84.62677563476562,0.4630874451398849,93000.0,4.1801330184936525,84.01342892456054,84.01358810424804,84.01392910766602,186.0,1000.0,544.2272733309647,12.288460793278848,186000,93000.0,13380.068976640701
-2.453658402442932,3.8738174438476562,-85.35879498291015,0.467052167057991,93500.0,4.181455290794372,84.74704721069335,84.74718112182617,84.74926760864258,187.0,1000.0,536.8560037139058,12.308387714377337,187000,93500.0,13461.314386844635
-2.624018620491028,4.01182158946991,-85.95765338134765,0.4698361450433731,94000.0,4.424477080345154,85.34819479370117,85.34827795410156,85.34944717407227,188.0,1000.0,716.2963852000885,11.913121138247863,188000,94000.0,13545.255446434021
-2.799357991218567,4.165878791809082,-86.76952328491211,0.47459960949420926,94500.0,4.406146270751953,86.14277737426758,86.14254095458985,86.14329913330079,189.0,1000.0,575.2875578201744,11.542616733843598,189000,94500.0,13631.89091515541
-2.979976432800293,4.325317306518555,-87.35238494873047,0.47576887464523315,95000.0,4.444665992736817,86.71843283081054,86.71827792358398,86.71859359741211,190.0,1000.0,677.9391306955989,12.343195467360939,190000,95000.0,13712.907213687897
-3.166201661109924,4.492892551422119,-88.23050497436523,0.4837883540391922,95500.0,4.535182391166687,87.59677108764649,87.59686239624024,87.5988095703125,191.0,1000.0,657.490576659222,6.9186821209607166,191000,95500.0,13857.443411588669
-3.3583930177688597,4.663586359024048,-88.8902880859375,0.4868290840387344,96000.0,4.662096455574035,88.23225677490234,88.23252142333985,88.23252453613281,192.0,1000.0,449.89545142843923,12.311009685866878,192000,96000.0,13938.671518564224
-3.556945529937744,4.842187494277954,-89.77795443725586,0.49054178059101106,96500.0,4.680856393814087,89.11782708740235,89.11766900634765,89.11953826904296,193.0,1000.0,640.9167952274498,12.235096077821309,193000,96500.0,14020.403611898422
-3.7622947483062745,5.0488196411132815,-90.38815267944337,0.4915519326925278,97000.0,4.83922264957428,89.71252825927735,89.71250955200195,89.71448953247071,194.0,1000.0,716.5323006403019,12.184921466465042,194000,97000.0,14102.472258329391
-3.9749225940704345,5.216069902420044,-91.20373614501953,0.49727346682548523,97500.0,4.832172105789184,90.55333416748047,90.55343341064453,90.55584338378907,195.0,1000.0,646.2379402407415,12.275889355623749,195000,97500.0,14183.932752370834
-4.195364151000977,5.426659961700439,-92.02957464599609,0.503718533873558,98000.0,4.828078045845031,91.36036810302734,91.36027587890625,91.36027035522461,196.0,1000.0,772.9026793692385,12.350720274397213,196000,98000.0,14264.89969086647
-4.424215812683105,5.652607107162476,-92.75448602294922,0.5054854136705399,98500.0,4.808154600143433,92.10594638061524,92.10576477050782,92.10682846069336,197.0,1000.0,711.0872020371703,12.289395278413153,197000,98500.0,14346.270661115646
-4.662144691467285,5.868004051208496,-93.57906420898438,0.5128948367834091,99000.0,4.826809082984925,92.93005465698242,92.93055923461914,92.93048522949219,198.0,1000.0,641.7799658010503,11.807539978793743,198000,99000.0,14430.962308645248
-4.909901077270508,6.129880043029785,-94.28916122436523,0.5164148405790329,99500.0,4.837329495429993,93.60313607788086,93.60274029541016,93.60537188720703,199.0,1000.0,457.4099654026272,12.262431692293628,199000,99500.0,14512.512203216553
-5.16833194732666,6.382922010421753,-95.1642712097168,0.5184822387695313,100000.0,4.962768608093262,94.44296762084961,94.44286672973632,94.44580810546876,200.0,1000.0,743.5086620559322,12.322789485069508,200000,100000.0,14593.662661075592
-5.3018798828125,6.512469833374023,-96.07660714721679,0.524471741437912,100500.0,4.896117928504943,95.36864334106446,95.36866561889649,95.36793121337891,201.0,1000.0,596.0949128784523,6.960266466552103,201000,100500.0,14737.335322380066
-5.3018798828125,6.493043159484864,-96.69879818725586,0.5278796445131302,101000.0,5.051296116828919,96.00648037719726,96.0063394165039,96.01017401123048,202.0,1000.0,657.9367060544821,12.252787045560664,202000,101000.0,14818.94940829277
-5.3018798828125,6.469487533569336,-97.5111826171875,0.5314970264434814,101500.0,5.13903928565979,96.82698364257813,96.82709652709961,96.82850610351562,203.0,1000.0,611.0129401708319,12.196428393789779,203000,101500.0,14900.94062590599
-5.3018798828125,6.477665985107422,-98.17365054321289,0.532623498916626,102000.0,5.217446112632752,97.50040902709961,97.50067611694335,97.50291842651367,204.0,1000.0,678.8000895865409,12.304668740608982,204000,102000.0,14982.21059179306
-5.3018798828125,6.48112805557251,-98.77530899047852,0.5321918461322784,102500.0,5.205759798049927,98.11415637207031,98.11382498168945,98.1139315185547,205.0,1000.0,718.9625912811352,11.755812749586209,205000,102500.0,15067.274894237518
-5.3018798828125,6.468201040267944,-99.65818109130859,0.5413768546581268,103000.0,5.359983898162842,98.95539334106445,98.95554083251953,98.95751754760742,206.0,1000.0,754.0872775312522,12.289798331144668,206000,103000.0,15148.643195867538
-5.3018798828125,6.472813383102417,-100.54970916748047,0.5469671598672867,103500.0,5.324087152481079,99.82125552368164,99.82117416381836,99.82220187377929,207.0,1000.0,498.6380703904416,12.073691446246972,207000,103500.0,15231.46790766716
-5.3018798828125,6.473858041763306,-101.29167977905273,0.5514954918622971,104000.0,5.312531361579895,100.5897001953125,100.5896678161621,100.59171270751953,208.0,1000.0,685.7346362507794,12.080261430398247,208000,104000.0,15314.247573852539
-5.3018798828125,6.472442195892334,-101.99943222045898,0.5531019531488418,104500.0,5.289672737121582,101.31202825927734,101.31226708984374,101.31490826416015,209.0,1000.0,606.0570130011456,11.506860915725614,209000,104500.0,15401.152249097824
-5.3018798828125,6.483297840118408,-102.52388684082031,0.5546867200136185,105000.0,5.4631138458251955,101.84349566650391,101.84312042236328,101.84410159301758,210.0,1000.0,524.5877537452503,11.665468827035378,210000,105000.0,15486.87533736229
-5.3018798828125,6.474520208358765,-103.39170562744141,0.5580512238740921,105500.0,5.555976498603821,102.70233340454102,102.70250637817382,102.70422708129882,211.0,1000.0,688.2763976166398,7.101039025788827,211000,105500.0,15627.699800729752
-5.3018798828125,6.477645658493042,-103.96798770141602,0.5636266922950744,106000.0,5.571747596740723,103.29587432861328,103.2961393737793,103.29766622924805,212.0,1000.0,744.7919628662323,12.172266152853561,212000,106000.0,15709.853772163391
-5.3018798828125,6.470836736679077,-104.61638000488281,0.5655520473718643,106500.0,5.410876069068909,103.954892578125,103.9546216430664,103.95541125488282,213.0,1000.0,672.837772044278,12.23259916761067,213000,106500.0,15791.602547883987
-5.3018798828125,6.469149761199951,-105.33177224731445,0.5704803274869918,107000.0,5.415775365829468,104.63659851074219,104.63683630371094,104.6374372253418,214.0,1000.0,646.213121218654,12.148410117190236,214000,107000.0,15873.917847394943
-5.3018798828125,6.470388984680175,-106.00115496826172,0.5767890226840973,107500.0,5.482928699493408,105.30219647216796,105.30221530151367,105.3056510925293,215.0,1000.0,612.376156487169,12.109455037481576,215000,107500.0,15956.497947692871
-5.3018798828125,6.464479326248169,-106.5051075744629,0.575263975262642,108000.0,5.739430282592774,105.82146142578125,105.82179763793945,105.82216055297852,216.0,1000.0,748.1576841936164,12.274811146958921,216000,108000.0,16037.96559715271
-5.3018798828125,6.476074010848999,-107.1445359802246,0.5801578018665313,108500.0,5.686826147079468,106.4780810546875,106.47785275268555,106.47855111694336,217.0,1000.0,736.467001368574,12.331688801017028,217000,108500.0,16119.057492017746
-5.3018798828125,6.458262113571167,-107.780021484375,0.581121071100235,109000.0,5.693273952484131,107.11626718139648,107.11616574096679,107.11917883300781,218.0,1000.0,744.219455247706,11.567083465896548,218000,109000.0,16205.509709358215
-5.3018798828125,6.454911361694336,-108.39351034545898,0.585926124572754,109500.0,5.5965136108398434,107.72096710205078,107.72081362915038,107.72060162353516,219.0,1000.0,743.9888503724676,11.867942507987085,219000,109500.0,16289.770313501358
-5.3018798828125,6.456575067520141,-109.0378803100586,0.5925037455558777,110000.0,5.684223043441772,108.37415490722657,108.37415505981446,108.37491018676758,220.0,1000.0,732.8588130170032,12.242526248121413,220000,110000.0,16371.452801465988
-5.3018798828125,6.464780075073242,-109.69632232666015,0.596466383934021,110500.0,5.82995936203003,109.01634844970702,109.01655358886718,109.01867596435547,221.0,1000.0,671.2635811410615,7.396890551434799,221000,110500.0,16506.64474463463
-5.3018798828125,6.467127119064331,-110.22576931762696,0.5982217209339142,111000.0,5.929392784118653,109.54709219360352,109.54685165405273,109.54666653442384,222.0,1000.0,696.8682118844546,11.703952918917953,222000,111000.0,16592.085963964462
-5.3018798828125,6.468279792785644,-110.8991651916504,0.6020530571937561,111500.0,5.880706129074096,110.22795233154297,110.22802200317383,110.23088226318359,223.0,1000.0,716.1210508725632,12.210563337993069,223000,111500.0,16673.982268333435
-5.3018798828125,6.46583832359314,-111.35856301879883,0.605741662979126,112000.0,5.88121696472168,110.6781399230957,110.67805718994141,110.67873135375977,224.0,1000.0,758.09832992677,12.158128192569077,224000,112000.0,16756.231772184372
-5.3018798828125,6.443828094482422,-112.03476141357422,0.6109236650466919,112500.0,5.8760847530364995,111.36491641235351,111.36503759765625,111.36702755737305,225.0,1000.0,544.9549045473404,11.890387969271398,225000,112500.0,16840.333317518234
-5.3018798828125,6.4328214435577395,-112.62160415649414,0.613599666595459,113000.0,5.958305210113525,111.9425587463379,111.94251712036133,111.94353872680664,226.0,1000.0,779.8798241748583,12.050753935797248,226000,113000.0,16923.31567811966
-5.3018798828125,6.436323198318481,-113.12733822631836,0.6175454909801483,113500.0,6.032780187606812,112.45419979858399,112.45418600463867,112.45521618652344,227.0,1000.0,769.6625754167073,11.683163710028426,227000,113500.0,17008.908933877945
-5.3018798828125,6.460139066696167,-113.67323474121093,0.6211742997169495,114000.0,6.121079866409302,112.99232833862305,112.99214199829102,112.99462396240234,228.0,1000.0,769.1899992418271,11.657219032766694,228000,114000.0,17094.692687749863
-5.3018798828125,6.442665168762207,-114.26552554321289,0.6235782527923583,114500.0,6.123735815048218,113.57943463134765,113.57984350585937,113.58027316284179,229.0,1000.0,781.0922033946512,12.079291686194015,229000,114500.0,17177.478999853134
-5.3018798828125,6.445509464263916,-114.90456579589843,0.6318959875106811,115000.0,6.0392744140625,114.22646377563477,114.22645538330079,114.22678649902343,230.0,1000.0,776.0161029591825,12.177608127144943,230000,115000.0,17259.59693312645
-5.3018798828125,6.446721158981323,-115.58635736083984,0.6343822624683381,115500.0,6.256448112487793,114.89872140502929,114.8990025024414,114.89934683227538,231.0,1000.0,765.2973683085152,6.867781989380978,231000,115500.0,17405.20435142517
-5.3018798828125,6.441402521133423,-116.22343188476563,0.641602062702179,116000.0,6.353006019592285,115.52035717773437,115.52017245483398,115.5224691772461,232.0,1000.0,797.4932383063498,12.282836362764854,232000,116000.0,17486.618772506714
-5.3018798828125,6.4388452224731445,-116.8943135986328,0.6449391300678253,116500.0,6.2470816745758055,116.19184463500977,116.19177120971679,116.19304403686523,233.0,1000.0,614.33156393245,12.26418588531301,233000,116500.0,17568.157002687454
-5.3018798828125,6.434205699920654,-117.38647323608399,0.645967802286148,117000.0,6.363842969894409,116.68806735229492,116.68819561767579,116.68844473266601,234.0,1000.0,783.7103999465353,10.933549876657434,234000,117000.0,17659.6186068058
-5.3018798828125,6.426340185165405,-118.06615808105468,0.6481379215717316,117500.0,6.348755544662476,117.35973858642578,117.35961257934571,117.3615866394043,235.0,1000.0,808.9414483348658,12.09260573975072,235000,117500.0,17742.313771009445
-5.3018798828125,6.433978792190552,-118.60023205566407,0.649889345407486,118000.0,6.4365321617126465,117.89553482055663,117.89558731079102,117.89729565429687,236.0,1000.0,791.8654689369986,12.409018149705,236000,118000.0,17822.900324821472
-5.3018798828125,6.414124393463135,-119.19042663574218,0.6540917401313782,118500.0,6.52424794960022,118.47893701171876,118.4789984741211,118.47919763183594,237.0,1000.0,818.6408912458904,11.957425664014375,237000,118500.0,17906.530366897583
-5.3018798828125,6.415902641296387,-119.89205950927735,0.6613742144107818,119000.0,6.381904039382935,119.19398376464844,119.19390444946289,119.19645440673828,238.0,1000.0,793.4670337922087,11.802518810385353,238000,119000.0,17991.258044719696
-5.3018798828125,6.441550285339355,-120.36194479370117,0.6667966675758362,119500.0,6.443686994552612,119.68069491577148,119.68077670288086,119.68099752807618,239.0,1000.0,799.6719963972147,11.671042415287465,239000,119500.0,18076.940195322037
-5.3018798828125,6.419030221939087,-121.0394055480957,0.6690386946201324,120000.0,6.264356422424316,120.32694467163086,120.32691510009765,120.32990029907226,240.0,1000.0,814.966071902593,12.328785597287897,240000,120000.0,18158.05118560791
-5.3018798828125,6.429669923782349,-121.70328894042969,0.6767907838821411,120500.0,6.495400337219238,120.98509237670899,120.98497979736328,120.98584548950195,241.0,1000.0,789.9665042883753,6.95634546852764,241000,120500.0,18301.804828882217
-5.3018798828125,6.429143602371216,-122.1207444152832,0.675974308013916,121000.0,6.2902352886199955,121.42641653442382,121.4261071472168,121.42697525024414,242.0,1000.0,805.2845234757496,12.450602017187366,242000,121000.0,18382.12223124504
-5.3018798828125,6.4308690948486325,-122.76573416137695,0.6815952460765838,121500.0,6.510243690490722,122.0424496459961,122.04265106201171,122.04474749755859,243.0,1000.0,744.960892078047,12.222667835139736,243000,121500.0,18463.937430858612
-5.3018798828125,6.4281770362854,-123.41426040649414,0.6835591976642609,122000.0,6.57877618598938,122.69377920532227,122.69402682495117,122.69469067382812,244.0,1000.0,797.7701729510025,12.206491747376996,244000,122000.0,18545.861052513123
-5.3018798828125,6.420437866210937,-123.88261911010743,0.6864829330444336,122500.0,6.629193588256836,123.18109524536133,123.18071124267578,123.18106686401367,245.0,1000.0,828.8634241254036,12.334027422519346,245000,122500.0,18626.937571763992
-5.3018798828125,6.427634288787842,-124.53536895751954,0.6914623882770539,123000.0,6.540938940048218,123.81915222167969,123.81936608886718,123.82284335327148,246.0,1000.0,838.3725215835883,11.768466738960331,246000,123000.0,18711.91040968895
-5.3018798828125,6.428062780380249,-124.97429364013672,0.692970183134079,123500.0,6.67301252746582,124.2628591003418,124.2628306274414,124.26382095336913,247.0,1000.0,845.877754330343,12.030152720266823,247000,123500.0,18795.034874677658
-5.3018798828125,6.421456033706665,-125.69631060791015,0.6996020381450653,124000.0,6.646903554916382,124.95741439819336,124.95724667358398,124.95808758544922,248.0,1000.0,790.6593096853587,12.418406597228763,248000,124000.0,18875.560504198074
-5.3018798828125,6.413370391845703,-126.34218353271484,0.701267953157425,124500.0,6.579652103424072,125.611482421875,125.61166720581055,125.61148068237304,249.0,1000.0,851.2279999863625,12.378559754072077,249000,124500.0,18956.345348119736
-5.3018798828125,6.420363544464111,-127.01727081298829,0.7099130668640137,125000.0,6.791547718048096,126.28313049316407,126.28328393554688,126.28603121948242,250.0,1000.0,728.7053847589409,12.455888148078266,250000,125000.0,19036.62866449356
-5.3018798828125,6.42161967086792,-127.67766494750977,0.7141080274581909,125500.0,6.858802066802978,126.93741223144531,126.9369793395996,126.93707565307618,251.0,1000.0,708.8250468534468,6.997382037686222,251000,125500.0,19179.539256095886
-5.3018798828125,6.412090938568115,-128.1796153869629,0.7130384736061096,126000.0,6.7087124252319335,127.44327151489257,127.44361120605468,127.44473089599609,252.0,1000.0,749.76942426613,12.40118353118839,252000,126000.0,19260.176721334457
-5.3018798828125,6.420997943878174,-128.86843579101563,0.7179927780628205,126500.0,6.883413291931152,128.14672531127928,128.14662689208984,128.14772552490234,253.0,1000.0,830.6916180075589,12.276806765300567,253000,126500.0,19341.631128311157
-5.3018798828125,6.416777410507202,-129.41233868408204,0.7214622693061828,127000.0,6.796975984573364,128.6611883239746,128.6614303894043,128.66399349975586,254.0,1000.0,699.5559474945475,11.955657724078094,254000,127000.0,19425.273536920547
-5.3018798828125,6.4101499042510985,-130.07085150146483,0.7202422313690185,127500.0,6.844768974304199,129.30843490600586,129.30814111328124,129.30912292480468,255.0,1000.0,789.9651142701872,11.14847265113457,255000,127500.0,19514.971923589706
-5.3018798828125,6.424498937606812,-130.82587481689453,0.7299984180927277,128000.0,6.7266259765625,130.06535003662108,130.06564825439452,130.06709625244142,256.0,1000.0,781.5756892208053,11.62133686940679,256000,128000.0,19601.02054476738
-5.3018798828125,6.425344478607178,-131.27375665283202,0.7279688010215759,128500.0,6.809151779174805,130.5524110107422,130.55216802978515,130.55282556152343,257.0,1000.0,757.3748398361804,11.789464807913323,257000,128500.0,19685.842038154602
-5.3018798828125,6.407933595657348,-131.80883825683594,0.7357175736427307,129000.0,6.79121360206604,131.0900015258789,131.09039849853517,131.09112915039063,258.0,1000.0,744.5176485664196,12.119301570832544,258000,129000.0,19768.355045080185
-5.3018798828125,6.4116089763641355,-132.2940938720703,0.734135244846344,129500.0,6.875202890396118,131.56354559326172,131.5628526611328,131.56547735595703,259.0,1000.0,827.9791108588695,12.42291615717224,259000,129500.0,19848.851443052292
-5.3018798828125,6.404794073104858,-132.87800909423828,0.739372620344162,130000.0,6.7537310047149655,132.15556396484374,132.15620599365235,132.1569677734375,260.0,1000.0,698.898264564369,12.298614088289884,260000,130000.0,19930.161418676376
-5.3018798828125,6.4026229877471925,-133.35274377441405,0.740490858078003,130500.0,6.730482467651367,132.62768676757813,132.6273692626953,132.62953106689454,261.0,1000.0,817.6660599527441,6.910634121854723,261000,130500.0,20074.86594080925
-5.3018798828125,6.398936912536621,-133.89839447021484,0.743861094713211,131000.0,6.81913345336914,133.18462927246094,133.1844176635742,133.18552893066405,262.0,1000.0,808.8882757201537,12.208214406951805,262000,131000.0,20156.778002738953
-5.3018798828125,6.3968262863159175,-134.36965814208983,0.7493544547557831,131500.0,6.877405216217041,133.66228894042968,133.66230645751952,133.66266467285158,263.0,1000.0,36.89296006927105,12.444767994191485,263000,131500.0,20237.133056879044
-5.3018798828125,6.403358957290649,-134.73437414550781,0.7451951475143432,132000.0,7.021603981018067,134.0122953491211,134.0124684448242,134.01394927978515,264.0,1000.0,780.7639833152712,12.388781161958045,264000,132000.0,20317.851248264313
-5.3018798828125,6.407128353118896,-135.06180694580078,0.746098926782608,132500.0,6.879243440628052,134.3415069580078,134.3412197265625,134.3430747680664,265.0,1000.0,810.523628477571,11.62995555821202,265000,132500.0,20403.836100578308
-5.3018798828125,6.398834516525269,-135.7161488647461,0.7530155644416809,133000.0,6.621120237350464,134.98295654296874,134.98280334472656,134.98178143310548,266.0,1000.0,857.5090475659441,12.359866103493676,266000,133000.0,20484.743126630783
-5.3018798828125,6.396801103591919,-136.26232391357422,0.7563063476085663,133500.0,6.733378486633301,135.53026123046874,135.53038446044923,135.53314215087892,267.0,1000.0,838.3541634878164,12.312964788620903,267000,133500.0,20565.958335638046
-5.3018798828125,6.410885358810424,-136.77558905029298,0.7601467752456665,134000.0,6.7304971981048585,136.0373737182617,136.03766302490234,136.03753973388672,268.0,1000.0,853.8315610089496,12.223030902358895,268000,134000.0,20647.771105527878
-5.3018798828125,6.416983545303345,-137.36162036132814,0.7635383458137512,134500.0,6.7605676727294925,136.62542559814455,136.62544561767578,136.62757818603515,269.0,1000.0,783.383500581965,12.178298847305935,269000,134500.0,20729.88438129425
-5.3018798828125,6.399616231918335,-137.91411248779298,0.7665767648220062,135000.0,6.728145551681519,137.16599127197264,137.1660772705078,137.16623577880858,270.0,1000.0,817.4202648237499,12.031045845687387,270000,135000.0,20813.002675533295
-5.3018798828125,6.4240223407745365,-138.46104772949218,0.7676818432807923,135500.0,6.72751209640503,137.7143383178711,137.71408178710936,137.71632885742187,271.0,1000.0,817.5747087508518,7.40599013136997,271000,135500.0,20948.0285115242
-5.3018798828125,6.415970680236817,-138.90409515380858,0.7779213194847107,136000.0,6.882397058486938,138.18330871582032,138.18347399902345,138.18778833007812,272.0,1000.0,773.7891190117329,11.802326020330062,272000,136000.0,21032.757572889328
-5.3018798828125,6.409090196609497,-139.39793853759767,0.77561802983284,136500.0,6.804502349853515,138.67951123046876,138.6798594970703,138.6779291381836,273.0,1000.0,815.122842016823,11.911599651105737,273000,136500.0,21116.709354400635
-5.3018798828125,6.41554515838623,-139.74600177001952,0.7777819433212281,137000.0,6.765574775695801,139.01567449951173,139.01517321777345,139.0169052734375,274.0,1000.0,842.0531958634654,11.880775804770886,274000,137000.0,21200.87894320488
-5.3018798828125,6.408957431793213,-140.3451050415039,0.7821143333911895,137500.0,6.6827478561401366,139.60437506103514,139.60486602783203,139.60795532226564,275.0,1000.0,799.1862831771094,12.226134612659822,275000,137500.0,21282.67094373703
-5.3018798828125,6.410512763977051,-140.7488872680664,0.7831196177005768,138000.0,6.783641914367676,140.01048162841798,140.0104546508789,140.00969903564453,276.0,1000.0,814.171995829034,12.19468774985632,276000,138000.0,21364.673864364624
-5.3018798828125,6.391828035354615,-141.31706103515626,0.7853376860618592,138500.0,6.711659358978271,140.56526220703125,140.56490142822267,140.56565588378905,277.0,1000.0,853.1745356385867,12.005844287030184,277000,138500.0,21447.966632843018
-5.3018798828125,6.403642604827881,-141.74842010498048,0.7907091264724732,139000.0,6.803558181762695,141.03288446044922,141.0332523803711,141.0338670654297,278.0,1000.0,696.9019499486914,12.235233238655127,278000,139000.0,21529.697809934616
-5.3018798828125,6.410786231994629,-142.06100958251952,0.791109756231308,139500.0,6.741393505096435,141.324171875,141.32435968017577,141.32594653320314,279.0,1000.0,798.262377725558,12.09296673460207,279000,139500.0,21612.390504837036
-5.3018798828125,6.406958770751953,-142.67577862548828,0.7962984912395478,140000.0,6.757380676269531,141.93682995605468,141.93634899902344,141.9386663208008,280.0,1000.0,890.2181033918791,12.19402668571363,280000,140000.0,21694.397871255875
-5.3018798828125,6.400934188842774,-143.0686450805664,0.7964113690853118,140500.0,6.76034291267395,142.33543920898438,142.3357212524414,142.33537243652344,281.0,1000.0,805.5649595257462,7.412365198881205,281000,140500.0,21829.30757665634
-5.3018798828125,6.409500816345215,-143.58858056640625,0.8058385150432587,141000.0,6.661646301269531,142.8644268798828,142.86464520263672,142.86444171142577,282.0,1000.0,802.4684997235419,12.23972130382816,282000,141000.0,21911.00878405571
-5.3018798828125,6.392548921585083,-143.9623487548828,0.8009200384616851,141500.0,6.59779599571228,143.23073022460937,143.230662109375,143.23454553222658,283.0,1000.0,820.1583654813745,12.800232230775793,283000,141500.0,21989.13236761093
-5.3018798828125,6.399796464920044,-144.35149676513672,0.8085159206390381,142000.0,6.624069078445435,143.62950494384765,143.62961541748047,143.6299115600586,284.0,1000.0,944.7520010118063,12.645516576215918,284000,142000.0,22068.211779356003
-5.3018798828125,6.3975580825805665,-144.7811010131836,0.8117825798988342,142500.0,6.656484565734863,144.06606463623046,144.0660344238281,144.06736956787108,285.0,1000.0,727.5759634053862,12.816973415257905,285000,142500.0,22146.23331975937
-5.3018798828125,6.406416097640991,-145.21239233398438,0.8117999210357666,143000.0,6.722720827102661,144.48713720703125,144.48737896728517,144.48934362792968,286.0,1000.0,764.381453896146,12.989076083777382,286000,143000.0,22223.22109055519
-5.3018798828125,6.385431882858277,-145.64981201171875,0.8152566306591034,143500.0,6.772091314315796,144.93597766113282,144.93621130371093,144.93614050292967,287.0,1000.0,849.3476864759284,12.828752566971511,287000,143500.0,22301.170993089676
-5.3018798828125,6.40348184967041,-145.94720300292968,0.8168987243175506,144000.0,6.743969438552856,145.24820532226562,145.24782592773437,145.25100549316406,288.0,1000.0,913.0423659645961,12.300138014026942,288000,144000.0,22382.470894813538
-5.3018798828125,6.420150465011597,-146.39151770019532,0.8208394305706024,144500.0,6.45312716293335,145.69464971923827,145.69487939453126,145.69441522216798,289.0,1000.0,825.9745893681264,12.054807437417358,289000,144500.0,22465.425352811813
-5.3018798828125,6.42492081451416,-146.71101025390624,0.8288118772506714,145000.0,6.56767805480957,146.00473712158202,146.00440069580077,146.0034560546875,290.0,1000.0,838.9615469971649,11.242723735463839,290000,145000.0,22554.371771097183
-5.3018798828125,6.431206760406494,-146.9291362915039,0.8251260855197906,145500.0,6.716484926223755,146.22665197753906,146.22684661865233,146.23136859130858,291.0,1000.0,877.2449751684013,6.880487928442902,291000,145500.0,22699.710302114487
-5.3018798828125,6.401353593826294,-147.39379302978514,0.8297221832275391,146000.0,6.501771240234375,146.67467919921876,146.6743980102539,146.67370642089844,292.0,1000.0,831.0210693643359,12.079461173199189,292000,146000.0,22782.49545288086
-5.3018798828125,6.399782804489136,-147.78932513427733,0.8341506292819977,146500.0,6.5351849422454835,147.0790665283203,147.07919812011718,147.079458984375,293.0,1000.0,809.5059846812895,11.375881674062551,293000,146500.0,22870.400728702545
-5.3018798828125,6.384271337509155,-148.2608084716797,0.8374155881404877,147000.0,6.532891296386719,147.54866595458984,147.5489714355469,147.55048278808593,294.0,1000.0,859.2750086314405,12.252959610719028,294000,147000.0,22952.01366496086
-5.3018798828125,6.391170936584473,-148.66865307617186,0.8421047711372376,147500.0,6.579599351882934,147.94521282958985,147.9448319091797,147.94768908691407,295.0,1000.0,889.4992585499923,11.935118444007603,295000,147500.0,23035.800014972687
-5.3018798828125,6.405311462402344,-149.0183811645508,0.8459299142360688,148000.0,6.562373208999634,148.3085059814453,148.30881121826172,148.3085040283203,296.0,1000.0,770.9561598538005,12.181714953398807,296000,148000.0,23117.890263795853
-5.3018798828125,6.42839211845398,-149.28030505371095,0.8435980598926545,148500.0,6.412674533843994,148.58183746337892,148.58173028564454,148.58419604492187,297.0,1000.0,899.7147223251683,11.521034326452705,297000,148500.0,23204.688027620316
-5.3018798828125,6.407572059631348,-149.61710040283202,0.8510836150646209,149000.0,6.442628448486328,148.935015625,148.93527954101563,148.9363530883789,298.0,1000.0,891.6258508346823,11.236928379514842,298000,149000.0,23293.68031978607
-5.3018798828125,6.393904434204101,-149.7892490234375,0.8509249656200409,149500.0,6.48283931350708,149.10661340332032,149.10665020751952,149.10810089111328,299.0,1000.0,835.7875417175076,12.1059635016704,299000,149500.0,23376.284237146378
-5.3018798828125,6.398874393463135,-150.26414721679689,0.8561118042469025,150000.0,6.374513866424561,149.57970336914062,149.57955303955077,149.57808990478514,300.0,1000.0,881.2113819818283,12.203939917334454,300000,150000.0,23458.224989652634
-5.3018798828125,6.397851285934448,-150.50259301757814,0.8532818257808685,150500.0,6.573736848831177,149.79969915771485,149.79953259277343,149.80082318115234,301.0,1000.0,806.04519355689,6.792367730234196,301000,150500.0,23605.44905781746
-5.3018798828125,6.395722654342651,-150.85184490966796,0.8588265843391418,151000.0,6.583225067138672,150.14371844482423,150.14371453857422,150.14551440429688,302.0,1000.0,936.9862656756115,12.212612829055251,302000,151000.0,23687.33161854744
-5.3018798828125,6.386433517456054,-151.24995916748045,0.8628937253952026,151500.0,6.35796935081482,150.55345251464843,150.55343450927734,150.55434729003906,303.0,1000.0,906.8060829979371,11.544145022507154,303000,151500.0,23773.955617666245
-5.3018798828125,6.398480121612549,-151.61958166503905,0.8688605515956879,152000.0,6.501776029586792,150.91988677978514,150.9202668457031,150.92085778808593,304.0,1000.0,853.0838091472117,12.154148405131403,304000,152000.0,23856.232053995132
-5.3018798828125,6.421956747055054,-151.87296600341796,0.8691266350746155,152500.0,6.388249206542969,151.1898284301758,151.1895530395508,151.1915942993164,305.0,1000.0,902.192422913127,12.00908904760098,305000,152500.0,23939.502317667007
-5.3018798828125,6.413608123779297,-152.21582153320313,0.8732522673606873,153000.0,6.500936948776245,151.50910302734374,151.5091044921875,151.50828546142577,306.0,1000.0,887.8064441380412,12.167886079080995,306000,153000.0,24021.6858625412
-5.3018798828125,6.40412357711792,-152.50619299316406,0.8720932669639587,153500.0,6.362648509979248,151.79100524902344,151.7911220703125,151.7937225341797,307.0,1000.0,896.7065311549721,12.017458066702654,307000,153500.0,24104.898136138916
-5.3018798828125,6.414843996047973,-152.82126507568358,0.8789756958484649,154000.0,6.416837598800659,152.11975091552733,152.11995733642578,152.12081353759766,308.0,1000.0,840.5199326728841,12.293933479703586,308000,154000.0,24186.23906850815
-5.3018798828125,6.41094197845459,-153.27084490966797,0.8833755836486816,154500.0,6.513327257156372,152.5557723388672,152.55551727294923,152.55504180908204,309.0,1000.0,822.1850247604209,11.144172623954093,309000,154500.0,24275.972065925598
-5.3018798828125,6.387546823501587,-153.51333813476563,0.8832128791809082,155000.0,6.515624164581299,152.79924389648437,152.7989815673828,152.80006555175783,310.0,1000.0,847.36336315229,11.599212964435958,310000,155000.0,24362.184813976288
-5.3018798828125,6.413597799301147,-153.84061846923828,0.8889589283466339,155500.0,6.3227753181457516,153.16275128173828,153.16303131103516,153.16619439697266,311.0,1000.0,896.7489596000952,6.879011363855818,311000,155500.0,24507.554540872574
-5.3018798828125,6.3924072628021245,-154.21305419921876,0.8928674025535583,156000.0,6.588727916717529,153.52163043212892,153.5211796875,153.52131060791015,312.0,1000.0,860.901317506374,12.175279490875193,312000,156000.0,24589.688180208206
-5.3018798828125,6.386328435897827,-154.48378576660156,0.8924120104312897,156500.0,6.614860681533814,153.77941149902344,153.7796580810547,153.78069927978515,313.0,1000.0,862.5668328915367,11.395487213138791,313000,156500.0,24677.442217588425
-5.3018798828125,6.396148540496826,-154.8026785888672,0.8962209539413453,157000.0,6.423229822158813,154.10113513183595,154.1011889038086,154.1016458129883,314.0,1000.0,855.2156561325623,11.988249463094542,314000,157000.0,24760.857232809067
-5.3018798828125,6.399311498641968,-155.1076336669922,0.8974164094924927,157500.0,6.491501251220703,154.40872241210937,154.40892779541016,154.41100024414064,315.0,1000.0,905.8700156303834,11.746685257907536,315000,157500.0,24845.987632751465
-5.3018798828125,6.401356410980225,-155.3299575805664,0.8980196981430054,158000.0,6.498343391418457,154.64784088134766,154.64748693847656,154.6478592529297,316.0,1000.0,916.9963329151443,11.152336846144589,316000,158000.0,24935.65493965149
-5.3018798828125,6.399010026931763,-155.80185589599608,0.9047179083824157,158500.0,6.419493824005127,155.11696258544922,155.11705645751954,155.11820141601564,317.0,1000.0,754.6431697853948,12.086033852722913,317000,158500.0,25018.39506959915
-5.3018798828125,6.397906270980835,-155.9118260498047,0.9062688853740692,159000.0,6.200218412399292,155.2336060180664,155.23356829833983,155.2336654663086,318.0,1000.0,847.8052305391129,12.31258996158724,318000,159000.0,25099.61275100708
-5.3018798828125,6.402595422744751,-156.2311470336914,0.9091614246368408,159500.0,6.410987968444824,155.55822863769532,155.55872729492188,155.56002600097656,319.0,1000.0,834.3486217977539,12.082643729360043,319000,159500.0,25182.376096487045
-5.3018798828125,6.396023567199707,-156.49629162597657,0.9121935291290283,160000.0,6.361560535430908,155.81937854003905,155.8188349609375,155.82073815917968,320.0,1000.0,928.40233123204,12.064009769057227,320000,160000.0,25265.267276763916
-5.3018798828125,6.388689926147461,-156.71431536865234,0.913439547777176,160500.0,6.521888801574707,156.0467222290039,156.0470284423828,156.04820977783203,321.0,1000.0,911.0454099890624,6.9823874883086985,321000,160500.0,25408.484766483307
-5.3018798828125,6.3990690174102784,-156.95664532470704,0.9156700279712677,161000.0,6.410094762802124,156.29505645751954,156.29499200439454,156.29481005859375,322.0,1000.0,853.322597048313,11.904941599935091,322000,161000.0,25492.48349905014
-5.3018798828125,6.396732229232788,-157.06640594482423,0.9151050300598145,161500.0,6.51752145576477,156.39642950439452,156.39660650634767,156.39655627441405,323.0,1000.0,883.3747789148397,12.02606233284261,323000,161500.0,25575.63623714447
-5.3018798828125,6.401467014312744,-157.53740454101563,0.9233541715145112,162000.0,6.401102363586426,156.86382305908202,156.86392889404297,156.86390631103515,324.0,1000.0,939.7705806876779,11.714864912078589,324000,162000.0,25660.99787068367
-5.3018798828125,6.3935017433166506,-157.55569793701173,0.9178400802612304,162500.0,6.727039566040039,156.86694921875,156.86680487060548,156.86899591064454,325.0,1000.0,803.0481981075309,11.881653518141277,325000,162500.0,25745.161241531372
-5.3018798828125,6.387134260177612,-157.92172637939453,0.9218687677383423,163000.0,6.428425592422485,157.21752557373046,157.21745874023438,157.218595703125,326.0,1000.0,881.4687053690795,11.796441930670056,326000,163000.0,25829.932566165924
-5.3018798828125,6.395385004043579,-158.34290405273438,0.9259394278526306,163500.0,6.404471225738526,157.6680278930664,157.66810998535155,157.66967694091798,327.0,1000.0,801.8102338354076,12.030680808386746,327000,163500.0,25913.053382635117
-5.3018798828125,6.398145526885986,-158.59002447509766,0.9304595489501953,164000.0,6.604025636672974,157.9137152709961,157.91367974853515,157.914046875,328.0,1000.0,954.0477478877933,11.984893796277653,328000,164000.0,25996.491753339767
-5.3018798828125,6.402677249908447,-158.88254364013673,0.9365650308132172,164500.0,6.530461408615112,158.19604779052733,158.1959548339844,158.1979639892578,329.0,1000.0,916.5950345756672,12.113925598224762,329000,164500.0,26079.04137778282
-5.3018798828125,6.380932168960571,-159.12081103515624,0.9358453886508942,165000.0,6.499954902648926,158.44690997314453,158.44704235839845,158.44762353515625,330.0,1000.0,901.7332498368729,12.074220339839737,330000,165000.0,26161.862461328506
-5.3018798828125,6.386804788589478,-159.36304809570314,0.932376442193985,165500.0,6.311907711029053,158.68739013671876,158.6871309814453,158.68633123779296,331.0,1000.0,897.0772971302091,7.424299016996169,331000,165500.0,26296.55531311035
-5.3018798828125,6.386597223281861,-159.70108935546875,0.9417010262012482,166000.0,6.2924721126556395,159.03999475097658,159.0402689819336,159.04214318847656,332.0,1000.0,846.0328725766625,11.34106593761318,332000,166000.0,26384.730447530746
-5.3018798828125,6.372826850891113,-159.916765625,0.9412700352668762,166500.0,6.2730036582946775,159.24463696289064,159.24487860107422,159.245625,333.0,1000.0,949.9863876726591,11.962902948694326,333000,166500.0,26468.322198867798
-5.3018798828125,6.401627769470215,-160.07098321533203,0.9448726558685303,167000.0,6.303319902420044,159.40561138916016,159.4055902709961,159.40651544189453,334.0,1000.0,950.6719642557526,11.965190267111643,334000,167000.0,26551.89797091484
-5.3018798828125,6.400697040557861,-160.33944232177734,0.9461135210990905,167500.0,6.371887220382691,159.6633814086914,159.66311376953124,159.66412286376953,335.0,1000.0,911.3316380799456,12.021896609953357,335000,167500.0,26635.079523086548
-5.3018798828125,6.402168981552124,-160.51601684570312,0.9551700387001038,168000.0,6.360415237426758,159.8600731201172,159.8601989135742,159.86142474365235,336.0,1000.0,969.6220935388338,11.991120569820433,336000,168000.0,26718.474564790726
-5.3018798828125,6.395480529785156,-160.81414581298827,0.9546780297756196,168500.0,6.442058841705323,160.14701226806642,160.14678668212892,160.14730584716796,337.0,1000.0,834.5226913826431,12.033235533610585,337000,168500.0,26801.57773423195
-5.3018798828125,6.381477621078491,-161.06764428710937,0.957086932182312,169000.0,6.500142404556274,160.41040148925782,160.4108784790039,160.41181140136717,338.0,1000.0,966.535362055064,11.286708546218511,338000,169000.0,26890.17752456665
-5.3018798828125,6.391250852584839,-161.27869360351562,0.9605750205516815,169500.0,6.542356651306152,160.60930157470702,160.6089959716797,160.6084803466797,339.0,1000.0,948.5516340387401,11.28103870900651,339000,169500.0,26978.821844816208
-5.3018798828125,6.3919916877746585,-161.55177673339844,0.9627593820095062,170000.0,6.332181428909302,160.87797149658203,160.87847137451172,160.882568359375,340.0,1000.0,833.4873933059866,12.106480619767858,340000,170000.0,27061.42223381996
-5.3018798828125,6.359830242156982,-161.71640161132814,0.9634915883541108,170500.0,6.300321510314942,161.04791271972655,161.04761669921874,161.04643627929687,341.0,1000.0,50.40285276532481,7.389961658886468,341000,170500.0,27196.74093389511
-5.3018798828125,6.380098857879639,-161.78682403564454,0.9630756270885468,171000.0,6.209693134307861,161.14240649414063,161.14188055419922,161.14332830810548,342.0,1000.0,873.8658575051722,11.743851935017908,342000,171000.0,27281.891872167587
-5.3018798828125,6.386110628128052,-161.99436511230468,0.9671161615848541,171500.0,6.145845800399781,161.36807232666015,161.36842303466796,161.36861181640626,343.0,1000.0,903.774447242908,11.994887025204878,343000,171500.0,27365.260728359222
-5.3018798828125,6.383985591888428,-162.0158021850586,0.9653911044597626,172000.0,6.3540946502685545,161.38014227294923,161.38058355712892,161.3812666015625,344.0,1000.0,914.2370340889128,12.15370616387328,344000,172000.0,27447.540157794952
-5.3018798828125,6.379257499694824,-162.25321838378906,0.9684061665534973,172500.0,6.350104188919067,161.61131274414063,161.61062731933595,161.61209387207032,345.0,1000.0,884.6334889762447,12.148370919292589,345000,172500.0,27529.855722427368
-5.3018798828125,6.4036951198577885,-162.41645471191407,0.9667800514698028,173000.0,6.488347339630127,161.74386743164064,161.7439284667969,161.74343170166014,346.0,1000.0,904.1182545536993,12.174978026323489,346000,173000.0,27611.991394996643
-5.3018798828125,6.393207271575927,-162.79698657226564,0.9771571412086487,173500.0,6.406789180755616,162.13427368164062,162.13433435058593,162.13633959960939,347.0,1000.0,869.7093085144651,11.946819395008037,347000,173500.0,27695.69568324089
-5.3018798828125,6.396533344268799,-162.88547888183595,0.9758576488494873,174000.0,6.348027135848999,162.2402456665039,162.24030310058595,162.24017993164063,348.0,1000.0,809.923742320895,12.044887173547627,348000,174000.0,27778.718462705612
-5.3018798828125,6.376831789016723,-163.02931689453126,0.9737433161735535,174500.0,6.519343837738037,162.3784931640625,162.37869458007813,162.37941009521484,349.0,1000.0,726.5308408378133,12.101024401242501,349000,174500.0,27861.35609650612
-5.3018798828125,6.39085908126831,-163.24120867919922,0.9801758000850678,175000.0,6.3399040966033935,162.59124157714842,162.59088128662108,162.59227630615234,350.0,1000.0,947.6509622984108,11.915339698758181,350000,175000.0,27945.28152656555
-5.3018798828125,6.387363164901734,-163.4816801147461,0.9811270511150361,175500.0,6.291192726135254,162.82944665527344,162.82936840820312,162.8313345336914,351.0,1000.0,958.2903569543994,6.703578094806692,351000,175500.0,28094.45559334755
-5.3018798828125,6.376509412765503,-163.8614844970703,0.9851220152378082,176000.0,6.3904533824920655,163.20109393310548,163.2013662109375,163.20022918701173,352.0,1000.0,883.2045822710315,12.178205638824672,352000,176000.0,28176.569497585297
-5.3018798828125,6.39128709602356,-164.11657897949217,0.9902456588745118,176500.0,6.388267181396484,163.46556506347656,163.46554180908203,163.46590112304688,353.0,1000.0,904.654731750687,10.883774179870784,353000,176500.0,28268.449391126633
-5.3018798828125,6.385942638397217,-164.19912408447266,0.9886986942291259,177000.0,6.505391618728638,163.55066668701173,163.55036181640625,163.55270831298827,354.0,1000.0,940.2955261836464,12.261193654054454,354000,177000.0,28350.007519483566
-5.3018798828125,6.3829008407592775,-164.45319372558595,0.9927242033481598,177500.0,6.266932075500488,163.80431878662108,163.80442077636718,163.80493072509765,355.0,1000.0,964.4344381976241,12.030518036085072,355000,177500.0,28433.129460811615
-5.3018798828125,6.3871998176574705,-164.70221813964844,0.9988249034881592,178000.0,6.332799339294434,164.0702275390625,164.07041510009765,164.07127239990234,356.0,1000.0,935.9308811905186,11.800234495359682,356000,178000.0,28517.873540639877
-5.3018798828125,6.375987791061402,-164.7192346801758,0.9950342321395874,178500.0,6.3450459995269775,164.08581420898437,164.08541357421876,164.08567321777343,357.0,1000.0,932.4311150948539,12.054035803041582,357000,178500.0,28600.833308696747
-5.3018798828125,6.38809796333313,-164.91864660644532,0.9958853557109832,179000.0,6.279786575317383,164.27947631835937,164.27991906738282,164.28069567871094,358.0,1000.0,917.7203765309429,12.308658942117743,358000,179000.0,28682.076929330826
-5.3018798828125,6.390352712631225,-165.22057006835936,1.0039381427764893,179500.0,6.315270998001099,164.5670728149414,164.56719470214844,164.5690712890625,359.0,1000.0,924.6397614664953,12.197802976619958,359000,179500.0,28764.058907032013
-5.3018798828125,6.375031047821045,-165.47907556152344,1.007158760547638,180000.0,6.389906324386597,164.82832659912108,164.82817816162108,164.82789916992186,360.0,1000.0,920.780671402448,12.104331579537808,360000,180000.0,28846.673961639404
-5.3018798828125,6.3737001190185545,-165.6276704711914,1.0068037767410278,180500.0,6.320967052459717,164.99085052490236,164.99058752441405,164.99197283935547,361.0,1000.0,941.2246532159494,6.699226359006482,361000,180500.0,28995.9449300766
-5.3018798828125,6.383725959777832,-165.8633370361328,1.0125404303073884,181000.0,6.208667676925659,165.2157212524414,165.21605267333985,165.21686553955078,362.0,1000.0,866.2904534154012,12.313229205409991,362000,181000.0,29077.158395051956
-5.3018798828125,6.369168422698975,-166.01561010742188,1.010697069644928,181500.0,6.336815048217773,165.35825341796874,165.35783514404298,165.35899810791017,363.0,1000.0,942.2155335072916,11.93797686291762,363000,181500.0,29160.92468380928
-5.3018798828125,6.373042627334595,-166.23865789794922,1.0150731222629548,182000.0,6.291187160491943,165.59448272705077,165.59438305664062,165.59412951660155,364.0,1000.0,961.4558293936799,11.067264278841831,364000,182000.0,29251.281250715256
-5.3018798828125,6.362399141311646,-166.36432965087891,1.012340606212616,182500.0,6.313313501358032,165.7292435913086,165.72960150146486,165.73124267578126,365.0,1000.0,949.4967931343464,12.255451734313361,365000,182500.0,29332.877591133118
-5.3018798828125,6.370627798080444,-166.6758527832031,1.0206474356651307,183000.0,6.123976373672486,166.05270697021484,166.05239202880858,166.05303039550782,366.0,1000.0,906.3085255710405,12.125301671988264,366000,183000.0,29415.349767446518
-5.3018798828125,6.366880229949951,-166.65830322265626,1.0153783609867095,183500.0,6.097000295639038,166.0250399169922,166.02478967285157,166.0251292114258,367.0,1000.0,970.0547995176613,12.036462200993363,367000,183500.0,29498.43065929413
-5.3018798828125,6.369608825683594,-166.93657928466797,1.0209944608211516,184000.0,6.213042314529419,166.2924605102539,166.29299108886718,166.2948837890625,368.0,1000.0,841.4483170407219,12.395222817179347,368000,184000.0,29579.106902599335
-5.3018798828125,6.396961338043213,-167.07698181152344,1.0246216514110564,184500.0,6.025161254882812,166.44228015136719,166.44213409423827,166.44108142089843,369.0,1000.0,906.3129395102652,12.164517342963359,369000,184500.0,29661.31320667267
-5.3018798828125,6.385997993469238,-167.30367962646486,1.0258622579574586,185000.0,6.02419072151184,166.65294097900392,166.65365460205078,166.65570703125,370.0,1000.0,413.5790494108361,12.071643945516255,370000,185000.0,29744.15196609497
-5.3018798828125,6.384418169021607,-167.4627713623047,1.0274222366809844,185500.0,6.101387937545776,166.83100115966798,166.83065368652345,166.83127484130858,371.0,1000.0,896.1443468695753,6.68670916403761,371000,185500.0,29893.70236301422
-5.3018798828125,6.377929109573365,-167.60977941894532,1.0261958680152894,186000.0,6.138693832397461,166.96716876220702,166.96730987548827,166.96779412841798,372.0,1000.0,923.8612300623361,11.849535145691116,372000,186000.0,29978.093860149384
-5.3018798828125,6.386064792633056,-167.80502813720702,1.0265629699230194,186500.0,6.134605003356934,167.15801171875,167.15762457275392,167.15983099365235,373.0,1000.0,926.4276492669155,11.90648159847118,373000,186500.0,30062.081728458405
-5.3018798828125,6.3861054496765135,-168.14928631591798,1.0335801696777345,187000.0,6.105271432876587,167.49133984375,167.4911373901367,167.49156317138673,374.0,1000.0,911.710101736524,12.0050892164497,374000,187000.0,30145.379735708237
-5.3018798828125,6.382209180831909,-168.32560412597655,1.0346999394893646,187500.0,6.258454969406128,167.67136639404296,167.67132873535155,167.67074011230468,375.0,1000.0,944.7994643384416,11.956961933947733,375000,187500.0,30229.013021469116
-5.3018798828125,6.395777652740478,-168.49622271728515,1.0364890100955964,188000.0,6.196707015991211,167.8597398071289,167.86005426025392,167.86174291992188,376.0,1000.0,889.7698804075978,12.256198838480007,376000,188000.0,30310.604387521744
-5.3018798828125,6.379780965805054,-168.72176763916016,1.0414589462280273,188500.0,6.074941696166992,168.1004867553711,168.10032550048828,168.10015087890625,377.0,1000.0,816.3366199273582,12.303738969323373,377000,188500.0,30391.88049530983
-5.3018798828125,6.398698608398438,-168.72698712158203,1.0406195092201234,189000.0,5.960382650375366,168.11136291503905,168.11136407470704,168.11296380615235,378.0,1000.0,950.6828656882226,12.169649657930837,378000,189000.0,30474.052130699158
-5.3018798828125,6.3958637866973875,-168.9245020751953,1.0466229128837585,189500.0,5.906637683868408,168.31239880371095,168.3122559814453,168.31292474365233,379.0,1000.0,872.8521822692279,12.08940218385476,379000,189500.0,30556.76920747757
-5.3018798828125,6.3880919723510745,-169.0372523803711,1.0437742230892182,190000.0,6.130383066177368,168.42231146240235,168.42211169433594,168.4230542602539,380.0,1000.0,882.8195455318868,12.132049657664389,380000,190000.0,30639.195511579514
-5.3018798828125,6.380844062805176,-169.20908410644532,1.0500895171165465,190500.0,6.321155025482177,168.5869517211914,168.58739337158204,168.58606689453126,381.0,1000.0,919.5979466852025,6.7793826683510625,381000,190500.0,30786.701568841934
-5.3018798828125,6.393634880065918,-169.41601428222657,1.0556595885753632,191000.0,5.938645050048828,168.78486016845704,168.78454565429686,168.78819348144532,382.0,1000.0,935.1626775082605,12.050873595130591,382000,191000.0,30869.68310570717
-5.3018798828125,6.3936805896759035,-169.50261346435548,1.047933911561966,191500.0,5.997079895019532,168.88492028808594,168.88484735107423,168.884373046875,383.0,1000.0,870.7135463697501,12.121258079906235,383000,191500.0,30952.18279361725
-5.3018798828125,6.390749408721923,-169.6629555053711,1.0516962876319886,192000.0,6.121089603424072,169.04254107666014,169.0427452392578,169.04278869628905,384.0,1000.0,891.300466140809,12.316573512372205,384000,192000.0,31033.374207019806
-5.3018798828125,6.39605223274231,-169.9505531616211,1.0557893776893617,192500.0,5.997299757003784,169.33108673095703,169.3311025390625,169.33253076171874,385.0,1000.0,936.3772971394484,12.076156721340771,385000,192500.0,31116.182011127472
-5.3018798828125,6.387425304412842,-169.9721528930664,1.0550065956115722,193000.0,5.959763391494751,169.36087774658202,169.3607497558594,169.3615343017578,386.0,1000.0,952.9752620803364,11.84073516952228,386000,193000.0,31200.63622736931
-5.3018798828125,6.382479948043823,-170.1826508178711,1.0583295664787293,193500.0,5.986828433990478,169.55926623535157,169.55929425048828,169.5589612426758,387.0,1000.0,930.5916654100238,11.554580506083422,387000,193500.0,31287.181992053986
-5.3018798828125,6.383295171737671,-170.30129071044922,1.0625741765499115,194000.0,5.989671918869019,169.68424548339843,169.68446197509766,169.68703991699218,388.0,1000.0,862.2050947849796,11.131016718750999,388000,194000.0,31377.021045923233
-5.3018798828125,6.390234298706055,-170.3958916015625,1.0638777165412903,194500.0,6.069955379486084,169.79080017089845,169.79117907714843,169.79034436035155,389.0,1000.0,953.1315717572896,12.27372554931161,389000,194500.0,31458.49590086937
-5.3018798828125,6.389327928543091,-170.56102716064453,1.0640734527111053,195000.0,5.938373592376709,169.95539904785156,169.9550855102539,169.95679821777344,390.0,1000.0,932.5762088851136,12.248701631710475,390000,195000.0,31540.137207746506
-5.3018798828125,6.394662157058716,-170.59051672363282,1.065501659154892,195500.0,6.0065815696716305,169.97305108642578,169.9729183959961,169.97286566162109,391.0,1000.0,928.6668572244217,7.310766566443914,391000,195500.0,31676.921770334244
-5.3018798828125,6.388528596878052,-170.79509979248047,1.0708020956516267,196000.0,5.953636051177979,170.1785194091797,170.17859381103514,170.17928948974608,392.0,1000.0,975.5127105156345,12.272587104745087,392000,196000.0,31758.40418291092
-5.3018798828125,6.37991166305542,-170.9898927001953,1.06931108212471,196500.0,5.900606136322022,170.3655230102539,170.36522747802735,170.3676264038086,393.0,1000.0,907.7146721407869,12.033022463192665,393000,196500.0,31841.508823633194
-5.3018798828125,6.370936096191406,-171.12372540283204,1.0737752103805542,197000.0,5.861710153579712,170.48344244384765,170.4838131713867,170.48271618652345,394.0,1000.0,951.6806494026893,12.121238638495386,394000,197000.0,31924.008644342422
-5.3018798828125,6.379575756072998,-171.27860205078125,1.0704213128089906,197500.0,5.746348510742187,170.63823669433594,170.6381007080078,170.64045825195313,395.0,1000.0,949.8374951158609,12.17400421758908,395000,197500.0,32006.15088701248
-5.3018798828125,6.382305835723877,-171.57274151611327,1.0721254198551178,198000.0,5.656344301223755,170.95361267089845,170.953728515625,170.95392065429687,396.0,1000.0,916.6360094511891,12.1466972924666,396000,198000.0,32088.477793216705
-5.3018798828125,6.380648006439209,-171.6634051513672,1.0773788995742797,198500.0,5.819328861236572,171.05428533935546,171.0538729248047,171.05400720214843,397.0,1000.0,930.1102989887241,12.092044382232045,397000,198500.0,32171.17679619789
-5.3018798828125,6.384368759155273,-171.7976396484375,1.0788226132392884,199000.0,5.745530401229859,171.2034898071289,171.20368365478515,171.20566137695312,398.0,1000.0,844.3591443075672,12.054000087073348,398000,199000.0,32254.13680911064
-5.3018798828125,6.382593605041504,-171.97520880126953,1.0836795451641084,199500.0,5.8221870107650755,171.38354486083983,171.38348291015626,171.38418273925782,399.0,1000.0,957.9328772790391,12.128796341371144,399000,199500.0,32336.585222244263
-5.3018798828125,6.384852523803711,-172.01234234619142,1.0860795226097106,200000.0,5.795027984619141,171.4174326171875,171.41767321777343,171.41821533203125,400.0,1000.0,888.8547183557985,11.480151587342867,400000,200000.0,32423.692086935043
-5.3018798828125,6.381678344726563,-172.11035961914064,1.0858163411617279,200500.0,5.8527359800338745,171.50328765869142,171.50350634765624,171.50153033447265,401.0,1000.0,941.7603173783485,7.263445056826857,401000,200500.0,32561.36780357361
-5.3018798828125,6.38419455909729,-172.26332196044922,1.0860997774600982,201000.0,5.75777222442627,171.63813537597656,171.63770849609375,171.64162335205077,402.0,1000.0,892.6997706055643,12.029277322416146,402000,201000.0,32644.498318195343
-5.3018798828125,6.375264749526978,-172.50047503662108,1.0915722076892853,201500.0,5.91030938911438,171.88632666015624,171.88668603515626,171.8866971435547,403.0,1000.0,949.6111963762385,11.897724272143945,403000,201500.0,32728.54800605774
-5.3018798828125,6.383598510742187,-172.6221232910156,1.0908811466693877,202000.0,5.828078566551208,172.0072590942383,172.00689221191405,172.00800439453124,404.0,1000.0,943.3975189096171,12.109970880518194,404000,202000.0,32811.12458872795
-5.3018798828125,6.382770704269409,-172.79069232177736,1.0947166481018067,202500.0,5.803166103363037,172.17793493652343,172.17786810302735,172.17934069824219,405.0,1000.0,946.4656350578755,12.103762531348753,405000,202500.0,32893.743527173996
-5.3018798828125,6.388434238433838,-172.8930700073242,1.0960931811332704,203000.0,5.688778207778931,172.29333795166016,172.29381744384764,172.29306311035157,406.0,1000.0,984.7214718189115,11.991761907872833,406000,203000.0,32977.134110212326
-5.3018798828125,6.370404684066773,-173.06772039794922,1.0996748213768006,203500.0,5.906767055511475,172.46988604736327,172.47027313232422,172.47128466796875,407.0,1000.0,981.5559874312281,12.04188022013488,407000,203500.0,33060.177621126175
-5.3018798828125,6.367364110946656,-173.21994036865235,1.0988991131782533,204000.0,5.6017298412323,172.61937255859374,172.61870825195314,172.61941809082032,408.0,1000.0,963.0553947428614,11.951213292182425,408000,204000.0,33143.851135492325
-5.3018798828125,6.368595113754273,-173.3239362182617,1.100048174381256,204500.0,5.508127590179443,172.73088806152344,172.73136639404296,172.7313091430664,409.0,1000.0,939.3703114844377,11.33973868219904,409000,204500.0,33232.03659033775
-5.3018798828125,6.369388624191284,-173.36749768066406,1.1028399724960327,205000.0,5.7070613794326785,172.7613552246094,172.7610927734375,172.7605695800781,410.0,1000.0,894.4726733778637,12.058937514286965,410000,205000.0,33314.96263670921
-5.3018798828125,6.3902770614624025,-173.60416790771484,1.107816650867462,205500.0,5.64744508266449,173.00326263427735,173.00338006591798,173.00699475097656,411.0,1000.0,916.4217747276191,6.87235053857357,411000,205500.0,33460.47325921059
-5.3018798828125,6.387131784439087,-173.61884790039062,1.1095622215270997,206000.0,5.79977872467041,173.02765991210939,173.02755462646485,173.02722875976562,412.0,1000.0,935.1385183508788,12.252908030372927,412000,206000.0,33542.086539268494
-5.3018798828125,6.3813434524536135,-173.85968444824218,1.1117815599441527,206500.0,5.541729825019837,173.2611904296875,173.26113549804688,173.26182305908202,413.0,1000.0,981.7626213296454,12.09670601065376,413000,206500.0,33624.75367259979
-5.3018798828125,6.381435741424561,-174.02419519042968,1.11364408659935,207000.0,5.535829111099243,173.4250266723633,173.4248880004883,173.42559979248045,414.0,1000.0,956.3445067005139,12.289623538479898,414000,207000.0,33706.12313079834
-5.3018798828125,6.376828414916992,-174.11301977539063,1.1143824467658996,207500.0,5.509315890312195,173.50598846435548,173.50641296386718,173.50564489746094,415.0,1000.0,895.8666555804041,12.22007644738281,415000,207500.0,33787.95568037033
-5.3018798828125,6.376408336639404,-174.30914764404298,1.113568115234375,208000.0,5.533867401123047,173.71196801757813,173.71162969970703,173.71334521484374,416.0,1000.0,938.9606329218119,12.335867502739047,416000,208000.0,33869.020105838776
-5.3018798828125,6.365037202835083,-174.4162158203125,1.119566056251526,208500.0,5.502893198013306,173.82090362548828,173.82157440185546,173.82228192138672,417.0,1000.0,957.3889839297987,11.97437923231972,417000,208500.0,33952.531742572784
-5.3018798828125,6.36208021736145,-174.52603759765626,1.1193207697868348,209000.0,5.409816579818726,173.93470458984376,173.93417022705077,173.93484619140625,418.0,1000.0,916.8387763558146,11.524548707862555,418000,209000.0,34039.303037405014
