cmpe-260-team-4/drqv2/src/main/tex/others/175732-humanoid-walk-train.csv
actor_ent,actor_logprob,actor_loss,batch_reward,buffer_size,critic_loss,critic_q1,critic_q2,critic_target_q,episode,episode_length,episode_reward,fps,frame,step,total_time
29.77644499206543,-19.81054542541504,-0.36257569868862627,0.004291800760221294,2500.0,0.007567992164171301,0.27375263246893883,0.2735581370443106,0.27503119748830795,5.0,1000.0,0.4513839497594482,6.919216811126797,5000,2500.0,144.52503108978271
29.771714683532714,-19.69089196777344,-0.6592787940502167,0.004198348967777325,3000.0,0.0036869728767778723,0.5583064457178116,0.5582228906154633,0.5586340901851654,6.0,1000.0,0.07338422421462783,28.84290613343955,6000,3000.0,179.19560313224792
29.766983268737793,-19.66494487762451,-0.6255186369419098,0.0028160906841814986,3500.0,0.002815994084463455,0.6223837950229645,0.6223942978382111,0.6224126970767975,7.0,1000.0,1.0176588787687861,29.189628200014244,7000,3500.0,213.45434880256653
29.76225089263916,-19.669418045043944,-0.5667785432338714,0.0034027997446009275,4000.0,0.0007920150244026445,0.5642268619537354,0.5642494685649871,0.5642345943450928,8.0,1000.0,1.012592069074183,28.74601126600224,8000,4000.0,248.2417860031128
29.757517326354982,-19.69572310638428,-0.5617045607566834,0.0033046119553881105,4500.0,0.0006910108741139993,0.5498317682743072,0.5498445789813995,0.5498290708065033,9.0,1000.0,0.47449707558913895,28.69232711276686,9000,4500.0,283.0943114757538
29.75278276824951,-19.665734306335448,-0.5854534223079682,0.0034357400086419145,5000.0,0.0011267054149648175,0.5631598434448242,0.5631481165885925,0.5632508776187897,10.0,1000.0,1.8536635199857445,28.923357107405003,10000,5000.0,317.66844630241394
29.74804714202881,-19.647532562255858,-0.6226798219680786,0.0037987587628724065,5500.0,0.0018669244355987756,0.5975145864486694,0.5974899153709412,0.5975266973972321,11.0,1000.0,1.0758328483078663,9.348536083566325,11000,5500.0,424.6370677947998
29.743310401916503,-19.642894989013673,-0.5555952082872391,0.004025889726745278,6000.0,0.0012986311762360856,0.5576668348312378,0.5576542418003082,0.5576111905574799,12.0,1000.0,1.0049731331099137,28.95596347060574,12000,6000.0,459.17227029800415
29.738572631835936,-19.63915827178955,-0.5115370666980743,0.004018371631213128,6500.0,0.0005364758413052186,0.5102953443527222,0.510318994641304,0.5103355174064637,13.0,1000.0,0.7959364423238147,28.87636241595102,13000,6500.0,493.8026728630066
29.733833702087402,-19.6354006729126,-0.48875886809825897,0.00420756533896661,7000.0,0.0004444604644086212,0.4864957025051117,0.48650352919101714,0.4865129154920578,14.0,1000.0,1.1125707122453177,28.3003119933859,14000,7000.0,529.137974023819
29.729093811035156,-19.63219256591797,-0.45532765090465543,0.0038628306166041426,7500.0,0.00043414059458882546,0.45303353893756865,0.45303755402565005,0.4529835451841354,15.0,1000.0,1.716533906524525,29.46387439723119,15000,7500.0,563.0778431892395
29.724352813720703,-19.630995872497557,-0.447677633523941,0.004512709430467856,8000.0,0.0009637092346965801,0.43717129456996917,0.43718557941913605,0.4372047654390335,16.0,1000.0,0.6373721086133128,28.944941698388433,16000,8000.0,597.6261961460114
29.719610733032226,-19.62467105102539,-0.4182020488977432,0.004049268722501496,8500.0,0.0005767819818574935,0.4144581005573273,0.41442838418483735,0.4144319862127304,17.0,1000.0,0.14483257022907492,28.677038925404148,17000,8500.0,632.4973018169403
29.714867630004882,-19.618096771240236,-0.38318872237205504,0.004263218073554528,9000.0,0.0006551786980708129,0.3818887518644333,0.381906609416008,0.3818799488544464,18.0,1000.0,3.4864766067012622,28.95027658935214,18000,9000.0,667.0392875671387
29.71012338256836,-19.611300720214842,-0.3751618854999542,0.004436566323531844,9500.0,0.00137908550206339,0.3639578943252563,0.3639535299539566,0.36395863902568815,19.0,1000.0,0.4769937978228267,29.2576340898804,19000,9500.0,701.2184031009674
29.705378112792967,-19.606269592285155,-0.36560111308097837,0.004340911422759298,10000.0,0.0016078026942559517,0.35999829578399656,0.35999907410144805,0.3600239316225052,20.0,1000.0,1.3870282305182116,29.09607206800834,20000,10000.0,735.5873055458069
29.700631744384765,-19.613696670532228,-0.3295018373727798,0.004688978643036275,10500.0,0.0013563387969625182,0.33136604976654055,0.33134668445587157,0.33135188901424406,21.0,1000.0,0.5461284161171118,9.412454200222612,21000,10500.0,841.8295240402222
29.69588432312012,-19.64531922149658,-0.31932414066791537,0.0050518516982804495,11000.0,0.0009324632646166719,0.31403751826286314,0.3140456428527832,0.3140545723438263,22.0,1000.0,0.42425139085047064,28.94203343981284,22000,11000.0,876.3813483715057
29.69113579559326,-19.625491104125977,-0.3126245766878128,0.004979853695222159,11500.0,0.0006148557299748063,0.3069368178844452,0.30692768657207486,0.30692437100410463,23.0,1000.0,2.2803197367342527,29.01147961358431,23000,11500.0,910.8504645824432
29.686386283874512,-19.627037551879884,-0.3028615344762802,0.004889064617186304,12000.0,0.0007088362295762636,0.29762800347805024,0.2976404830217361,0.29766552364826204,24.0,1000.0,0.26997746902804914,29.21314504046967,24000,12000.0,945.0816321372986
29.681635444641113,-19.5857170791626,-0.3124864028692245,0.004355181638653164,12500.0,0.0007202719773631543,0.3007145941257477,0.3007165148258209,0.30071911358833314,25.0,1000.0,1.126522842191707,28.676492687860282,25000,12500.0,979.9534020423889
29.676883895874024,-19.581760345458985,-0.30887709772586824,0.004878173005653644,13000.0,0.000708006863918854,0.3034747809171677,0.303477756023407,0.30349126982688907,26.0,1000.0,1.1323648420426065,28.21569118545756,26000,13000.0,1015.3946769237518
29.672131050109865,-19.580790481567384,-0.29715821611881255,0.004686029849806467,13500.0,0.0008695068501110655,0.2905423758029938,0.2905365010499954,0.29051419246196747,27.0,1000.0,1.9134214785340682,28.871693663162493,27000,13500.0,1050.0306797027588
29.667377250671386,-19.572115745544433,-0.2804354664087296,0.004181346205440134,14000.0,0.0008441045206855052,0.2761365660429001,0.27613785696029663,0.2761914718151093,28.0,1000.0,0.6069225564855778,28.801468705266412,28000,14000.0,1084.7511332035065
29.662622261047364,-19.568160942077636,-0.2672494496703148,0.0050469290719185695,14500.0,0.0006511114268214442,0.2625992929935455,0.2625999876856804,0.2625953761935234,29.0,1000.0,3.2152124409563854,28.872065509919683,29000,14500.0,1119.386689901352
29.657866134643555,-19.5641125869751,-0.2491694507598877,0.005690955538996897,15000.0,0.00231894344635657,0.24583479046821594,0.245845445394516,0.24586074912548064,30.0,1000.0,0.8256764207312042,28.902265534961522,30000,15000.0,1153.9860558509827
29.653108978271483,-19.56086563873291,-0.23599030238389967,0.005750640188649078,15500.0,0.0010760872603568714,0.23052357870340348,0.23051550656557082,0.23052343398332595,31.0,1000.0,1.125173447155545,9.358445994028896,31000,15500.0,1260.8414056301117
29.64835089111328,-19.557923797607423,-0.22776406216621398,0.005086585891679059,16000.0,0.0008659383211925161,0.22102321058511734,0.22101625430583954,0.2210276585817337,32.0,1000.0,1.1374694410107462,28.91218415822959,32000,16000.0,1295.4289016723633
29.643591598510742,-19.552243209838867,-0.21932624852657318,0.00511106757929304,16500.0,0.0010464085751445964,0.21440374767780304,0.21440576297044753,0.21439246422052383,33.0,1000.0,1.0699540833580654,28.948183794282034,33000,16500.0,1329.9733850955963
29.63883132171631,-19.548344230651857,-0.20969792646169663,0.005405848475328872,17000.0,0.0011247531077679014,0.20523853117227556,0.20524163967370987,0.20526726353168487,34.0,1000.0,0.2511005615080081,28.56627693438148,34000,17000.0,1364.9796993732452
29.634069900512696,-19.54003229522705,-0.1963919876217842,0.00490820788882029,17500.0,0.0006037449066061527,0.19346969538927078,0.1934640008211136,0.19346407568454743,35.0,1000.0,0.09117224355821157,28.7381961053632,35000,17500.0,1399.7765970230103
29.629307327270507,-19.53457592010498,-0.18470212942361833,0.005266336292545922,18000.0,0.000530128026541206,0.1820871787071228,0.1820903052687645,0.18210011237859727,36.0,1000.0,0.8780784297922833,29.178506213006106,36000,18000.0,1434.048401594162
29.62454374694824,-19.53009098815918,-0.17433425283432008,0.005237095602346471,18500.0,0.00039472472429042684,0.17184513062238693,0.17184321689605714,0.17183646100759506,37.0,1000.0,0.41071718553080266,28.471728112776148,37000,18500.0,1469.1709649562836
29.619779144287108,-19.52588087463379,-0.16415118324756622,0.00498471301637121,19000.0,0.00043637577022309415,0.1619863748550415,0.16200842040777205,0.16199459028244018,38.0,1000.0,0.3997346809027144,28.535859205648652,38000,19000.0,1504.214593410492
29.615013481140135,-19.520413055419922,-0.1555854143500328,0.004993812129049472,19500.0,0.0004485628162437934,0.1532408966422081,0.15322791278362274,0.15323522621393204,39.0,1000.0,0.4469916644962004,28.73961960984813,39000,19500.0,1539.0097675323486
29.610246574401856,-19.51540005493164,-0.14593851208686828,0.004466668774385581,20000.0,0.00040917544679541605,0.14423354184627532,0.14422934061288833,0.1442218475341797,40.0,1000.0,0.361540433387404,29.676941788227943,40000,20000.0,1572.7059643268585
29.605478507995606,-19.51085533905029,-0.1353830450773239,0.00459908252566558,20500.0,0.00032973600246623394,0.13467080110311508,0.13466679430007936,0.13468505582213403,41.0,1000.0,0.5132138041180193,9.362466903098326,41000,20500.0,1679.515422821045
29.600709716796874,-19.50619709777832,-0.12492790365219117,0.004321801511504555,21000.0,0.00035970399134384936,0.1244157994389534,0.12441770216822624,0.12441304239630699,42.0,1000.0,0.9462479951378311,29.038189721253584,42000,21000.0,1713.9528357982635
29.595939559936525,-19.501417572021484,-0.11789858734607697,0.004490168919958869,21500.0,0.0003560990296609816,0.11690952748060227,0.11690947490930557,0.1168847267627716,43.0,1000.0,1.1147855557054,29.022068555564246,43000,21500.0,1748.4093754291534
29.591168449401856,-19.497073554992674,-0.11032338911294937,0.0044928037668390906,22000.0,0.0003931881628523115,0.10905523809790611,0.10906096386909485,0.10907802566885948,44.0,1000.0,0.7556711199696908,28.557505875345647,44000,22000.0,1783.4264404773712
29.586396087646484,-19.49404655456543,-0.10518206012248993,0.004304624953480756,22500.0,0.000420111021023331,0.10261830511689186,0.1026119489967823,0.10261938473582267,45.0,1000.0,0.038046713208255575,29.115075868811868,45000,22500.0,1817.7729094028473
29.581622955322267,-19.48689733123779,-0.10300352740287781,0.004665359452375023,23000.0,0.0004964149407096556,0.10003123489022255,0.10003851634263992,0.10004128840565682,46.0,1000.0,0.6450676465694788,29.18751711006348,46000,23000.0,1852.0341334342957
29.57684848022461,-19.482466758728027,-0.09372767251729965,0.004464115174182124,23500.0,0.0005232140844673267,0.09275625219941139,0.09276304718852044,0.09277214899659157,47.0,1000.0,2.0355016458430883,28.439474826742483,47000,23500.0,1887.196528673172
29.57207300567627,-19.47744271850586,-0.08449496018886567,0.00415407252072257,24000.0,0.0005946234585717321,0.08368617010116577,0.08367993485927581,0.08367909032106399,48.0,1000.0,0.3982568373021389,28.642488167562664,48000,24000.0,1922.1096994876862
29.56729633331299,-19.47310443878174,-0.07973289650678635,0.004530297617856222,24500.0,0.0005056032759312074,0.07822497361898423,0.07822928735613822,0.07821856710314751,49.0,1000.0,1.5007326319039358,28.718070066464435,49000,24500.0,1956.9309830665588
29.562518692016603,-19.468136024475097,-0.0710696908980608,0.004488585519502204,25000.0,0.00042020913856322296,0.0705924033075571,0.07058229160308838,0.07060133829712868,50.0,1000.0,0.8829779314022804,26.121730386021735,50000,25000.0,1995.2132880687714
29.55773988342285,-19.46398893737793,-0.06385788255929947,0.004384562772586157,25500.0,0.00034739722964150134,0.06325928175449372,0.06326274502277374,0.06325097630918027,51.0,1000.0,0.7897638407396141,8.877630744873613,51000,25500.0,2107.85595703125
29.552960052490235,-19.459932357788087,-0.058425024911761284,0.0042241350737187286,26000.0,0.00039549864537184476,0.057584551274776456,0.05759042811393738,0.05758641371130943,52.0,1000.0,0.7280525247814378,27.949188858912066,52000,26000.0,2143.6351726055145
29.5481791305542,-19.454946083068847,-0.05561189492046833,0.004396311295210308,26500.0,0.0003727921699028229,0.053836114540696145,0.053835752457380294,0.05384678265452385,53.0,1000.0,1.4518178590028061,26.51535809762036,53000,26500.0,2181.3491661548615
29.543397132873537,-19.4514038772583,-0.05317595660686493,0.004585771212108414,27000.0,0.00048508129427500535,0.051819260835647585,0.05182458688318729,0.051818852379918096,54.0,1000.0,0.07995295079503807,27.455240629837007,54000,27000.0,2217.7720873355865
29.53861399078369,-19.445389015197755,-0.050724632024765015,0.004687089626095784,27500.0,0.00028587523273017725,0.049108986645936964,0.0491077576726675,0.049115682259202,55.0,1000.0,0.8486363621868437,27.83380523277694,55000,27500.0,2253.699624300003
29.53382977294922,-19.44375816345215,-0.04886437326669693,0.004545880132475503,28000.0,0.0002565982748819806,0.04660354113578796,0.04660028879344463,0.04660744653642178,56.0,1000.0,1.7715599064965715,25.91622108033657,56000,28000.0,2292.2854990959167
29.52904446411133,-19.436850311279297,-0.05133491438627243,0.00431134392767893,28500.0,0.00032206128627512953,0.04798800678551197,0.04798786963522434,0.048006853476166726,57.0,1000.0,0.909931187914542,25.81275832042635,57000,28500.0,2331.0260326862335
29.524258140563965,-19.43248392486572,-0.051794569537043575,0.004801753670002881,29000.0,0.00040953513286149247,0.049469648867845536,0.049473027527332306,0.04945708967745304,58.0,1000.0,0.5370835383362113,27.012437733485843,58000,29000.0,2368.0460183620453
29.519470664978027,-19.42806182098389,-0.04559895725548267,0.004605363963768134,29500.0,0.0003272140619592392,0.04439130273461342,0.04439584322273731,0.04441002532839775,59.0,1000.0,0.8342683483410427,26.250348704097505,59000,29500.0,2406.140753030777
29.514682106018068,-19.423044868469237,-0.041771944746375085,0.004330214079738223,30000.0,0.0003749435767276736,0.04002082473784685,0.04002329703420401,0.040028309747576714,60.0,1000.0,1.655715657683298,27.847425968927233,60000,30000.0,2442.0507168769836
29.509892417907714,-19.418191612243653,-0.040960342191159724,0.004259688155286921,30500.0,0.00046591333031392425,0.03929021544754505,0.03928856875747442,0.03930452310293913,61.0,1000.0,0.6606850727588899,9.249870612091714,61000,30500.0,2550.1603388786316
29.505101684570313,-19.414239707946777,-0.03567013498395681,0.004259562325489317,31000.0,0.00045615794648620067,0.035214682541787626,0.0352119126021862,0.03520973802357912,62.0,1000.0,0.4174728257460354,27.183235487367376,62000,31000.0,2586.9477202892303
29.500309814453125,-19.413084686279298,-0.03153441372513771,0.004743942516261576,31500.0,0.0003971594408321835,0.031154385708272458,0.031158640973269938,0.031160401977598666,63.0,1000.0,0.9802584188834896,24.014488126174403,63000,31500.0,2628.589250802994
29.49551686859131,-19.404842666625978,-0.030320621855556965,0.004680014612334843,32000.0,0.0004129574037033308,0.029171658858656885,0.029174387834966183,0.029174842968583106,64.0,1000.0,0.2057582385359538,26.01015477196276,64000,32000.0,2667.03577542305
29.490722831726075,-19.404997291564943,-0.02878685914725065,0.004472547485396433,32500.0,0.00026498244897811676,0.02736750565469265,0.027364700756967068,0.027371232315897942,65.0,1000.0,0.7159032039671303,25.062948765837536,65000,32500.0,2706.9353120326996
29.48592780303955,-19.41170789337158,-0.027878150686621667,0.00465622016665285,33000.0,0.0002828467904982972,0.026360286444425583,0.026361670754849912,0.0263585447371006,66.0,1000.0,0.009408855975906972,28.39882174962954,66000,33000.0,2742.148042678833
29.481131553649902,-19.399705932617188,-0.027523684442043304,0.004177141051923066,33500.0,0.00023151160319685005,0.02545066673308611,0.02544990737736225,0.025453224197030066,67.0,1000.0,2.2622723645311766,28.66474910615042,67000,33500.0,2777.034099340439
29.476334159851074,-19.400040916442872,-0.02993552529066801,0.004321394607139949,34000.0,0.00030531766235799293,0.027291041661053898,0.027290834590792654,0.02730091466754675,68.0,1000.0,1.3621228795329419,27.62952704392102,68000,34000.0,2813.2272651195526
29.471535758972166,-19.390621948242188,-0.03365804985165596,0.0042907608375217345,34500.0,0.00048823521157100914,0.029733492411673067,0.029734969727694988,0.029749313779175283,69.0,1000.0,0.4178149178778594,27.48262740927495,69000,34500.0,2849.613890171051
29.466736251831055,-19.3822296295166,-0.03373624919354916,0.004607298438379692,35000.0,0.0003916955754866649,0.03059099943190813,0.030591640040278433,0.030595512248575686,70.0,1000.0,0.9056450981429052,28.37195162211776,70000,35000.0,2884.859969854355
29.461935638427736,-19.374222900390624,-0.03235005149245262,0.0045059762029966205,35500.0,0.00046743698518548625,0.031517103143036365,0.031517164848744866,0.031525329872965815,71.0,1000.0,2.34849350090474,9.231054448018618,71000,35500.0,2993.189958333969
29.45713387298584,-19.36605630493164,-0.029850268494337796,0.004596529926547475,36000.0,0.000446877687892993,0.026656589798629286,0.026657975777983664,0.026670571088790892,72.0,1000.0,0.2438745166015968,28.72856078486219,72000,36000.0,3027.998526573181
29.452331092834473,-19.362324989318846,-0.02969791631773114,0.004292623878109716,36500.0,0.0004491424464067677,0.02764092968404293,0.027643208757042886,0.027649922862648963,73.0,1000.0,2.7180068524096663,28.99291518842491,73000,36500.0,3062.4897136688232
29.447527198791505,-19.35905815887451,-0.027134701266884803,0.004446267063773441,37000.0,0.0006073136182312737,0.02617738000303507,0.026178786896169186,0.026173279151320457,74.0,1000.0,0.15689449727647767,29.007943257106113,74000,37000.0,3096.963031768799
29.44272228240967,-19.35649536895752,-0.027927513375878333,0.005065021119856444,37500.0,0.0005990661966134212,0.02611051258444786,0.02610367699712515,0.026134737819433214,75.0,1000.0,1.2822407162055034,28.97366156929057,75000,37500.0,3131.477139234543
29.437916206359862,-19.35318489074707,-0.026668897323310375,0.004558209202780171,38000.0,0.00043053136860544326,0.024942670673131943,0.02495058900862932,0.02494787748903036,76.0,1000.0,1.1934508302492273,28.35662114877692,76000,38000.0,3166.7422738075256
29.433108940124512,-19.347538749694824,-0.026994411952793597,0.004577530851408203,38500.0,0.00039845268433418826,0.02492606933414936,0.024928462218493222,0.02493368546664715,77.0,1000.0,2.1169311295553523,25.954183518259576,77000,38500.0,3205.2717106342316
29.42830062866211,-19.342796005249024,-0.026167760856449604,0.004678965311968362,39000.0,0.0006294672250296571,0.024470670305192472,0.02446847051382065,0.024476855844259262,78.0,1000.0,2.750139831825893,27.58055395716327,78000,39000.0,3241.5291426181793
29.423491233825683,-19.338772941589355,-0.024456700038164855,0.0045106402426880006,39500.0,0.0003721384438103996,0.02297499379888177,0.02297776948288083,0.0229949988797307,79.0,1000.0,3.0257421964187614,26.86222038753162,79000,39500.0,3278.756152868271
29.41868070220947,-19.333846755981444,-0.024900802303105592,0.004848125352476317,40000.0,0.0006108988167761709,0.02295027866587043,0.022945946745574475,0.022961293522268535,80.0,1000.0,0.48081335425752186,26.254705731963977,80000,40000.0,3316.844565153122
29.413869148254395,-19.330738471984862,-0.024649327393621207,0.004951701492592406,40500.0,0.0007626735438825562,0.022954899583011865,0.022957757528871296,0.022962667144834994,81.0,1000.0,0.510156608328922,9.0817264133469,81000,40500.0,3426.955790281296
29.40905644226074,-19.324443603515626,-0.022198890179395674,0.00484749524997176,41000.0,0.0006405746959244425,0.020473910704255104,0.02047419997677207,0.020489456210285424,82.0,1000.0,2.624610183996401,27.937520060319887,82000,41000.0,3462.749950170517
29.4042426071167,-19.324434875488283,-0.021053430983796716,0.0048735172771760754,41500.0,0.0005291189283743733,0.01953483898937702,0.019538790997117757,0.019541793424636127,83.0,1000.0,0.7975456542106646,23.80871072721632,83000,41500.0,3504.7513859272003
29.399427673339844,-19.317461097717285,-0.020425622291862965,0.004876019298267493,42000.0,0.00045067753899638775,0.01845758593454957,0.018457433477044104,0.01848010002076626,84.0,1000.0,0.7559611486757462,26.03009989713891,84000,42000.0,3543.16845202446
29.394611679077148,-19.31309641265869,-0.02093602210469544,0.005150566438486014,42500.0,0.000490087685178878,0.019057861108332873,0.019061278883367776,0.01904647319763899,85.0,1000.0,1.183426864303332,28.000488511025257,85000,42500.0,3578.8821165561676
29.389794494628905,-19.307195755004884,-0.01871523293107748,0.00497365345679712,43000.0,0.000675386322545819,0.017128161802887915,0.017135154580697417,0.01717348102480173,86.0,1000.0,1.8874159827179133,25.164547352183728,86000,43000.0,3618.620564222336
29.384976486206053,-19.300465202331544,-0.017506315161474047,0.004804505065905516,43500.0,0.000567282498737768,0.014832303948700429,0.014831800077110529,0.014846155904233455,87.0,1000.0,0.615235445670543,26.563094909005923,87000,43500.0,3656.266781806946
29.38015690612793,-19.293734901428223,-0.021918613070622088,0.005578636011181901,44000.0,0.0005792048629227793,0.0177863296456635,0.017781309491023422,0.017789033433422446,88.0,1000.0,0.6688506255650992,26.892349922695228,88000,44000.0,3693.4520802497864
29.37533654022217,-19.29053914642334,-0.02699424548074603,0.00521186365135692,44500.0,0.0005859003215155098,0.022065707486122847,0.022074112329632044,0.022098767984658478,89.0,1000.0,3.0010771794135778,28.02904205074692,89000,44500.0,3729.1293630599976
29.37051496887207,-19.285969299316406,-0.02701321853324771,0.004969655442357905,45000.0,0.0005556853826383303,0.022854617174714802,0.02285061150416732,0.022855884563177824,90.0,1000.0,2.9675168380268326,25.999390887225594,90000,45000.0,3767.591804742813
29.365692329406738,-19.280477241516113,-0.030584745407104492,0.005155561394284604,45500.0,0.000622904624149669,0.0252158470377326,0.02521254413574934,0.025258517909795046,91.0,1000.0,0.3910928554718479,9.07355514388551,91000,45500.0,3877.802191257477
29.36086853790283,-19.27469551086426,-0.02862093061581254,0.0049731687499158595,46000.0,0.0006284888206209871,0.025355476841330528,0.025356451772153378,0.02535366500169039,92.0,1000.0,2.509148733872727,26.989041666779542,92000,46000.0,3914.854268550873
29.35604370880127,-19.272114303588868,-0.029470037382096054,0.005194900709715094,46500.0,0.0008142696102659101,0.025612057019025088,0.025609628573060036,0.02561614227294922,93.0,1000.0,0.7405594674385425,26.02249887112171,93000,46500.0,3953.282555580139
29.35121773529053,-19.267256675720215,-0.030389549538493158,0.005699036923035564,47000.0,0.0006688080728999922,0.026671894289553164,0.02667292496562004,0.02668214837089181,94.0,1000.0,0.6392510283187849,26.342886440756548,94000,47000.0,3991.2434701919556
29.346390602111818,-19.26177099609375,-0.028014793403446675,0.0047366181079481545,47500.0,0.0005464389490443864,0.024706412065774203,0.024704136103391647,0.024706899434328078,95.0,1000.0,1.3622791848398161,27.058153382237563,95000,47500.0,4028.2009088993073
29.34156237030029,-19.257514434814453,-0.027827291149646043,0.005253533140478848,48000.0,0.0005836728736649092,0.02475407811626792,0.024747332111001014,0.024764206744730472,96.0,1000.0,0.5428746196026646,26.49601471398864,96000,48000.0,4065.9424357414246
29.336733093261717,-19.25265562438965,-0.02458476457744837,0.004925149653357693,48500.0,0.0004996048071734549,0.02213935725018382,0.022139829263091087,0.022157746866345404,97.0,1000.0,0.08277066680136622,23.704293138799656,97000,48500.0,4108.1288912296295
29.331902618408204,-19.247409172058106,-0.023085001692175866,0.0049250347743648604,49000.0,0.0005614819872826047,0.02064015285670757,0.020652719590812923,0.020638371698558332,98.0,1000.0,0.41982470430277746,26.262264618659046,98000,49000.0,4146.206340789795
29.32707122039795,-19.241665870666505,-0.02287335155159235,0.005104156462148998,49500.0,0.0005218378656390996,0.019808126635849476,0.01979965580627322,0.01980861400440335,99.0,1000.0,1.0477899456801825,27.230488665497628,99000,49500.0,4182.929885387421
29.3222385635376,-19.237808753967286,-0.021578891951590778,0.005357693562237443,50000.0,0.0003850328402586456,0.019223173931241035,0.019224958196282387,0.019242269486188887,100.0,1000.0,2.4831138940474538,25.926615379494343,100000,50000.0,4221.500290155411
29.317404708862306,-19.23297631072998,-0.020939645234495402,0.005115228979108286,50500.0,0.0005997684365629538,0.0181379318498075,0.01814571733213961,0.018129765935242174,101.0,1000.0,1.215737700888058,9.234198395683784,101000,50500.0,4329.793395280838
29.312569885253907,-19.228406036376953,-0.019570015206933022,0.0052841822347747085,51000.0,0.00045219562447709906,0.017032789077609776,0.017034670485183596,0.01702679630741477,102.0,1000.0,1.0619051202214906,30.582083018548097,102000,51000.0,4362.492281913757
29.307733825683595,-19.224046012878418,-0.017433946089819075,0.0051475999407637136,51500.0,0.000427358619235747,0.015416916577145457,0.015414954449981451,0.015440381240099669,103.0,1000.0,0.5695465242174244,27.306300804901976,103000,51500.0,4399.11386847496
29.302896812438966,-19.22003352355957,-0.016312794882804155,0.0047783315044384106,52000.0,0.00039745267080797933,0.014193883698433638,0.014194587007164956,0.014199477352201938,104.0,1000.0,1.6414079200972969,29.187367011475963,104000,52000.0,4433.37526845932
29.298058547973632,-19.215341987609865,-0.016265995286405086,0.004965652026094139,52500.0,0.000609931957516892,0.014195960157550872,0.014193370175547898,0.014195971524342894,105.0,1000.0,1.2990523747728189,40.82837911411623,105000,52500.0,4457.8680374622345
29.293219078063967,-19.210742416381837,-0.015930629251524806,0.005343721163695705,53000.0,0.00039326912354954404,0.013738925102166831,0.013737506604753435,0.013754844065755606,106.0,1000.0,0.5030594293107926,38.69455652531462,106000,53000.0,4483.71146774292
29.288378845214844,-19.207673904418947,-0.01464515933021903,0.005234845284135988,53500.0,0.00043224174667375336,0.012355691283941268,0.012356311132200062,0.01236528550181538,107.0,1000.0,1.7252675927770285,34.025497317096594,107000,53500.0,4513.101194143295
29.28353727722168,-19.201896881103515,-0.0157351916693151,0.005418113729082768,54000.0,0.000484560837441677,0.013072607946582139,0.013076974847353994,0.01307663108408451,108.0,1000.0,1.189950621653771,36.431622917332106,108000,54000.0,4540.549890756607
29.278694580078124,-19.19656862640381,-0.013685918919858523,0.005276256517115337,54500.0,0.00038519030612042116,0.01159155260073021,0.011589047806337476,0.01158790804259479,109.0,1000.0,2.022605494328216,41.66414355616651,109000,54500.0,4564.551332235336
29.273850784301757,-19.19428828430176,-0.015195919141173363,0.00533499087293411,55000.0,0.00044771338511964134,0.012365283144637942,0.012361777430400253,0.012366421443410217,110.0,1000.0,0.7346636580228811,34.5138096044707,110000,55000.0,4593.525243520737
29.269005905151367,-19.18668907928467,-0.01471984862908721,0.005146116793920101,55500.0,0.00040152791777290985,0.012031234335154295,0.01202719505969435,0.01202699888125062,111.0,1000.0,1.8440365298019188,13.92626949290302,111000,55500.0,4665.33198428154
29.264159912109374,-19.187792602539062,-0.014676931241294369,0.005454065425242589,56000.0,0.0004322475352637412,0.012180548795498907,0.012179527867585421,0.012188271390274168,112.0,1000.0,0.590543268595358,35.263073179403605,112000,56000.0,4693.690263032913
29.25931270599365,-19.181827156066895,-0.01676733869779855,0.0052924421289894785,56500.0,0.0004125137256378366,0.013812668181024492,0.013817581838928164,0.013830676986835898,113.0,1000.0,1.9655060368456478,30.74418545090773,113000,56500.0,4726.21673989296
29.2544644241333,-19.171982963562012,-0.02060741423815489,0.004946425188782086,57000.0,0.0004958842942141928,0.015721029192209243,0.015726861067116262,0.015732620891183616,114.0,1000.0,1.0356836418318132,39.56933831002926,114000,57000.0,4751.488836526871
29.24961503601074,-19.168257095336916,-0.020739100070670247,0.005397727789513852,57500.0,0.00042932024662877666,0.01790127797983587,0.017896411636844276,0.01790927354991436,115.0,1000.0,1.868690487254879,38.10191299527352,115000,57500.0,4777.734239578247
29.244764518737792,-19.163564140319824,-0.02001601611915976,0.0055843355314591486,58000.0,0.0004839915769298386,0.016691705426201225,0.016680433094501495,0.016712505269795657,116.0,1000.0,1.5266338662833716,36.94571200863012,116000,58000.0,4804.800981521606
29.239912910461427,-19.162456466674804,-0.019482692925259473,0.0054684610555557995,58500.0,0.0005007358249786194,0.01645997688174248,0.016470329089090227,0.01645781279541552,117.0,1000.0,2.0748879854222273,36.49079964748301,117000,58500.0,4832.205151081085
29.235060195922852,-19.157136611938476,-0.018909020379185678,0.005362853581675843,59000.0,0.00036254102838574907,0.016251635558903216,0.016248558912426235,0.016263054229319094,118.0,1000.0,0.9962198368682371,39.834301695423115,118000,59000.0,4857.309144973755
29.230206283569338,-19.15019831085205,-0.018994497898966074,0.005207219935381065,59500.0,0.0003571652348182397,0.015637774407863618,0.01563855291157961,0.015638473588973283,119.0,1000.0,0.5853822816992097,34.99022334399351,119000,59500.0,4885.888560533524
29.225351303100584,-19.148545051574708,-0.024524816477671265,0.0055450410151459874,60000.0,0.0004780243589739257,0.018334523361176254,0.018334426052868367,0.018364508360624313,120.0,1000.0,0.9460383932103147,41.78400756018548,120000,60000.0,4909.821164131165
29.22049518585205,-19.141675201416014,-0.04277158961445093,0.0050409293256570694,60500.0,0.0004200734669866506,0.033683850273489954,0.03368519718945026,0.033705712951719764,121.0,1000.0,0.06666050589332367,14.056654816811495,121000,60500.0,4980.961846590042
29.21563790893555,-19.13496999359131,-0.0458745938539505,0.005026716323887649,61000.0,0.0003550116692604206,0.040506637789309026,0.040510299533605576,0.04053612218797207,122.0,1000.0,1.9414167577935841,35.12790471389683,122000,61000.0,5009.429244995117
29.210779586791993,-19.131030708312988,-0.04798342706263065,0.006194775985271389,61500.0,0.0004963074594925274,0.043829208359122275,0.04382671976834535,0.04383464612066746,123.0,1000.0,1.5060286351584462,40.726809583650116,123000,61500.0,5033.983097076416
29.205920066833496,-19.12615625,-0.04648260370641947,0.0055136177623142865,62000.0,0.00047038761442672695,0.040740846179425715,0.04073739840090275,0.04076894452422857,124.0,1000.0,1.5400569294036361,41.60332224772112,124000,62000.0,5058.019640445709
29.20105955505371,-19.121819816589355,-0.04283605372905731,0.005458982552602271,62500.0,0.0005228763626801083,0.0387744198590517,0.03878281129896641,0.03878231643885374,125.0,1000.0,2.984297873651259,39.823155091297174,125000,62500.0,5083.130661249161
29.196197708129883,-19.116868278503418,-0.03957066568732261,0.005373651461925828,63000.0,0.0004677166989786201,0.03532704413682222,0.035321823671460154,0.03534213887155056,126.0,1000.0,0.4228363135404895,37.88713915905933,126000,63000.0,5109.524843454361
29.191334785461425,-19.11048321533203,-0.0400360214561224,0.005934235289183209,63500.0,0.0006776048741012346,0.035196460142731666,0.035199313201010225,0.035216052792966364,127.0,1000.0,1.078230956868241,41.07856501406114,127000,63500.0,5133.868441104889
29.18647088623047,-19.10694071960449,-0.03979773037135601,0.005753826557947036,64000.0,0.0007254651530456613,0.03546607285737991,0.03546617847681045,0.03549694534391165,128.0,1000.0,1.4975862737227807,40.06810319606895,128000,64000.0,5158.825951337814
29.18160581970215,-19.1040431060791,-0.03732447309792042,0.00571597049246273,64500.0,0.0004618296604021452,0.03208961159735918,0.032081356912851335,0.03210420831292868,129.0,1000.0,0.5884564764920626,41.242091069860294,129000,64500.0,5183.0730266571045
29.176739616394045,-19.099696578979493,-0.03705740734189749,0.00561247364740403,65000.0,0.0003925785186365829,0.03157019849866629,0.031569759778678416,0.03158617933094501,130.0,1000.0,6.885495964295905,41.63559237699021,130000,65000.0,5207.090940237045
29.171872177124023,-19.093687477111818,-0.04045718047022819,0.005654455927639529,65500.0,0.001964408482213912,0.03182472598552704,0.03181483472138643,0.03190060372650623,131.0,1000.0,2.539516822771774,14.541644982470041,131000,65500.0,5275.8589544296265
29.1670037689209,-19.089641815185548,-0.043910649754106995,0.00560589917171346,66000.0,0.003314077118615387,0.035096512980759144,0.03508499701321125,0.03512794411182404,132.0,1000.0,1.2718596046476545,41.68976425968137,132000,66000.0,5299.845658302307
29.1621340713501,-19.084280876159667,-0.04711351216584444,0.005209367534972498,66500.0,0.0033068888495035934,0.038402135990560055,0.03841466207802296,0.03846270141750574,133.0,1000.0,0.8851380213888443,34.41149459489079,133000,66500.0,5328.905717611313
29.157263313293456,-19.080789405822753,-0.04755796425789595,0.005551378691876046,67000.0,0.0019412057153822388,0.03809174821525812,0.038088395908474924,0.03817355339974165,134.0,1000.0,2.4497114217149174,40.78344631023345,134000,67000.0,5353.425471305847
29.152391441345216,-19.07548878479004,-0.04708698859810829,0.006048758103899893,67500.0,0.0018354698678886053,0.039826656222343444,0.03982582956552506,0.03981142875552177,135.0,1000.0,1.3230459883788583,40.129180188314486,135000,67500.0,5378.344995737076
29.147518447875978,-19.07057056427002,-0.04446989917010069,0.005536631666891759,68000.0,0.0016628522096798406,0.03694110364466906,0.036940518632531165,0.0369212751314044,136.0,1000.0,1.4061351400963382,40.44874914124966,136000,68000.0,5403.067640066147
29.14264429473877,-19.06566148376465,-0.04576765437424183,0.005826247404258585,68500.0,0.0019000014698467567,0.03692161960154772,0.036922238893806934,0.03696804367005825,137.0,1000.0,1.0051849015877368,41.279607766251374,137000,68500.0,5427.292678356171
29.137769065856933,-19.05998868560791,-0.0430358854457736,0.005874781837508079,69000.0,0.0023389200275050824,0.036351832062006,0.03634621001034975,0.03634224326908588,138.0,1000.0,1.647670679579529,41.848644941011706,138000,69000.0,5451.188316345215
29.132892608642578,-19.05576163482666,-0.05222774963080883,0.005779538239732798,69500.0,0.004065750180321629,0.04105488228797913,0.04106398768723011,0.04116147434711456,139.0,1000.0,0.1155176157685845,37.43274330492423,139000,69500.0,5477.902897596359
29.128015022277832,-19.051271667480467,-0.04894058290123939,0.005346413182511925,70000.0,0.003365565007610712,0.04036986254155636,0.04037636385113001,0.040410211861133576,140.0,1000.0,1.8201158834800741,39.817996150693375,140000,70000.0,5503.017171859741
29.12313639831543,-19.046497955322266,-0.04039672219753265,0.005360560634689705,70500.0,0.0031087197992310392,0.035602056086063386,0.035598240353167054,0.035611839011311534,141.0,1000.0,2.097833399897373,14.452524836417822,141000,70500.0,5572.209235906601
29.11825650024414,-19.040834419250487,-0.040399333477020266,0.005407184209726742,71000.0,0.0013926066979765893,0.033120448999106884,0.03313678009808064,0.03313187426328659,142.0,1000.0,0.8955852716927709,41.81505207047218,142000,71000.0,5596.1240701675415
29.11337572479248,-19.036114303588867,-0.04258150005340576,0.005723928732940932,71500.0,0.002028415828699508,0.035180382274091246,0.03516191622614861,0.035209678001701834,143.0,1000.0,2.462087401463644,41.900436892780526,143000,71500.0,5619.9901711940765
29.108493492126463,-19.03152498626709,-0.03865531500428915,0.00582054863637849,72000.0,0.0014283327974189887,0.032342252530157566,0.03234911947697401,0.03232269910722971,144.0,1000.0,2.810804867123369,42.04557317565762,144000,72000.0,5643.773889064789
29.10361036682129,-19.027438507080078,-0.03886127707362175,0.005809063858562766,72500.0,0.0014875389361186536,0.0324519681930542,0.03245677770674229,0.032500996716320514,145.0,1000.0,2.7291831080960325,41.714987085651835,145000,72500.0,5667.74609041214
29.098726043701173,-19.022175437927245,-0.03812621776759625,0.005455937986531694,73000.0,0.0018105281814932823,0.03175895559042692,0.0317591438293457,0.03175862313061953,146.0,1000.0,1.7087403353758743,41.968236050195095,146000,73000.0,5691.5736384391785
29.093840522766115,-19.017168632507325,-0.032767431452870366,0.005478166411383033,73500.0,0.0010598366479680407,0.028138900965452195,0.028140081331133843,0.028128175035119055,147.0,1000.0,1.904752552338675,42.02141708650724,147000,73500.0,5715.371029376984
29.08895393371582,-19.013349617004394,-0.034521175190806386,0.005773499947933507,74000.0,0.0014216335598466684,0.028149675890803336,0.02816111408174038,0.028166631676256656,148.0,1000.0,1.1106184044427136,42.009366067522045,148000,74000.0,5739.1752462387085
29.0840661239624,-19.008979820251465,-0.02981452091410756,0.005619497636164866,74500.0,0.001686496451329731,0.025622143998742103,0.025617248188704252,0.02560441867634654,149.0,1000.0,1.7812802216205634,42.13416351509592,149000,74500.0,5762.908957242966
29.07917723083496,-19.004148696899414,-0.028809582024812697,0.0060831310622937165,75000.0,0.0017722543290219618,0.024442603178322315,0.024451131671667098,0.02446980721130967,150.0,1000.0,0.814470488987581,42.17161903118904,150000,75000.0,5786.621588468552
29.074287170410155,-18.998533767700195,-0.030079494494944813,0.0061159015420878616,75500.0,0.0012851630934419518,0.024514538269490002,0.02451098545268178,0.024498021591454745,151.0,1000.0,1.3569020162661154,14.64385078938932,151000,75500.0,5854.9096393585205
29.069396003723146,-18.993229370117188,-0.026796741131693124,0.0056780673497625715,76000.0,0.0010069551753076667,0.02237966490536928,0.022368297051638366,0.022371298413723706,152.0,1000.0,0.3269963109858175,42.06149484362346,152000,76000.0,5878.6843547821045
29.064503723144533,-18.98821445465088,-0.02459900223836303,0.005946720401777943,76500.0,0.001180029689992807,0.02096853459626436,0.020973920337855816,0.02099084734916687,153.0,1000.0,1.9830630199696748,42.10245082546241,153000,76500.0,5902.435942411423
29.059610237121582,-18.983950035095216,-0.02093883088231087,0.005866172463187339,77000.0,0.0010850030359324592,0.01819520553573966,0.018191499043256044,0.01817944483831525,154.0,1000.0,1.4520401137117702,41.90198569147906,154000,77000.0,5926.301161766052
29.054715675354004,-18.98112064361572,-0.022595954736694693,0.0060043433058006,77500.0,0.001324691628338769,0.01744948812201619,0.01745358916372061,0.017537147756665945,155.0,1000.0,1.959874801828306,42.05424024259187,155000,77500.0,5950.079978227615
29.04981992340088,-18.97454981994629,-0.02424210073798895,0.006220148994747608,78000.0,0.0015296403716129135,0.019003543887287377,0.019003616824746133,0.01893751933053136,156.0,1000.0,1.3085826786064645,41.32496400239742,156000,78000.0,5974.278428554535
29.044923011779787,-18.970590003967285,-0.02295075479336083,0.005538844510205974,78500.0,0.0009636887911037775,0.0177644761223346,0.01777676007337868,0.017776424638926983,157.0,1000.0,2.635090788864554,40.31614602964583,157000,78500.0,5999.082388162613
29.040024993896484,-18.964469764709474,-0.02480383509211242,0.0061779667371066205,79000.0,0.001144673334703839,0.019040731022134424,0.019032338174059988,0.019069407522678376,158.0,1000.0,1.0259197267936908,38.69897711549524,158000,79000.0,6024.922866106033
29.035125831604002,-18.961738357543947,-0.022540595706552268,0.005880551428925271,79500.0,0.0015551486941621988,0.01744242805428803,0.017442728154361247,0.0173971485029906,159.0,1000.0,0.2300730503404461,41.07597182901816,159000,79500.0,6049.268001079559
29.030225509643554,-18.957156127929686,-0.021355468835681676,0.006111217638882581,80000.0,0.0011809696543386963,0.016684771930798887,0.01668930712528527,0.01668563994206488,160.0,1000.0,0.5644441205463654,40.44798421481866,160000,80000.0,6073.991113424301
29.025324111938478,-18.951539085388184,-0.021827249689027668,0.006117445213178328,80500.0,0.0009265841589694901,0.01672105583176017,0.016712108418345452,0.016735045881941916,161.0,1000.0,0.7387958760250608,14.404453465513543,161000,80500.0,6143.414088964462
29.02042153930664,-18.946935737609863,-0.019272329384461044,0.005695554492020179,81000.0,0.0014714129224303177,0.01533744042366743,0.015340538622811437,0.015347709769383072,162.0,1000.0,1.7618550285066235,41.96420002822223,162000,81000.0,6167.243926525116
29.01551779937744,-18.94214529418945,-0.017905278344638644,0.005699027969002689,81500.0,0.0010575689598008467,0.01487391416542232,0.014869402587413788,0.014878843454644084,163.0,1000.0,0.4558659145942379,38.76552525780949,163000,81500.0,6193.040044307709
29.01061290740967,-18.93687644958496,-0.02095994022861123,0.00655886520713268,82000.0,0.0007486764761160885,0.016230030797421933,0.016235860645771028,0.016233105091378094,164.0,1000.0,1.6186663627283926,33.26193373927451,164000,82000.0,6223.1044454574585
29.00570686340332,-18.93303405761719,-0.020071196908596902,0.00636599426306584,82500.0,0.0014334183243408915,0.01587932038400322,0.015882267092354595,0.015890576036646963,165.0,1000.0,2.346213173227565,39.76481263692932,165000,82500.0,6248.252308607101
29.000799644470217,-18.927323097229003,-0.0187659659832716,0.005787770616139653,83000.0,0.0008848001000915246,0.014414815660566092,0.014412377836182714,0.014432777801528573,166.0,1000.0,0.323208947936469,40.32090266747372,166000,83000.0,6273.053344011307
28.99589133453369,-18.924603218078612,-0.018526517153717576,0.005910838723016423,83500.0,0.0010300652512360102,0.0144119826098904,0.014420370826032012,0.014414490660652519,167.0,1000.0,2.0166982110319647,40.493193359713466,167000,83500.0,6297.748854398727
28.990981910705568,-18.91819676208496,-0.018669249314814805,0.005900792104425552,84000.0,0.0016620984556211624,0.014923603375442325,0.014939368196763099,0.014956255430355668,168.0,1000.0,1.6528650846440378,40.07471050938813,168000,84000.0,6322.702250003815
28.986071266174317,-18.914591682434082,-0.01885155882500112,0.006314242715381966,84500.0,0.0015969542617131083,0.014800742753781378,0.014790284935384989,0.014813781059347093,169.0,1000.0,1.7525009733981443,41.066219943485265,169000,84500.0,6347.053165912628
28.981159469604492,-18.910222900390625,-0.017960015296470375,0.006111495487734363,85000.0,0.0011391031138664402,0.013904182480182499,0.013902125420980155,0.013882548441179096,170.0,1000.0,2.158502365472688,41.21102423667318,170000,85000.0,6371.318518877029
28.9762465133667,-18.904811737060548,-0.0185037086912198,0.006617244556540634,85500.0,0.0007129460371561436,0.013574793864507228,0.013577657683286816,0.013571322050876916,171.0,1000.0,0.7955328217235998,14.461373000328257,171000,85500.0,6440.468247652054
28.97133250427246,-18.900768913269044,-0.01699009668637882,0.006478957769789721,86000.0,0.0007497845945763402,0.012551081150129904,0.012546133242663928,0.01257430242933333,172.0,1000.0,2.8669652592470865,40.78783946875482,172000,86000.0,6464.985360383987
28.96641728210449,-18.89405108642578,-0.014171919748914661,0.0059279359589349025,86500.0,0.0006343286323590292,0.010037792277755215,0.010037631268438417,0.01001573656036635,173.0,1000.0,1.0713906950967738,39.14785277643722,173000,86500.0,6490.529547452927
28.961500854492186,-18.889401176452637,-0.014188164136372507,0.006181520077003143,87000.0,0.0006455259476279025,0.010147200691164471,0.010151448911579791,0.010165673220646567,174.0,1000.0,1.935334132282073,33.10317664624455,174000,87000.0,6520.738132238388
28.956583435058594,-18.885254150390626,-0.014004709140048362,0.006181688433057788,87500.0,0.001373228017189831,0.009826554757484701,0.009827148503361968,0.009853293722553644,175.0,1000.0,2.1676438097925175,40.34425914042407,175000,87500.0,6545.5248074531555
28.951664810180663,-18.880584075927736,-0.01308982243790524,0.005889178922638882,88000.0,0.0010166170240227075,0.00868220749462489,0.008677431850810536,0.00868176407192368,176.0,1000.0,1.2340688725506406,41.335476696103825,176000,88000.0,6569.717102766037
28.946744918823242,-18.875128578186036,-0.015921526194782928,0.006344615082508923,88500.0,0.0008249383144357125,0.010690348928677849,0.010690971999720205,0.01071072135673603,177.0,1000.0,0.49446004825579776,42.11655515324475,177000,88500.0,6593.460736274719
28.941823890686035,-18.872129539489745,-0.014129720468918094,0.006140993676569785,89000.0,0.0009914877571791294,0.010317694048862904,0.010303356636431999,0.010315248141821939,178.0,1000.0,2.0287339947958505,36.80168877500515,178000,89000.0,6620.633404016495
28.93690182495117,-18.867747467041017,-0.015808678819215858,0.006311014019667695,89500.0,0.0009878233865092624,0.010270995828468585,0.010268659159191885,0.010258777347044088,179.0,1000.0,2.0054153680439484,39.973545416029495,179000,89500.0,6645.649950265884
28.931978538513185,-18.86420919036865,-0.01430306887900224,0.006164995523359727,90000.0,0.0008872068397940893,0.009980159993981942,0.009982523387297987,0.009996692848508246,180.0,1000.0,3.12086589275744,41.178280273031675,180000,90000.0,6669.934598684311
28.92705403137207,-18.858412315368653,-0.01248638758866582,0.005794733434315024,90500.0,0.0008817181068188802,0.008954641624062789,0.008963647216442041,0.00894974595902022,181.0,1000.0,6.743460490084918,14.030324874349718,181000,90500.0,6741.208787918091
28.922128471374513,-18.8558486328125,-0.016696766998211387,0.006774708662654646,91000.0,0.001792089091733942,0.011694770858026459,0.011700036410416942,0.011723695254186168,182.0,1000.0,1.6162565425052295,39.95317073349162,182000,91000.0,6766.238092184067
28.91720164489746,-18.852418731689454,-0.01787596330838278,0.006828707117173352,91500.0,0.002165905100016971,0.013071700158412568,0.013060715535713825,0.0130739380964078,183.0,1000.0,0.03704498427887747,40.90668029941793,183000,91500.0,6790.683978557587
28.91227381134033,-18.844759742736816,-0.017411590958945452,0.006197370512163142,92000.0,0.0012891685764843713,0.012427570042666048,0.012423322612419725,0.012469185335095972,184.0,1000.0,0.803044488424708,35.653048288519734,184000,92000.0,6818.732073307037
28.90734475708008,-18.83872343444824,-0.02300729611236602,0.006752995532151346,92500.0,0.0021070331666924176,0.01637116972729564,0.016375529047101735,0.016411592515185477,185.0,1000.0,2.1399789266891496,40.32199926016321,185000,92500.0,6843.532432556152
28.90241455078125,-18.8346754989624,-0.022827841717749833,0.006326268167808785,93000.0,0.0016101318739674753,0.018233201968483628,0.018225328995846213,0.01820797087624669,186.0,1000.0,1.6120075443807176,39.077172894128054,186000,93000.0,6869.12282204628
28.89748313140869,-18.828434913635252,-0.0256483779810369,0.006809258401701566,93500.0,0.0022935828888839753,0.02036203190498054,0.02036812245287001,0.020465085588395597,187.0,1000.0,0.7067541889945704,41.453098368821195,187000,93500.0,6893.246472597122
28.892550621032715,-18.828782875061034,-0.022787709679454565,0.006230881635871972,94000.0,0.0027759038890799274,0.019824274299666284,0.019820463931187988,0.01974639468640089,188.0,1000.0,2.486836765293229,37.148810973030706,188000,94000.0,6920.165235996246
28.88761696624756,-18.822230995178224,-0.022723768852651118,0.006815620677166237,94500.0,0.0011730854266643292,0.01900436744838953,0.018999208711087703,0.018994111048057677,189.0,1000.0,2.2002623484629416,40.965836831634505,189000,94500.0,6944.575821638107
28.882682113647462,-18.815322158813476,-0.02274164598621428,0.006122277106899491,95000.0,0.0010897952758532484,0.01858512565679848,0.018587428698316217,0.018611555689945818,190.0,1000.0,0.9998922034343852,41.21945311037394,190000,95000.0,6968.836213350296
28.877746116638182,-18.81069036102295,-0.023774959014728664,0.006507461475507279,95500.0,0.0008767922213337442,0.019388087643310428,0.019387896349653603,0.019400381591171027,191.0,1000.0,1.677886567335311,14.69342476787499,191000,95500.0,7036.893867969513
28.87280888366699,-18.806800468444823,-0.02392342817224562,0.006183617645338785,96000.0,0.0011681719570915447,0.01986573785543442,0.019872441111132504,0.019853498708456756,192.0,1000.0,2.0727339765956363,41.969554685868346,192000,96000.0,7060.720664978027
28.867870574951173,-18.800124526977537,-0.029320802230387927,0.006560457021304447,96500.0,0.001174621083671809,0.02283334371447563,0.02284154564514756,0.022863488428294658,193.0,1000.0,2.360304389631115,42.0329135146897,193000,96500.0,7084.511547088623
28.862931091308592,-18.794596313476564,-0.0361714288033545,0.0069731142356154125,97000.0,0.0011255173365207155,0.027646889857947825,0.027628775168210266,0.02766656381264329,194.0,1000.0,0.7825119452784651,42.05854917887938,194000,97000.0,7108.287927150726
28.857990432739257,-18.790709869384767,-0.038180292263627055,0.00636585283338026,97500.0,0.0017085744570140378,0.03143576666712761,0.03143980754166841,0.031481335632503035,195.0,1000.0,5.766531363871649,42.14336088013878,195000,97500.0,7132.016459226608
28.853048545837403,-18.785599380493164,-0.042471982985734937,0.006575914412813976,98000.0,0.0030552116399412627,0.03573899735510349,0.035735621586441994,0.035806994006037714,196.0,1000.0,2.0858943855418732,42.04923323607605,196000,98000.0,7155.79810667038
28.84810577392578,-18.783501815795898,-0.047606902800500395,0.006821998607899055,98500.0,0.0021926158699352525,0.039659028865396975,0.03967715293169022,0.03971086046099663,197.0,1000.0,0.7790722109370076,42.090102396873654,197000,98500.0,7179.556663513184
28.843161598205565,-18.777770080566405,-0.06040379723906517,0.006845068620689439,99000.0,0.0024699889278272168,0.049166771069169043,0.04917571688443422,0.049230763956904414,198.0,1000.0,0.03290434439241846,41.9509611804901,198000,99000.0,7203.394021272659
28.838216148376464,-18.772554061889647,-0.062085003361105916,0.006887670194078039,99500.0,0.0021345186567341442,0.05305466504395008,0.05307148617506027,0.05310065816342831,199.0,1000.0,2.2946012552630175,41.912561604326946,199000,99500.0,7227.253218412399
28.833269676208495,-18.768982818603515,-0.06558483174443244,0.006593425558675037,100000.0,0.0029010038253472884,0.05779566656053066,0.0578077747374773,0.05788092349469662,200.0,1000.0,0.29577293073931926,42.05233317286962,200000,100000.0,7251.033113718033
28.828321990966796,-18.76554754638672,-0.06587764671444893,0.0066831515567276935,100500.0,0.0017143062265968182,0.05816158080101013,0.05816923576593399,0.05816278447210789,201.0,1000.0,0.0951516859151298,14.591356142160857,201000,100500.0,7319.566841363907
28.823373283386232,-18.761105995178223,-0.0657620299309492,0.006845491574653055,101000.0,0.0030246472279250158,0.059337914094328884,0.059348445132374764,0.05939911864697933,202.0,1000.0,0.4933847737697567,41.91346543965113,202000,101000.0,7343.425523996353
28.818423332214355,-18.75326392364502,-0.06546505120396615,0.0062463110266237085,101500.0,0.0024499910773884037,0.059236175641417504,0.05923169802129269,0.059217551842331885,203.0,1000.0,1.1173667569866548,42.077805955357704,203000,101500.0,7367.191023111343
28.813472145080567,-18.75136220550537,-0.06483374139666558,0.006539827686883868,102000.0,0.002735500258182583,0.05727126471698284,0.05726543232798576,0.05728842402994633,204.0,1000.0,1.5625832114833993,42.06086552319879,204000,102000.0,7390.966094255447
28.80851979827881,-18.74537409210205,-0.06272875562310219,0.006601717573764958,102500.0,0.001995253312321438,0.05568147650361061,0.05568882356584072,0.05565377730131149,205.0,1000.0,1.6411940166098997,42.2470442382225,205000,102500.0,7414.6363933086395
28.803566383361815,-18.737999969482424,-0.06623287516832352,0.006610180140592275,103000.0,0.0017027879337765625,0.05792073084414005,0.057913482084870335,0.057953525558114054,206.0,1000.0,1.7314080243071794,42.08867438934853,206000,103000.0,7438.395756244659
28.79861171722412,-18.733094535827636,-0.06591680091619491,0.006829618291728821,103500.0,0.0021628765529530937,0.058436434224247935,0.05842757289111614,0.05844570675492287,207.0,1000.0,1.4564130759950547,42.174687846974535,207000,103500.0,7462.106663227081
28.793655899047852,-18.72987068939209,-0.0638062653541565,0.0069572879449554086,104000.0,0.0014350185223738663,0.0577505621612072,0.057752748295664784,0.05776912277936935,208.0,1000.0,1.6535853903455346,42.202354477202896,208000,104000.0,7485.802025318146
28.788698928833007,-18.724823516845703,-0.06104269005358219,0.0070486267054653915,104500.0,0.0015636727262535715,0.054773814827203754,0.05477473795413971,0.0547685382515192,209.0,1000.0,1.7945223389877458,42.30227899062137,209000,104500.0,7509.441415548325
28.783740715026855,-18.7241201171875,-0.05857216981053352,0.006483403103750944,105000.0,0.0021464886029280024,0.05273095372319221,0.052718797013163565,0.05274224922060967,210.0,1000.0,1.3782769640047168,42.33810746528545,210000,105000.0,7533.06080031395
28.778781440734864,-18.72030852508545,-0.06039714930951595,0.0071818483678576005,105500.0,0.0020979052847251295,0.051760190710425376,0.05176977117359638,0.05181285384297371,211.0,1000.0,0.47570004872790855,14.669639255577252,211000,105500.0,7601.228803873062
28.77382096862793,-18.710875549316405,-0.056179800435900686,0.006508993552802313,106000.0,0.0023176984386882394,0.04978363946080208,0.049804847702384,0.049780188277363774,212.0,1000.0,1.699295374680199,41.917652992641536,212000,106000.0,7625.085103034973
28.768859214782715,-18.706523330688476,-0.05183846653997898,0.006414347283784849,106500.0,0.001721093563530303,0.04683049346506596,0.04682869537174702,0.04685742399096489,213.0,1000.0,1.6609550334308778,41.983577663248525,213000,106500.0,7648.903942108154
28.763896385192872,-18.703329719543458,-0.050385807290673254,0.006635300073269899,107000.0,0.0015577658111724305,0.044573395520448686,0.04458020341396332,0.04457830320298672,214.0,1000.0,0.187442649093364,42.04511376358613,214000,107000.0,7672.687920093536
28.758932373046875,-18.699159324645997,-0.05087102149426937,0.006464089070690079,107500.0,0.001266166296263691,0.045295260205864905,0.045281996324658395,0.045308750078082084,215.0,1000.0,2.345867694454367,42.1003230177653,215000,107500.0,7696.440708398819
28.75396716308594,-18.6942244720459,-0.04985624320060015,0.006493849077516992,108000.0,0.0015450256139156408,0.04445239056646824,0.0444465768635273,0.044460683837532995,216.0,1000.0,0.9958687216148354,42.01388507342737,216000,108000.0,7720.242364883423
28.749000831604004,-18.687563285827636,-0.04910190410912037,0.006785853292766786,108500.0,0.0009473894270267919,0.04380509521812201,0.04380583581328392,0.04378349396586418,217.0,1000.0,1.0086819617436509,41.87384639999326,217000,108500.0,7744.123621225357
28.74403330230713,-18.681858444213866,-0.048648147948086265,0.0071684189466884995,109000.0,0.0014685845266867545,0.043354594103991985,0.04333755468577147,0.04338669849187136,218.0,1000.0,1.3686000606394746,42.002312823810705,218000,109000.0,7767.931836366653
28.739064598083495,-18.676073387145998,-0.047334855198860167,0.006974511265466191,109500.0,0.001397907717149792,0.041852519042789936,0.041828127928078176,0.041807418115437034,219.0,1000.0,2.1822569432885506,41.9871643109744,219000,109500.0,7791.748640298843
28.734094688415528,-18.671746620178222,-0.04425592147558927,0.006328692665803779,110000.0,0.0011996196775144199,0.03943145971000195,0.03944372987002134,0.03944065091013908,220.0,1000.0,1.7433921283236715,41.97190071837197,220000,110000.0,7815.5741057395935
28.729123748779298,-18.66661849975586,-0.042357748739421365,0.00662350732962504,110500.0,0.0011293910365384363,0.037146635502576825,0.03714090795069933,0.03716496312618255,221.0,1000.0,6.799375231257935,14.645238764546532,221000,110500.0,7883.855684757233
28.724151336669923,-18.665708274841307,-0.03959201398491859,0.006419617112481194,111000.0,0.002408475345262559,0.03601552617549896,0.03601479873806238,0.03603996925055981,222.0,1000.0,1.1050209643086144,41.9711741174344,222000,111000.0,7907.681562423706
28.719177940368652,-18.658590309143065,-0.03764196426421404,0.006340787041840473,111500.0,0.002965762990490475,0.03326273466646671,0.0332654962092638,0.03329165637493134,223.0,1000.0,1.465246200561975,42.19161273023242,223000,111500.0,7931.3829572200775
28.714203430175782,-18.65524308013916,-0.039072362817823884,0.007206588875841042,112000.0,0.0033579318488773423,0.03332209679484367,0.03331389130651951,0.033368795059621335,224.0,1000.0,1.9816559570374577,42.28536625677568,224000,112000.0,7955.031802177429
28.709227561950684,-18.647290306091307,-0.03967459600418806,0.00683621792097441,112500.0,0.0029847618547210004,0.033454307377338406,0.03347296016663313,0.03348408165574074,225.0,1000.0,0.900134991128265,40.88878403678749,225000,112500.0,7979.488388538361
28.704250648498537,-18.64820053100586,-0.03622109512984752,0.006588301742205445,113000.0,0.0016567959184394568,0.0321245741546154,0.03212966170161963,0.03209479188919068,226.0,1000.0,2.120985574561711,42.129159464557304,226000,113000.0,8003.224918603897
28.699272468566896,-18.64606455230713,-0.03890631953626871,0.006825101063871653,113500.0,0.002558610549327568,0.03310160586982965,0.03309807793796062,0.033158559367060664,227.0,1000.0,0.7717790319700292,42.02049385509346,227000,113500.0,8027.022831916809
28.694293174743652,-18.64002921295166,-0.042770755134522914,0.0068516556432847014,114000.0,0.003053715154026577,0.03593941238522529,0.035966599360108376,0.03598732654005289,228.0,1000.0,0.445287162405239,42.04444910902852,228000,114000.0,8050.807186126709
28.689312721252442,-18.631983909606934,-0.0406250170096755,0.007251346932081701,114500.0,0.0018018439476909407,0.0352327371686697,0.03521319681406021,0.0351666811183095,229.0,1000.0,2.7683913721614677,41.829816308111695,229000,114500.0,8074.713579893112
28.684330993652345,-18.628357208251952,-0.042145558297634125,0.006863042381695575,115000.0,0.002212241333705606,0.035972865983843805,0.035957314439117906,0.0359729318395257,230.0,1000.0,2.31904389384531,41.834227918158035,230000,115000.0,8098.617453098297
28.6793480758667,-18.622558372497558,-0.04448882555216551,0.0068039446764034325,115500.0,0.002725644554884639,0.037939992614090444,0.03794366812705994,0.03799228877574205,231.0,1000.0,1.4200664569582504,14.21111766628862,231000,115500.0,8168.984897851944
28.67436410522461,-18.618565467834472,-0.0507161374092102,0.0070517595847977114,116000.0,0.004277087527865661,0.0419246277064085,0.04192810247093439,0.04197253209352493,232.0,1000.0,0.46055637204755584,42.04514663861187,232000,116000.0,8192.768857479095
28.669378845214844,-18.613050155639648,-0.046794933401048185,0.006793508858761005,116500.0,0.002060264148109127,0.04067000056058168,0.04067882668972016,0.04072616785019636,233.0,1000.0,1.2337682202217275,41.76011482820881,233000,116500.0,8216.715152978897
28.664392448425293,-18.6071019821167,-0.04986240193247795,0.006829234632431195,117000.0,0.0018152872956488863,0.0428742531388998,0.04286379151791334,0.04289633759856224,234.0,1000.0,0.2090311565963564,42.04035796343882,234000,117000.0,8240.501821756363
28.659404823303223,-18.602724891662596,-0.052116248711943626,0.0069793440526857925,117500.0,0.001879665534652304,0.04636550787091255,0.04636688104271889,0.046353939697146414,235.0,1000.0,0.7860201192113344,42.049772414332956,235000,117500.0,8264.28316450119
28.654416122436523,-18.597415252685547,-0.053593477547168734,0.007050390510911132,118000.0,0.0025242276396529634,0.0469344065412879,0.046936748392879965,0.04694874683022499,236.0,1000.0,1.4211443041922585,42.0478935707606,236000,118000.0,8288.065570116043
28.649426246643067,-18.59155239868164,-0.05306035159528256,0.006807800468654807,118500.0,0.001927585795201594,0.04672739738225937,0.04669561351835728,0.046705466896295546,237.0,1000.0,1.3114847856873073,41.58022261988125,237000,118500.0,8312.115466833115
28.6444348526001,-18.58779941558838,-0.05139054320752621,0.0060732252581823225,119000.0,0.0013048129867929675,0.04601480692625046,0.04601389162242413,0.0460197202116251,238.0,1000.0,0.8547531581675036,41.89760037648768,238000,119000.0,8335.98318362236
28.639442626953127,-18.582947425842285,-0.053104087486863134,0.006667506647981677,119500.0,0.0024643051780876704,0.04675502189993858,0.04676121063530445,0.04684698304533958,239.0,1000.0,1.4567349431290308,42.028114570356756,239000,119500.0,8359.776782274246
28.63444925689697,-18.578815223693848,-0.054462185949087145,0.007176954351487694,120000.0,0.002637702498010185,0.0480400891751051,0.04803105552494526,0.04803010267019272,240.0,1000.0,1.1773947233804767,42.01940480571176,240000,120000.0,8383.575312376022
28.629454216003417,-18.57556587219238,-0.05383363389968872,0.006399564789677173,120500.0,0.0026778888690605525,0.047215791068971155,0.04722731903195381,0.04721337604522705,241.0,1000.0,0.5252161004479877,14.688186038104375,241000,120500.0,8451.657240152359
28.62445854949951,-18.570166015625,-0.052325537890195846,0.006458575888100752,121000.0,0.0015269005238515091,0.04625216244161129,0.04626590622961521,0.046270287051796914,242.0,1000.0,1.316632457894871,42.07361968605765,242000,121000.0,8475.425104141235
28.619461364746094,-18.570064178466797,-0.05628792355954647,0.006757994422173201,121500.0,0.00202665853639337,0.04802328565716744,0.04801806385815144,0.048066480308771135,243.0,1000.0,0.1549595996001966,41.91552497278686,243000,121500.0,8499.28261423111
28.61446337890625,-18.564727600097655,-0.058043213665485385,0.006706109772598868,122000.0,0.001774636184767587,0.05059138299524784,0.05058409456908703,0.05067396268248558,244.0,1000.0,2.9005237275655604,41.995419206559575,244000,122000.0,8523.094736337662
28.609463401794432,-18.556370620727538,-0.07597573703527451,0.006666369229603468,122500.0,0.00232271249461337,0.061356508672237395,0.0613331845253706,0.061432161763310435,245.0,1000.0,1.143693524962659,42.05019398632371,245000,122500.0,8546.875840902328
28.604463005065917,-18.549212562561035,-0.10486323437094688,0.006689510926556189,123000.0,0.004032303376414348,0.08490966002643108,0.08491703088581562,0.08504049937427044,246.0,1000.0,1.8669096591583196,41.877663105020225,246000,123000.0,8570.75492143631
28.599461380004882,-18.54368222808838,-0.12458303508162498,0.006613050514498823,123500.0,0.0042037969364319,0.10425728744268417,0.10426168429851532,0.1043356367945671,247.0,1000.0,1.785428906314552,41.98064080054583,247000,123500.0,8594.575426101685
28.594458526611326,-18.538317054748536,-0.13403090086579322,0.006982691660604553,124000.0,0.0035830947306822055,0.11929680714011193,0.11930518233776093,0.1193759637773037,248.0,1000.0,1.7836554927660753,41.860939813182,248000,124000.0,8618.464045763016
28.5894535446167,-18.53645219421387,-0.13201576173305513,0.006703017266535328,124500.0,0.004359756313089747,0.12124085694551467,0.12124415382742881,0.1213221753835678,249.0,1000.0,1.7049005833598796,41.96821421361389,249000,124500.0,8642.291604042053
28.584447860717773,-18.52904885864258,-0.13217539289593697,0.007339330723245283,125000.0,0.003054557069001021,0.12265658554434776,0.12265557992458344,0.12269637051224709,250.0,1000.0,0.17596092508835345,41.95604595468549,250000,125000.0,8666.126073122025
28.57944107055664,-18.523073036193846,-0.12640791696310044,0.006646623251955035,125500.0,0.0016896795045904583,0.11786077547073365,0.11785816910862923,0.11785941183567047,251.0,1000.0,0.5070082978855874,14.63335533945797,251000,125500.0,8734.46310210228
28.574433723449708,-18.51925054168701,-0.12282148236036301,0.006696579376821767,126000.0,0.002328434462448058,0.11497706764936447,0.11497225031256676,0.11501841947436332,252.0,1000.0,1.1203156162813461,41.3278855816463,252000,126000.0,8758.659843683243
28.569425102233886,-18.515535720825195,-0.12028295919299126,0.007409436157703254,126500.0,0.002050519866621471,0.11164522981643676,0.1116356101334095,0.11160704335570336,253.0,1000.0,0.5087187615102889,41.55429870453312,253000,126500.0,8782.724744319916
28.564415237426758,-18.51172617340088,-0.11258730417490005,0.006272632272530394,127000.0,0.002377247207259643,0.10540446162223815,0.10539376759529114,0.10540023130178451,254.0,1000.0,1.6820691531615628,41.521913952991135,254000,127000.0,8806.808413982391
28.559403427124025,-18.508985801696777,-0.11645422196388244,0.006958538585773368,127500.0,0.0021293501140899024,0.10615619513392448,0.10617355346679687,0.10624628838896752,255.0,1000.0,0.6022365715906979,41.3253104984288,255000,127500.0,8831.006660938263
28.554390563964844,-18.500607261657716,-0.11423602610826493,0.006428858722508018,128000.0,0.0016531174337869744,0.10490735021233559,0.10489698895812034,0.10491052651405335,256.0,1000.0,0.837613964859515,41.48358646393932,256000,128000.0,8855.112581968307
28.549377143859864,-18.495354461669923,-0.11442478248476982,0.006883439967397862,128500.0,0.0021770087297045392,0.10487387466430664,0.10487562480568886,0.10487596714496612,257.0,1000.0,1.2715089675437576,41.366619732993975,257000,128500.0,8879.286664485931
28.54436206817627,-18.490471527099608,-0.11100540852546692,0.007421585516631722,129000.0,0.002383779927244177,0.10396284079551697,0.10395685064792633,0.10397492200136185,258.0,1000.0,1.5801389318320258,41.56285706511115,258000,129000.0,8903.346609830856
28.539345794677736,-18.487778465270996,-0.10531598773598672,0.007002581968896994,129500.0,0.001471039491945703,0.0983534175157547,0.09834264898300171,0.09836258709430695,259.0,1000.0,2.4821556514521737,41.46803116722505,259000,129500.0,8927.461573839188
28.53432843017578,-18.483316711425783,-0.10125356417894363,0.006731576260536599,130000.0,0.0021608280211366944,0.0948899511396885,0.09487966150045395,0.09488076555728912,260.0,1000.0,1.3772137151897876,41.42665017727622,260000,130000.0,8951.600625753403
28.529309883117676,-18.47600661468506,-0.10170462653040886,0.007099010950372445,130500.0,0.002493895159452222,0.09383944377303123,0.09387284475564957,0.09381495517492294,261.0,1000.0,0.5575960723168643,14.614975861548661,261000,130500.0,9020.02359366417
28.524289939880372,-18.471359664916992,-0.09425456064939498,0.006626547816814542,131000.0,0.0019055522241469588,0.08867588368058205,0.08865796461701393,0.0887200477719307,262.0,1000.0,2.449134648731719,41.68410086646358,262000,131000.0,9044.0135576725
28.51926921081543,-18.470011291503905,-0.09142037135362625,0.0063091834066288065,131500.0,0.0012536960864308639,0.08510181817412377,0.08509618318080903,0.08512764924764633,263.0,1000.0,2.376002459259825,41.609407036406616,263000,131500.0,9068.04658651352
28.514246932983397,-18.46557127380371,-0.09403260466456413,0.006681739971437875,132000.0,0.001968429929969716,0.08652008527517319,0.08651961907744407,0.08652222388982773,264.0,1000.0,0.48873439826199105,41.621759969921776,264000,132000.0,9092.072494506836
28.50922351837158,-18.45813787841797,-0.09257993295788765,0.007412077946889792,132500.0,0.0021066209362106745,0.08546274143457412,0.08544522565603256,0.08547570696473121,265.0,1000.0,3.1933397588415677,41.58453184986129,265000,132500.0,9116.119901180267
28.504198913574218,-18.452785507202147,-0.09007794821262359,0.00740164547453003,133000.0,0.001669721200647473,0.08367820838093758,0.0836986029446125,0.08368974158167838,266.0,1000.0,1.140154374028861,41.39408489226594,266000,133000.0,9140.277943611145
28.499173194885255,-18.447572982788085,-0.08928515565395355,0.007157794267344798,133500.0,0.00166274726978736,0.0824167083799839,0.08241934096813201,0.08245451426506042,267.0,1000.0,4.13976313327676,41.666549527312156,267000,133500.0,9164.278012514114
28.494146255493163,-18.445925903320312,-0.08971691209077835,0.006979775251509128,134000.0,0.0027915275188861413,0.08176756167411804,0.08175021290779114,0.08178841584920883,268.0,1000.0,2.081918178989974,41.71146047413523,268000,134000.0,9188.252240896225
28.489117935180666,-18.443463645935058,-0.08604559606313705,0.006484181822937404,134500.0,0.0015768683156493354,0.08011226144433022,0.08011214712262153,0.08009581956267357,269.0,1000.0,2.9274917942830228,41.49715185836729,269000,134500.0,9212.350282669067
28.484088623046876,-18.437728576660156,-0.08318691845238209,0.006994530550817416,135000.0,0.001988960885457345,0.07715982691943646,0.07715011541545391,0.07720418074727059,270.0,1000.0,1.2017806253503924,41.39488111919224,270000,135000.0,9236.507860660553
28.479057838439942,-18.43324267578125,-0.08125053240358829,0.0068051075906017024,135500.0,0.0024682084350060906,0.07446799367666244,0.0744868219345808,0.07448936873674393,271.0,1000.0,3.305582965917081,14.506490096072799,271000,135500.0,9305.442525148392
28.47402606201172,-18.426908088684083,-0.08264921505749226,0.006935165129559595,136000.0,0.0024506388923036864,0.07452163176238537,0.07453352853655815,0.07451363044977188,272.0,1000.0,1.5800226817939367,41.56729245980955,272000,136000.0,9329.499902486801
28.468993118286132,-18.424816917419435,-0.08117964021861553,0.007163977500666224,136500.0,0.0029974252830870683,0.07506354570388794,0.07507040940225124,0.07510165897011757,273.0,1000.0,1.2716827511582267,41.66724450859759,273000,136500.0,9353.49957203865
28.463958808898926,-18.41971527862549,-0.0819714125841856,0.007794879031756409,137000.0,0.0021373231762991055,0.07426859630644321,0.07424701245129109,0.07425408266484737,274.0,1000.0,0.9075072877986239,41.443362762806004,274000,137000.0,9377.6288895607
28.458923561096192,-18.413482040405274,-0.0791072500795126,0.006721965125731819,137500.0,0.002106950965397118,0.07258439114689827,0.07258960407972335,0.07258704109489918,275.0,1000.0,6.874737126929498,41.76547782989919,275000,137500.0,9401.572110176086
28.453886810302734,-18.4067057800293,-0.0781754641532898,0.007268910354925037,138000.0,0.00223439896133641,0.07132859666645527,0.07132858909666538,0.07142019608616829,276.0,1000.0,1.911871250142579,41.689864125543835,276000,138000.0,9425.558757781982
28.44884912109375,-18.401594482421874,-0.08172326789796353,0.00726100279337831,138500.0,0.0028801827984570993,0.07274507273733616,0.07277143396437168,0.07276726204156876,277.0,1000.0,3.011085710824359,41.7459631523924,277000,138500.0,9449.51317191124
28.44380979156494,-18.39310120391846,-0.08288491919636726,0.0070141707865631845,139000.0,0.004455102808598894,0.07458297815918923,0.07457021266222,0.07460978196561337,278.0,1000.0,1.1396567298259583,41.67636378400076,278000,139000.0,9473.507588624954
28.438769699096678,-18.387491203308105,-0.08381236797571182,0.00673356246460579,139500.0,0.0035939429943973662,0.07582037316262721,0.07582653732597829,0.07584346209466457,279.0,1000.0,0.6138225007052142,41.70319284402807,279000,139500.0,9497.48656988144
28.433728218078613,-18.38355869293213,-0.08367469777166843,0.006830007645713863,140000.0,0.0028187908048130338,0.0758054370880127,0.07579175066947937,0.07580247682332993,280.0,1000.0,2.934009821245928,41.85069100969727,280000,140000.0,9521.381039381027
28.428685577392578,-18.37966396331787,-0.07941260120272636,0.007211906393761609,140500.0,0.0018933811198585317,0.07378405022621155,0.07379437001049519,0.07378295375406742,281.0,1000.0,2.4018671809083356,14.587749692984731,281000,140500.0,9589.931710004807
28.42364157104492,-18.374422248840332,-0.07392069672048092,0.006788797618206708,141000.0,0.0018159629548244994,0.06785016718506813,0.06787565204501152,0.06785120931267738,282.0,1000.0,1.2205168478258188,41.84943703815424,282000,141000.0,9613.826895952225
28.418596458435058,-18.370313400268554,-0.07362959921360016,0.007104350186843888,141500.0,0.002373942446130968,0.06680964212119579,0.06680604113638401,0.06677369469404221,283.0,1000.0,0.367488804673047,41.77720330263004,283000,141500.0,9637.763397216797
28.41355020904541,-18.367551155090332,-0.07080724608898163,0.007067081047584771,142000.0,0.002293286617445119,0.06528867635130882,0.06528679968416691,0.06528756396472454,284.0,1000.0,2.6169112225330626,41.92593505701544,284000,142000.0,9661.61498427391
28.40850239562988,-18.361158081054686,-0.06887850248813629,0.007381761129177435,142500.0,0.0024686618820633156,0.062591382548213,0.0625922781676054,0.06265872167050839,285.0,1000.0,0.8373548033288102,41.60751822128907,285000,142500.0,9685.649104118347
28.40345390319824,-18.356212471008302,-0.06491632588207721,0.007115006102469128,143000.0,0.001972138959878066,0.06003013022243977,0.06003276804089546,0.059978143259882925,286.0,1000.0,0.7984577510868912,41.72995101274753,286000,143000.0,9709.612709760666
28.398403923034667,-18.350440811157227,-0.059658222407102585,0.006725084166228525,143500.0,0.0017546754259092268,0.055098941698670384,0.055112285643816,0.05507361534237862,287.0,1000.0,1.490123321419752,41.57118244731418,287000,143500.0,9733.667850971222
28.39335270690918,-18.347370544433595,-0.05710336290299892,0.007085880043885481,144000.0,0.0019662278871983288,0.051943560227751734,0.05193165640532971,0.051977182775735854,288.0,1000.0,1.4245016020485401,41.66744940625456,288000,144000.0,9757.6674015522
28.388300323486327,-18.34240377807617,-0.05563046896457672,0.006645916630419961,144500.0,0.0013063183531558025,0.05008427001535892,0.05009008271992207,0.05005086182057857,289.0,1000.0,3.089178299333399,41.66713978390667,289000,144500.0,9781.667130708694
28.38324674987793,-18.339362106323243,-0.055973046243190765,0.007073212171237639,145000.0,0.0014264058541812118,0.049454200237989424,0.04945413927733898,0.049452539697289466,290.0,1000.0,2.371207123209428,41.622369197217566,290000,145000.0,9805.69267487526
28.3781918258667,-18.334100227355957,-0.053926825746893885,0.006952572708430573,145500.0,0.0020040873974066925,0.04758118452876806,0.047588088639080525,0.04758813139796257,291.0,1000.0,0.12504731457327375,14.638032492562166,291000,145500.0,9874.007868528366
28.37313594055176,-18.329673370361327,-0.05224835503101349,0.007196396802136213,146000.0,0.001696350009740854,0.046593272514641286,0.046569912269711494,0.0465881784260273,292.0,1000.0,3.0975294306747165,41.72051902253621,292000,146000.0,9897.976891994476
28.36807859802246,-18.321848426818846,-0.0512741452306509,0.006965056619283313,146500.0,0.0016136899759076186,0.045314792171120645,0.04533395290374756,0.04535516460239887,293.0,1000.0,1.396177774825911,41.83131524997775,293000,146500.0,9921.882429122925
28.363020149230955,-18.320472785949708,-0.04947326271981001,0.0070712468733398525,147000.0,0.0018347349992982344,0.04465408756583929,0.04466422019898891,0.04465987753868103,294.0,1000.0,1.4196862073598224,41.57711935676988,294000,147000.0,9945.934121370316
28.357960342407228,-18.315642936706542,-0.04903348046541214,0.007330071327784504,147500.0,0.0017048037521526567,0.043549637041985986,0.04352482532709837,0.04354706111550331,295.0,1000.0,0.5631299770463019,41.78446711162205,295000,147500.0,9969.86646103859
28.352899452209474,-18.312603958129884,-0.046329693272709846,0.00671161471950361,148000.0,0.0012777530601415493,0.04118528117984533,0.04118795085698366,0.04114122734963894,296.0,1000.0,1.9550759396087556,41.60597212921323,296000,148000.0,9993.901473522186
28.347837493896485,-18.314264587402345,-0.04529940113425255,0.00714190103221096,148500.0,0.0012269813976672594,0.039566490195691584,0.039579771988093856,0.03959636852890253,297.0,1000.0,0.7687786641346241,41.11053400879233,297000,148500.0,10018.226140975952
28.34277402496338,-18.31288665008545,-0.04591659869253635,0.006928095187138666,149000.0,0.0019292633060467778,0.039990968719124796,0.03999809145927429,0.0399718904197216,298.0,1000.0,1.8131127362531938,41.09919704025703,298000,149000.0,10042.55751824379
28.33770938873291,-18.29989617919922,-0.04747157404571772,0.007065854078609528,149500.0,0.002200692820857512,0.04172535401582718,0.04174084885418415,0.04171069015562534,299.0,1000.0,1.4449102883439287,41.17204164345386,299000,149500.0,10066.845846652985
28.332643714904783,-18.293265060424805,-0.04606875266134739,0.007050470966557338,150000.0,0.0019641596642104558,0.0405736128911376,0.04056020003557205,0.04057384445518255,300.0,1000.0,1.7432049171999997,41.21138947580239,300000,150000.0,10091.110984802246
28.327576469421388,-18.28857833099365,-0.044833220355212686,0.007259720471370178,150500.0,0.0023935809446120403,0.03897532291710377,0.038981278792023656,0.038982698522508144,301.0,1000.0,2.261477126843122,14.31816312032769,301000,150500.0,10160.952347517014
28.322508102416993,-18.279485786437988,-0.0436879807561636,0.00704233307989972,151000.0,0.001708348753680184,0.03868711757659912,0.03867425581812858,0.038718768775463104,302.0,1000.0,0.5535517304701105,40.34118280200549,302000,151000.0,10185.74091386795
28.317438453674317,-18.274536811828614,-0.043678964905440806,0.007352471939565602,151500.0,0.0014888902866077843,0.03839182239025831,0.03839928344637156,0.03841411919146776,303.0,1000.0,0.20654626124596043,41.06280417889581,303000,151500.0,10210.093855381012
28.312368278503417,-18.271507843017577,-0.044895817942917346,0.007230929231485092,152000.0,0.001736942525858467,0.039346918225288394,0.039334112107753755,0.0393580809161067,304.0,1000.0,1.7558607707070104,41.31645285523673,304000,152000.0,10234.297290325165
28.307296394348146,-18.268028221130372,-0.04211501421779394,0.007219656564460031,152500.0,0.001737286841045716,0.03768195285648108,0.0376745320931077,0.03763963652402163,305.0,1000.0,1.7058333377273922,41.076524150795116,305000,152500.0,10258.642097949982
28.30222310638428,-18.261483489990233,-0.039759642511606214,0.006862224578942739,153000.0,0.0016594644556535058,0.0350677253678441,0.03506878724694252,0.03507924224436283,306.0,1000.0,1.520834912886043,41.35712125602945,306000,153000.0,10282.821732997894
28.297148818969728,-18.255475059509276,-0.042863057062029836,0.0075002826225806654,153500.0,0.0022594060163755787,0.03670227235555649,0.036719784304499625,0.03673136603087187,307.0,1000.0,0.6707951276265578,41.14767115273271,307000,153500.0,10307.124446630478
28.292073181152343,-18.253849159240723,-0.04219980408251286,0.006823854418151314,154000.0,0.0012745479568184238,0.03666014784574509,0.036646894410252574,0.036666670158505436,308.0,1000.0,0.07393313622356447,41.17897038141834,308000,154000.0,10331.408688545227
28.286996353149416,-18.25138790893555,-0.04095252941548824,0.007038433996827102,154500.0,0.0014515624094128725,0.036315357454121115,0.03630163995921612,0.03628217842429876,309.0,1000.0,2.4442014960256633,41.12831159052922,309000,154500.0,10355.722841978073
28.281918380737306,-18.249616821289063,-0.03851326678693295,0.006926706087460076,155000.0,0.0016789324007077085,0.03393282739818096,0.03393388906866312,0.033969446197152135,310.0,1000.0,1.5782521844375539,40.158664056191625,310000,155000.0,10380.624070644379
28.276838996887207,-18.247457984924317,-0.0380204391181469,0.007352545797661492,155500.0,0.0017635970754890876,0.0333355457559228,0.03333085671067238,0.033326629862189296,311.0,1000.0,2.661523556342026,14.251497492263118,311000,155500.0,10450.792136907578
28.271758544921877,-18.23575679779053,-0.03559428635984659,0.006524647338242211,156000.0,0.0013054145522473845,0.031221677921712397,0.031224123381078245,0.031221950732171537,312.0,1000.0,1.3972026770270531,41.07300290143967,312000,156000.0,10475.13903093338
28.26667684173584,-18.23607514190674,-0.03807959697395563,0.007243112230748636,156500.0,0.0024016332083847372,0.032483741886913775,0.032490255393087863,0.03247422209382057,313.0,1000.0,0.5390743375688607,40.99186156489915,313000,156500.0,10499.534118652344
28.261593856811523,-18.239348274230956,-0.03690461341291666,0.006919397207096099,157000.0,0.0011452070231098331,0.0317148904800415,0.03170776930451393,0.03167362580448389,314.0,1000.0,2.2632630336613104,40.9813687422131,314000,157000.0,10523.93545293808
28.256509635925294,-18.233835502624512,-0.03631181526184082,0.006790192328400771,157500.0,0.0014872297747642734,0.031278407402336596,0.03127513351291418,0.03134189212322235,315.0,1000.0,1.9791737045630455,41.13776536336849,315000,157500.0,10548.244018554688
28.251424209594727,-18.239011863708495,-0.03563428507745266,0.007165443345519071,158000.0,0.0011823396843901718,0.03081322529911995,0.03082222792506218,0.0307997642531991,316.0,1000.0,0.717221570599973,40.33432093649005,316000,158000.0,10573.036801576614
28.24633755493164,-18.243741676330565,-0.03347764686867595,0.0073217218831290115,158500.0,0.0014322401737517794,0.029097477205097675,0.029082181237637998,0.029077984482049943,317.0,1000.0,1.5492845364914736,40.52798905108572,317000,158500.0,10597.711108922958
28.24124967956543,-18.21885213470459,-0.03421442729979753,0.006957131014309198,159000.0,0.0011793483773763001,0.02920069108903408,0.02920270971953869,0.029178841181099414,318.0,1000.0,2.1896558146979244,41.02848391195476,318000,159000.0,10622.084421634674
28.23616056060791,-18.213455528259278,-0.03554948027431965,0.007255286030669026,159500.0,0.001601811879685556,0.03062705383077264,0.030615259636193513,0.030636333413422107,319.0,1000.0,2.155143158982678,41.10719708487399,319000,159500.0,10646.411063671112
28.23107021331787,-18.207531677246095,-0.03604193510860205,0.0066801744764019766,160000.0,0.001472174293929129,0.03128799268603325,0.031293765373528,0.031325132936239244,320.0,1000.0,1.9372333704313796,41.11525949107213,320000,160000.0,10670.73293542862
28.22597861480713,-18.203871070861815,-0.035978764057159426,0.007013720757626629,160500.0,0.0013141068378827185,0.031524905413389204,0.03152309840917587,0.03148942690342665,321.0,1000.0,0.08826241447031298,14.30973479620445,321000,160500.0,10740.61543393135
28.220885734558106,-18.192396560668946,-0.03583262374252081,0.007039012070544161,161000.0,0.0014083289171685465,0.030774560384452344,0.030789182372391224,0.030778704576194287,322.0,1000.0,1.7196487441857506,41.10456684894904,322000,161000.0,10764.943631887436
28.215791664123536,-18.187092231750487,-0.03830368360131979,0.007499019419245279,161500.0,0.0014323362220602575,0.03314017936587334,0.033143969386816026,0.033129197061061856,323.0,1000.0,2.070101586460455,40.386516202716294,323000,161500.0,10789.704373121262
28.210696418762208,-18.18112082672119,-0.037478576220572,0.006928827378523346,162000.0,0.0013677882203264745,0.031838636621832846,0.031844300001859664,0.03188675823807716,324.0,1000.0,2.7084354766300716,41.27508854409795,324000,162000.0,10813.93206334114
28.205599822998046,-18.168830528259278,-0.036720514208078384,0.007466771246048511,162500.0,0.0021316037722717736,0.031859774358570576,0.03185193105787039,0.03187277427315712,325.0,1000.0,1.56287704453869,41.051592356500876,325000,162500.0,10838.291656017303
28.200502159118653,-18.183598220825196,-0.036090409405529496,0.007091320019999546,163000.0,0.0014824672425238531,0.031170658349990846,0.03115260823071003,0.031158589556813242,326.0,1000.0,1.8115856746301815,40.95499781096073,326000,163000.0,10862.708702802658
28.19540306854248,-18.185732307434083,-0.03764804469048977,0.006712168051206547,163500.0,0.0011461179215984884,0.03151359160989523,0.031513579159975054,0.031488350845873356,327.0,1000.0,1.4387171072154972,41.67184918999681,327000,163500.0,10886.705721616745
28.19030288696289,-18.15339764404297,-0.04628250090777874,0.006874243729932071,164000.0,0.0012729895508964545,0.03851981301605702,0.03851571387052536,0.038573338232934476,328.0,1000.0,2.6935497954053345,40.03366058049277,328000,164000.0,10911.684703111649
28.185201347351075,-18.14621420288086,-0.04995955401659012,0.00683451086628059,164500.0,0.0011064461697606021,0.04314365789294243,0.04315747162699699,0.0431669659614563,329.0,1000.0,2.1782581195185906,40.050424738154476,329000,164500.0,10936.653228998184
28.180098625183106,-18.144267272949218,-0.05238690949976444,0.006896161692106304,165000.0,0.0011995664134483376,0.04631707386672497,0.04631813025474548,0.04632073225080967,330.0,1000.0,0.41265493911789813,39.8358248531868,330000,165000.0,10961.756263256073
28.174994636535644,-18.136541984558104,-0.052462688699364664,0.0077015465455090495,165500.0,0.0013997491972259012,0.04717353402078152,0.0471776509732008,0.047193931430578234,331.0,1000.0,1.797814306155745,13.965873535021869,331000,165500.0,11033.359376192093
28.169889450073242,-18.133300857543944,-0.05205074152350426,0.007324898095784556,166000.0,0.0014580644723318982,0.04662848934531212,0.04661754693090916,0.046639990240335466,332.0,1000.0,2.440528296990132,40.304852882046,332000,166000.0,11058.17028594017
28.16478298187256,-18.136108360290528,-0.054590532585978506,0.007308825925949218,166500.0,0.0011781302588351537,0.0478904977440834,0.047873887315392494,0.04791136494278908,333.0,1000.0,2.301383864841062,39.75047382466539,333000,166500.0,11083.32722067833
28.15967529296875,-18.127630180358885,-0.0561700589209795,0.00763361175607345,167000.0,0.001393584151242976,0.04992354397475719,0.0499306650608778,0.04993447880446911,334.0,1000.0,2.0794107949127434,39.48893200471464,334000,167000.0,11108.650773525238
28.154566398620606,-18.12363623046875,-0.055323605209589004,0.0070743121906146796,167500.0,0.00116133785272541,0.04969464328885079,0.04968037937581539,0.049704156711697575,335.0,1000.0,0.795444116280637,40.51204987724695,335000,167500.0,11133.334789276123
28.149456176757813,-18.112668266296385,-0.055059498757123945,0.0069564183629972545,168000.0,0.000890942537040246,0.04964899654686451,0.04966616766154766,0.049661777824163436,336.0,1000.0,1.5215658615412024,39.645134652067085,336000,168000.0,11158.558568239212
28.144344764709473,-18.11729866027832,-0.05116950635612011,0.006406352345195444,168500.0,0.0010192509221233195,0.04729078800976277,0.047301342308521274,0.04728080597519874,337.0,1000.0,1.9158656734155548,40.20726502780926,337000,168500.0,11183.42969918251
28.139232093811035,-18.11648363494873,-0.052031222000718115,0.00772358794120584,169000.0,0.0011312585216437584,0.04708185425400734,0.047065825924277306,0.04707839249074459,338.0,1000.0,0.25917990768726534,39.8120664949626,338000,169000.0,11208.547713756561
28.134118217468263,-18.10924528503418,-0.05219899286329746,0.007770845972055795,169500.0,0.0013378007156425156,0.04723154231905937,0.04722816416621208,0.04727207262814045,339.0,1000.0,0.3712814771767917,41.39505434039457,339000,169500.0,11232.705189943314
28.129003005981446,-18.09362104034424,-0.05218667930364609,0.007230028202416179,170000.0,0.0018429378880828154,0.046266983658075335,0.04627290240675211,0.046274704694747926,340.0,1000.0,1.5026682092193375,40.49647239401374,340000,170000.0,11257.39870095253
28.123886703491213,-18.08922901916504,-0.051947133868932724,0.006645547057952079,170500.0,0.0012414462089072912,0.04653115464746952,0.04651770646870136,0.046560745388269424,341.0,1000.0,1.7579618336205098,14.221589968308939,341000,170500.0,11327.71432852745
28.118768981933595,-18.08303310394287,-0.05432835827767849,0.007402966264544901,171000.0,0.001325616019887093,0.048049758419394496,0.04806923304498196,0.04804080466926098,342.0,1000.0,1.0286169773438893,40.15098432854289,342000,171000.0,11352.620319604874
28.11365013885498,-18.078908447265626,-0.04999986127018929,0.006850551070058522,171500.0,0.0009368377948849229,0.045520972296595574,0.04551201377809048,0.045491322606801984,343.0,1000.0,3.2187564919152076,39.50741535007669,343000,171500.0,11377.932025671005
28.10852989959717,-18.078522521972655,-0.04841665109992027,0.0068159273932257205,172000.0,0.0010293678200687282,0.04387645079195499,0.0438754251152277,0.04387776455283165,344.0,1000.0,1.8182252484273862,39.76510556581156,344000,172000.0,11403.079703569412
28.10340855407715,-18.07569420623779,-0.047553737215697764,0.007272538722262653,172500.0,0.001214438069764583,0.043057712160050866,0.04308941221237183,0.04310956552624703,345.0,1000.0,2.6288554803351283,40.23909307005634,345000,172500.0,11427.931159973145
28.098285934448242,-18.070231994628905,-0.0481298146545887,0.0076452944050304904,173000.0,0.0012829809437171207,0.043202751263976095,0.0431849592551589,0.04320091513544321,346.0,1000.0,0.9855499891872929,39.75865496644969,346000,173000.0,11453.082917690277
28.093162033081054,-18.064364654541016,-0.0457952348664403,0.007359658026787941,173500.0,0.0016746222076217236,0.041297532804310325,0.04131127707660198,0.041315523140132426,347.0,1000.0,1.4589461707473383,40.08788646404171,347000,173500.0,11478.02811050415
28.08803680419922,-18.058847068786623,-0.04372379612922669,0.007610472044944327,174000.0,0.0013619186669529882,0.0391050091907382,0.03909591477364302,0.039106879249215125,348.0,1000.0,1.7079406972825493,40.27024928261936,348000,174000.0,11502.860340356827
28.08291052246094,-18.054308250427248,-0.04084251742064953,0.006785132313895382,174500.0,0.0019837721084950315,0.036656501412391664,0.036659607775509355,0.03665449325740337,349.0,1000.0,1.4824095277227045,39.89294893394487,349000,174500.0,11527.927428483963
28.077782791137697,-18.052583335876466,-0.040659207589924334,0.007697048689065273,175000.0,0.001876202141153044,0.03604164483398199,0.036056984685361386,0.03602198906987906,350.0,1000.0,3.2410654192749457,39.834123131152644,350000,175000.0,11553.03153514862
28.07265404510498,-18.047367889404295,-0.038622600577771664,0.007020665234083257,175500.0,0.0012290230081307527,0.033953548133373264,0.03394457584619522,0.03395191302150488,351.0,1000.0,2.5088567310708263,14.100466469060185,351000,175500.0,11623.951175928116
28.06752374267578,-18.04138692474365,-0.039800103075802326,0.007535960488165685,176000.0,0.0016716158368544711,0.03450487362593412,0.03449580966681242,0.03453064974397421,352.0,1000.0,1.945333857067093,40.73671150225879,352000,176000.0,11648.499059915543
28.06239241027832,-18.034925018310545,-0.03710199101269245,0.006913129416943114,176500.0,0.0013681601939024403,0.03221228846907616,0.032237084321677684,0.03222165347635746,353.0,1000.0,0.515822568828129,41.40146086617582,353000,176500.0,11672.652798891068
28.057259742736818,-18.045417808532715,-0.03845380428433418,0.007141006500347302,177000.0,0.0015876734455086989,0.03342924953252077,0.03342352888733149,0.033446639984846115,354.0,1000.0,0.19545650365832035,39.70389741332237,354000,177000.0,11697.839244365692
28.052125801086426,-18.03578887939453,-0.039592887572944165,0.006948910607000961,177500.0,0.0011870906095355167,0.0337468378841877,0.03374876979738474,0.03374120156466961,355.0,1000.0,2.064383479315732,40.30254660386485,355000,177500.0,11722.651574373245
28.0469906539917,-18.025376220703127,-0.05056271880120039,0.007518169592301957,178000.0,0.0012915725446946452,0.04137387339025736,0.041367651730775834,0.04139139724522829,356.0,1000.0,0.9883626295148624,40.34705184374298,356000,178000.0,11747.436534643173
28.04185422515869,-18.007311309814455,-0.0707623348236084,0.0069199741314996625,178500.0,0.0012556840282632038,0.0573840903043747,0.057373101860284804,0.05742476534843445,357.0,1000.0,1.398997407015259,40.24417057129483,357000,178500.0,11772.284855127335
28.036716499328612,-18.001965431213378,-0.08561717234551906,0.007370799248576574,179000.0,0.0015583151798928157,0.07358670595288276,0.07358239288628102,0.07362288448214531,358.0,1000.0,1.173072771250734,40.280017835244635,358000,179000.0,11797.111062288284
28.031577583312988,-17.997810844421387,-0.09116028055548668,0.007219010636641986,179500.0,0.0016153730151127093,0.08172283959388733,0.08173504650592804,0.08178736659884453,359.0,1000.0,1.77736444454021,39.86249026877831,359000,179500.0,11822.197319030762
28.02643733215332,-17.990795524597168,-0.09749795043468476,0.007544796281474468,180000.0,0.0011135503915138544,0.08922400885820389,0.08921108135581017,0.08927693128585816,360.0,1000.0,0.8772249814895848,40.21307087599954,360000,180000.0,11847.064857006073
28.021295967102052,-17.985911003112793,-0.09611967194080352,0.007976924487440537,180500.0,0.0017385245404293527,0.08938850864768028,0.08940156561136246,0.08943246713280678,361.0,1000.0,1.224243990045909,14.014867085670796,361000,180500.0,11918.417657613754
28.016153228759766,-17.980567825317383,-0.09580545955896377,0.007264306656313543,181000.0,0.0016192876235145376,0.08950092738866806,0.08949941724538803,0.08954452446103096,362.0,1000.0,1.6328303023895776,39.6558927316452,362000,181000.0,11943.63459277153
28.01100923156738,-17.975735443115234,-0.08706023719906807,0.007200799005275678,181500.0,0.0013438206505961717,0.0818138584792614,0.08181690773367882,0.08180058288574218,363.0,1000.0,1.3129869511263181,40.181844058534246,363000,181500.0,11968.521456480026
28.00586399078369,-17.971183631896974,-0.08486529326438903,0.007540217884421466,182000.0,0.001516727818219806,0.07910991278290748,0.0791015194952488,0.0791356660425663,364.0,1000.0,1.7988092120170818,40.95027430985141,364000,182000.0,11992.9413189888
28.000717529296875,-17.966815216064454,-0.08152544163167477,0.007078088896042356,182500.0,0.0011219109956582542,0.07567502473294735,0.07567976458370686,0.07566579283773898,365.0,1000.0,0.7380606549699182,40.58307439228542,365000,182500.0,12017.582136392593
27.99556974029541,-17.961379837036134,-0.0774380443841219,0.006794577754063972,183000.0,0.0012152151316186064,0.07250472813844681,0.07247912135720253,0.07252442337572575,366.0,1000.0,0.9485789263261786,41.153927837588974,366000,183000.0,12041.881155014038
27.990420738220216,-17.95672071838379,-0.07748757173120975,0.007163087899234427,183500.0,0.0010658612961269682,0.07079491198062897,0.07080645446479321,0.07079813052713871,367.0,1000.0,0.5298723443522958,40.67638864692362,367000,183500.0,12066.465443134308
27.985270500183105,-17.95171964263916,-0.07547894749045372,0.007553880953725355,184000.0,0.0011056756809557555,0.07000200122594834,0.07000295060873031,0.07003318734467029,368.0,1000.0,1.8087273700470556,39.838488956800006,368000,184000.0,12091.566798686981
27.980118896484374,-17.9468408203125,-0.06809799417853356,0.007115591173487701,184500.0,0.0009783300662093096,0.06392925354838372,0.06394752684235573,0.06393287269771099,369.0,1000.0,0.8805856560641329,40.21625726866472,369000,184500.0,12116.432366132736
27.97496615600586,-17.94269310760498,-0.06631364798545837,0.007304178068399807,185000.0,0.0009338531960092951,0.061097637683153155,0.06110244770348072,0.06112418769299984,370.0,1000.0,2.0413977956589107,40.166624056165915,370000,185000.0,12141.328659534454
27.96981199645996,-17.94022904205322,-0.06765404137969017,0.007503561321867281,185500.0,0.0012079538874386344,0.061381461933255194,0.061370178669691085,0.061389075741171834,371.0,1000.0,2.9371667446455216,13.96410982493728,371000,185500.0,12212.940816164017
27.964656646728514,-17.93802763366699,-0.06561846777796745,0.006478601322953157,186000.0,0.0011168302035948728,0.0591731780320406,0.059182935431599616,0.0591972224265337,372.0,1000.0,1.3402996671257184,39.76094426933981,372000,186000.0,12238.0911257267
27.959500091552734,-17.931672973632814,-0.07153400176763534,0.007169457557482595,186500.0,0.0014216975419258234,0.06408021228015423,0.06407706232368945,0.06409340222179889,373.0,1000.0,0.49261123215156505,39.61740409046781,373000,186500.0,12263.332558870316
27.954342224121095,-17.92514846801758,-0.07420039045810699,0.007012757225703126,187000.0,0.001948931970167905,0.06714309027791024,0.06713886572420596,0.06720697237551213,374.0,1000.0,2.380049944258499,40.470601739274144,374000,187000.0,12288.041855096817
27.94918305206299,-17.92122981262207,-0.07654277572035789,0.007704152195817453,187500.0,0.0015591071270755492,0.06858645199239254,0.06858194550871849,0.06858951181173324,375.0,1000.0,2.2292564616045616,39.706376252142924,375000,187500.0,12313.226728439331
27.944022689819334,-17.917102409362794,-0.07428684701025486,0.007117960129799325,188000.0,0.0012026599234086462,0.06773201750218868,0.06772830994427204,0.06774335242807865,376.0,1000.0,1.3845548251470254,39.916255788543914,376000,188000.0,12338.279180049896
27.938861015319823,-17.911483612060547,-0.07407226565480232,0.007026706939808697,188500.0,0.00159405918061384,0.06781774479150772,0.06782002010941506,0.06786271250247955,377.0,1000.0,1.3471580423031209,41.045408118948764,377000,188500.0,12362.642443180084
27.93369808959961,-17.905359001159667,-0.07362549667060375,0.006911450544338404,189000.0,0.001264534585934598,0.06742098534107208,0.06740849421918392,0.06741464628279209,378.0,1000.0,1.7166368156316185,40.40317870017117,378000,189000.0,12387.392972946167
27.92853379058838,-17.901160667419433,-0.07027735862135887,0.007573916224393426,189500.0,0.0018717787824280095,0.06441176074743271,0.06440555228292942,0.06442493577301502,379.0,1000.0,2.1857326722985113,41.04069707219432,379000,189500.0,12411.75903248787
27.92336833190918,-17.89635722351074,-0.06752479438483715,0.007388106454472222,190000.0,0.001568957153824158,0.06139634998142719,0.061399653702974316,0.06142501612007618,380.0,1000.0,0.7839539765329109,40.84884447004536,380000,190000.0,12436.239533185959
27.918201629638673,-17.891266593933107,-0.06414087736606598,0.007021827888215947,190500.0,0.0015433631439227611,0.05902517315745354,0.05901542477309704,0.05904414676129818,381.0,1000.0,0.7383751517521219,13.531943911621996,381000,190500.0,12510.138747215271
27.913033569335937,-17.88523053741455,-0.0662245820760727,0.007897600150037988,191000.0,0.001398110749112675,0.0599089125841856,0.05993141148984432,0.05992143300175667,382.0,1000.0,1.1376200093331714,40.13207144690279,382000,191000.0,12535.056476354599
27.907864234924315,-17.881281272888184,-0.061167430952191355,0.0066951342724952375,191500.0,0.0009176479172019753,0.056419099599123,0.0564186170399189,0.05640085946023464,383.0,1000.0,0.7942185677671835,40.27914478035388,383000,191500.0,12559.883221626282
27.90269371032715,-17.876314765930175,-0.06124416816234589,0.007829197224960243,192000.0,0.001292387688648887,0.05571888118982315,0.05573187971115112,0.05575948099792004,384.0,1000.0,1.3578997190887052,40.72568848976507,384000,192000.0,12584.43775010109
27.897521881103515,-17.871378852844238,-0.05722006078064441,0.007171103172550309,192500.0,0.0012316097461589379,0.05209004387259483,0.05208039915561676,0.05202664713561535,385.0,1000.0,2.0381913386636525,40.57624187120349,385000,192500.0,12609.082715272903
27.89234873199463,-17.866520751953125,-0.05317141309380531,0.006705465936578936,193000.0,0.0009817717924452153,0.048849509850144385,0.04884618401527405,0.048886804074048995,386.0,1000.0,2.367983257236655,39.685399905456435,386000,193000.0,12634.280900716782
27.887174362182616,-17.861704582214355,-0.05351051008701325,0.006999190323326594,193500.0,0.0012229335981683107,0.04820005574822426,0.04820052126049995,0.048187008425593376,387.0,1000.0,0.04170917521943767,40.50964940126123,387000,193500.0,12658.96637916565
27.881998664855956,-17.857477569580077,-0.05159309858083725,0.006967559480689329,194000.0,0.0009702946054385393,0.04703883865475655,0.0470284208804369,0.04703759083151817,388.0,1000.0,1.317944307198625,40.11620959404975,388000,194000.0,12683.893960237503
27.876821731567382,-17.850131553649902,-0.0506145483404398,0.0075357750079253025,194500.0,0.0010247720211336855,0.04529291525483131,0.045297784626483914,0.0453122112005949,389.0,1000.0,1.6413568913182124,40.43853131690488,389000,194500.0,12708.622851848602
27.87164350128174,-17.8449977645874,-0.04808913405239582,0.006745921076269724,195000.0,0.0012938878103013849,0.04329314448684454,0.04330661332607269,0.043303035646677014,390.0,1000.0,1.5635763706053176,40.97632530413509,390000,195000.0,12733.027189016342
27.866463973999025,-17.841217323303223,-0.04788311067968607,0.007762430616223554,195500.0,0.0011203434255439787,0.04309953787922859,0.04310059994459152,0.043109948933124545,391.0,1000.0,1.890467926973303,14.379156059979374,391000,195500.0,12802.572301387787
27.861283233642578,-17.83509216308594,-0.04592580050230026,0.007431034513832635,196000.0,0.001446590297491639,0.04068095014244318,0.04068068994581699,0.04067885106056929,392.0,1000.0,1.3923311510316077,40.43811142061496,392000,196000.0,12827.301449775696
27.856101196289064,-17.83031339263916,-0.045533509500324726,0.007736361646101365,196500.0,0.0016594917642360088,0.04038717746734619,0.04039230216294527,0.040411175191402436,393.0,1000.0,0.7881295225888758,39.928686480077594,393000,196500.0,12852.346102237701
27.850917793273926,-17.82701502227783,-0.0455321773737669,0.007072238097779861,197000.0,0.00210991677333368,0.04128549995273351,0.041282979160547253,0.04127959276735783,394.0,1000.0,1.274237329922286,40.55149007078236,394000,197000.0,12877.006109714508
27.845733238220216,-17.820240531921385,-0.03901781596988439,0.006699409264015996,197500.0,0.0009209160099126165,0.03462332221865654,0.034620197087526325,0.034623694330453876,395.0,1000.0,3.3276815826603636,40.24508883584185,395000,197500.0,12901.853863716125
