cmpe-260-team-4/drqv2/src/main/tex/others/190918-walker-stand-train.csv
actor_ent,actor_logprob,actor_loss,batch_reward,buffer_size,critic_loss,critic_q1,critic_q2,critic_target_q,episode,episode_length,episode_reward,fps,frame,step,total_time
8.390933879852295,-5.527773538589478,-0.950858799815178,0.2837156480550766,2500.0,0.028581522773951294,0.8664141716361046,0.8663647340238094,0.8689738278388977,5.0,1000.0,139.0726023042814,2.4189489880080526,5000,2500.0,413.40268540382385
8.363312587738037,-5.483595132827759,-1.8367295327186584,0.28050191211700437,3000.0,0.028485751774162054,1.7068156433105468,1.7068382558822632,1.7080494627952576,6.0,1000.0,142.52679378082266,6.136711731914438,6000,3000.0,576.3564052581787
8.335563495635986,-5.455375150680542,-2.9039621505737303,0.2814527072906494,3500.0,0.055056053832173345,2.6880009117126464,2.688036425590515,2.6895016078948975,7.0,1000.0,265.6899716314312,7.510053063864705,7000,3500.0,709.5112574100494
8.307685493469238,-5.428610509872437,-4.0196487312316895,0.31264713394641874,4000.0,0.09703417153656482,3.8437209815979005,3.843777897834778,3.8458496046066286,8.0,1000.0,264.5401909637039,7.823369141423481,8000,4000.0,837.3334255218506
8.279677364349364,-5.401822984695435,-5.1237784805297855,0.3419407161474228,4500.0,0.08254641371965409,4.99356356048584,4.993559503555298,4.994280596733093,9.0,1000.0,38.02469233114772,7.848082170836998,9000,4500.0,964.7530915737152
8.251537845611573,-5.37481623840332,-6.006484493255615,0.3284244083762169,5000.0,0.10678899122774602,5.925084482192993,5.9251686954498295,5.926862632751464,10.0,1000.0,275.9415793020073,7.551542799805704,10000,5000.0,1097.1763632297516
8.223265785217285,-5.347411827087402,-6.973177049636841,0.34734761583805085,5500.0,0.1129678591489792,6.905608114242554,6.90548547744751,6.90651533126831,11.0,1000.0,257.54137569754096,5.808939936047681,11000,5500.0,1269.3248131275177
8.194859832763672,-5.320104066848755,-7.870020622253418,0.35896826261281967,6000.0,0.11478657394647598,7.81955429649353,7.819862102508545,7.820616903305054,12.0,1000.0,265.49673089705,10.540191260450044,12000,6000.0,1364.1997530460358
8.166318798065186,-5.292444314956665,-8.743184139251708,0.36741304004192354,6500.0,0.11334933684766292,8.698687309265138,8.698696586608886,8.699853952407837,13.0,1000.0,264.8344368425398,10.441909670225822,13000,6500.0,1459.9676775932312
8.137641296386718,-5.264752088546753,-9.866145877838134,0.38840565502643587,7000.0,0.10654845996201039,9.817719806671143,9.819319519042969,9.819239404678346,14.0,1000.0,253.24755433853244,10.44797674661175,14000,7000.0,1555.6799895763397
8.10882611465454,-5.237228406906128,-10.838609596252441,0.39668167698383333,7500.0,0.1245208157747984,10.806091606140138,10.80474231338501,10.80606767654419,15.0,1000.0,254.25872877025745,10.612574508049521,15000,7500.0,1649.9078333377838
8.079871807098389,-5.209061841964722,-11.710350334167481,0.40073949217796323,8000.0,0.1452297089099884,11.694857780456543,11.69358249282837,11.695823364257812,16.0,1000.0,35.33558868167875,8.078476172223757,16000,8000.0,1773.693555355072
8.050777179718018,-5.181570087432862,-12.013399063110352,0.37860019207000734,8500.0,0.15144633823633194,11.955595443725587,11.957119297027587,11.956496173858643,17.0,1000.0,26.804016226247516,7.9010142409453055,17000,8500.0,1900.2595858573914
8.021540733337403,-5.1530438251495365,-12.436448669433593,0.3675245679616928,9000.0,0.1585632320344448,12.397915237426758,12.398480251312256,12.398823066711426,18.0,1000.0,263.8704222123747,7.747548274496317,18000,9000.0,2029.3326768875122
7.9921611900329586,-5.124974710464477,-13.185701271057129,0.3715149804353714,9500.0,0.171630370169878,13.192295860290526,13.19236128616333,13.19350110244751,19.0,1000.0,52.93271006798658,7.98949740299485,19000,9500.0,2154.4969968795776
7.962636985778809,-5.096301431655884,-13.332623760223388,0.354633007645607,10000.0,0.16887181201577187,13.297706428527832,13.297704162597656,13.298309684753418,20.0,1000.0,260.37130923077683,7.62811349194748,20000,10000.0,2285.5910091400146
7.932966854095459,-5.068387395858765,-14.117709880828857,0.3629756448864937,10500.0,0.17664805233478545,14.09065057373047,14.090820335388184,14.090521289825439,21.0,1000.0,28.400786942903633,5.83890645492616,21000,10500.0,2456.8559563159943
7.903149227142334,-5.040013603210449,-14.452879493713379,0.3558022475242615,11000.0,0.17337540462613105,14.428432312011719,14.42818045425415,14.429222522735596,22.0,1000.0,27.504109475742307,8.346439201756573,22000,11000.0,2576.66752910614
7.8731827068328855,-5.0107730236053465,-14.449948699951172,0.33990163880586627,11500.0,0.17170911014080048,14.421978385925293,14.422015293121337,14.422284912109374,23.0,1000.0,262.66100190856025,8.64988327762575,23000,11500.0,2692.276026248932
7.8430657482147215,-4.981700717926025,-15.146741451263427,0.3453827636241913,12000.0,0.17397101670503617,15.117597526550293,15.117656036376953,15.117824523925782,24.0,1000.0,274.8995224367601,10.988039751636848,24000,12000.0,2783.284070968628
7.812796878814697,-4.953017129898071,-15.798578018188477,0.3511842371225357,12500.0,0.1932138868868351,15.771162128448486,15.771154304504394,15.771744598388672,25.0,1000.0,30.989547639563266,11.38836719219131,25000,12500.0,2871.0929720401764
7.782374513626099,-4.923513763427734,-16.09018072128296,0.3459770115017891,13000.0,0.18975934439897538,16.064450634002686,16.06443918991089,16.06487394332886,26.0,1000.0,26.669814098539845,12.317204741983335,26000,13000.0,2952.280224084854
7.751797136306763,-4.89485305595398,-16.10899719619751,0.33492927068471906,13500.0,0.20090053349733353,16.087842811584473,16.087884452819825,16.08797110748291,27.0,1000.0,28.384611127164973,11.43697766399631,27000,13500.0,3039.7159123420715
7.7210631160736085,-4.865192939758301,-15.98159460067749,0.32316464018821717,14000.0,0.20197666612267495,15.965602016448974,15.965640079498291,15.965997768402099,28.0,1000.0,26.887617714952373,11.248521361782034,28000,14000.0,3128.616487264633
7.690170846939087,-4.835680980682373,-15.759896675109863,0.3088157516717911,14500.0,0.19886651700735092,15.744311065673829,15.744333076477051,15.74504935836792,29.0,1000.0,258.0577369183538,10.645990811581841,29000,14500.0,3222.5485620498657
7.6591187152862545,-4.8059986915588375,-16.616821388244627,0.3197230101823807,15000.0,0.21307989567518235,16.596280181884765,16.59636719894409,16.59627663421631,30.0,1000.0,31.266415777423816,11.291767857605718,30000,15000.0,3311.1086547374725
7.627904985427857,-4.775875085830688,-16.60611178588867,0.312365325152874,15500.0,0.21225123298168183,16.593609996795653,16.593634159088136,16.59424199295044,31.0,1000.0,269.06187645230494,6.8552617553673105,31000,15500.0,3456.9820058345795
7.596528076171875,-4.745866064071655,-17.21257660675049,0.31755182331800463,16000.0,0.2200438134074211,17.20691767501831,17.207002410888673,17.207044090270998,32.0,1000.0,258.0580368346974,10.625092630337093,32000,16000.0,3551.0988330841064
7.564986186981201,-4.71617977142334,-17.761883296966552,0.3210852073431015,16500.0,0.21831285130977632,17.756080417633058,17.756067962646483,17.75606036758423,33.0,1000.0,264.5995537141652,11.55492174304959,33000,16500.0,3637.64204287529
7.533277669906616,-4.686114019393921,-18.497622379302978,0.3311223347187042,17000.0,0.23856719481945038,18.48670381164551,18.486753627777098,18.487328205108643,34.0,1000.0,41.072103852772614,11.459363353044496,34000,17000.0,3724.906926870346
7.501400592803955,-4.655325605392456,-18.482098323822022,0.32491336691379546,17500.0,0.27702639505267146,18.474990840911865,18.475019538879394,18.475390602111815,35.0,1000.0,265.64238594446806,12.316885755330382,35000,17500.0,3806.096282482147
7.469353361129761,-4.624390775680542,-19.046754913330076,0.32862437683343887,18000.0,0.268261649876833,19.036172828674317,19.03620376586914,19.036228130340575,36.0,1000.0,30.951295667010598,10.869798260774331,36000,18000.0,3898.094310760498
7.437133922576904,-4.5946195011138915,-18.822570709228515,0.32005519342422484,18500.0,0.2620755714178085,18.817489780426026,18.817478843688964,18.81772929763794,37.0,1000.0,265.0207562214687,10.407881362444492,37000,18500.0,3994.175346136093
7.40474063873291,-4.563323816299438,-19.475432151794433,0.3263091814517975,19000.0,0.2650085609257221,19.472922931671143,19.4730030708313,19.473507221221922,38.0,1000.0,266.839707821677,11.544017008911963,38000,19000.0,4080.8003056049347
7.372171417236328,-4.5322810001373295,-20.211751373291015,0.33330601739883425,19500.0,0.2774597181677818,20.211882606506347,20.211883750915526,20.21191492462158,39.0,1000.0,28.212465961480373,11.506099881311963,39000,19500.0,4167.710728645325
7.339424520492554,-4.501047382354736,-19.959938011169434,0.325400593996048,20000.0,0.3040487904846668,19.96432011413574,19.96443086242676,19.96456108093262,40.0,1000.0,265.73673631525946,12.339626454447535,40000,20000.0,4248.750460386276
7.306497880935669,-4.4698136615753175,-20.43176685333252,0.3287443885803223,20500.0,0.29898781988024714,20.43381679534912,20.433777626037596,20.434131858825683,41.0,1000.0,26.40288264551316,7.497630552226715,41000,20500.0,4382.125931739807
7.273389570236206,-4.437712509155274,-20.44447271347046,0.3243359027504921,21000.0,0.3315911392569542,20.44217653656006,20.442295906066896,20.442345378875732,42.0,1000.0,26.130140690893857,12.181467688091667,42000,21000.0,4464.217847585678
7.240097522735596,-4.406301708221435,-20.323980155944824,0.3181082249879837,21500.0,0.30434380140900613,20.328366165161132,20.328177364349365,20.32839351272583,43.0,1000.0,265.6054710340324,12.137058795777124,43000,21500.0,4546.610132694244
7.2066197662353515,-4.3741896476745605,-20.87388925933838,0.3228435564041138,22000.0,0.3275312325954437,20.880673416137697,20.88091478729248,20.881178245544433,44.0,1000.0,26.471308721697454,12.243727673145427,44000,22000.0,4628.284606456757
7.1729541015625,-4.342234424591064,-20.68142413330078,0.31581614512205125,22500.0,0.34325008681416513,20.689736328125,20.68966796875,20.689552429199217,45.0,1000.0,28.50789395028443,11.575218557831475,45000,22500.0,4714.676064968109
7.139098495483398,-4.3100103130340575,-20.592827392578126,0.3113821498155594,23000.0,0.37345425695180895,20.59624606323242,20.59639726257324,20.596878898620606,46.0,1000.0,265.83330062844084,12.20257871956962,46000,23000.0,4796.625956773758
7.105050792694092,-4.277839462280274,-21.074940299987794,0.3152997589707375,23500.0,0.4139282846450806,21.08097438430786,21.081029773712157,21.08071883392334,47.0,1000.0,265.3984123514146,12.20701780938841,47000,23500.0,4878.5460476875305
7.070808740615845,-4.245435056686401,-21.508314727783205,0.31873823457956313,24000.0,0.4279309303164482,21.515424224853515,21.515494380950926,21.515828952789306,48.0,1000.0,28.23440758278995,11.518494668994581,48000,24000.0,4965.362948417664
7.036370218276978,-4.21303758430481,-21.34296378326416,0.3130589417815208,24500.0,0.43089883083105085,21.35418151473999,21.354220821380615,21.354200771331787,49.0,1000.0,264.87499881066617,11.793138885822257,49000,24500.0,5050.158015966415
7.001732805252075,-4.179876560211182,-21.821750381469727,0.316557505428791,25000.0,0.4204096726179123,21.82460218048096,21.82465284729004,21.824418212890624,50.0,1000.0,25.77165655001525,12.334673573657724,50000,25000.0,5131.230288028717
6.966894342422485,-4.1468132152557375,-21.81283293914795,0.31363055646419524,25500.0,0.42930633383989336,21.817281143188477,21.8172799987793,21.816824897766114,51.0,1000.0,26.193083636151123,7.2922934041290794,51000,25500.0,5268.361359119415
6.931852336883545,-4.113468212127685,-21.552347290039062,0.3075150691866875,26000.0,0.43648743790388106,21.557819961547853,21.557979545593263,21.557947761535644,52.0,1000.0,266.07019152599327,12.174717428787586,52000,26000.0,5350.498789548874
6.8966044960021975,-4.080353755950927,-22.006777770996095,0.31175674802064895,26500.0,0.4676530044078827,22.009268028259278,22.009267112731933,22.009789924621582,53.0,1000.0,255.34666945153793,11.981664799473549,53000,26500.0,5433.959646701813
6.861148376464843,-4.046972345352173,-22.601308006286622,0.3163294320106506,27000.0,0.42467916443943976,22.605490852355956,22.60555992126465,22.605165603637694,54.0,1000.0,135.93599528181994,12.213394942154446,54000,27000.0,5515.836963415146
6.825481544494629,-4.013611243247986,-22.925055633544922,0.3152213171720505,27500.0,0.5426669160723686,22.93506982421875,22.93505554962158,22.93491717529297,55.0,1000.0,26.928398553000967,12.246126117769986,55000,27500.0,5597.495440483093
6.789601314544678,-3.9791860971450808,-22.65463098144531,0.308931187748909,28000.0,0.3980746140182018,22.66175157928467,22.661827743530274,22.662433769226073,56.0,1000.0,265.76315870332616,12.296006585514743,56000,28000.0,5678.822658538818
6.753505270004273,-3.9453235454559326,-23.07705884552002,0.31326517367362977,28500.0,0.3849103832244873,23.08487186431885,23.0849107131958,23.08496361541748,57.0,1000.0,264.97646609304263,12.284203473345482,57000,28500.0,5760.2280189991
6.717190750122071,-3.9109724035263063,-23.507139213562013,0.31783826649188995,29000.0,0.33559796172380446,23.507278526306152,23.507234184265137,23.50765348815918,58.0,1000.0,265.1447760722136,11.593707786251594,58000,29000.0,5846.481702804565
6.680655157089233,-3.8764639539718626,-23.97135234832764,0.3212609888315201,29500.0,0.34268591296672823,23.98271881866455,23.982837226867677,23.9830712890625,59.0,1000.0,266.12140918454236,12.04891800313926,59000,29500.0,5929.476707458496
6.643895654678345,-3.8415765352249145,-24.365421646118165,0.324950644493103,30000.0,0.3533045050799847,24.370689544677735,24.370676025390626,24.370823417663573,60.0,1000.0,27.995814120292746,12.26787357101843,60000,30000.0,6010.990427494049
6.606909587860107,-3.806916234970093,-24.25499114227295,0.32042137229442597,30500.0,0.33794089111685754,24.26078192901611,24.26077355194092,24.260842346191406,61.0,1000.0,264.9772392366024,7.502435127528647,61000,30500.0,6144.280484199524
6.569694082260132,-3.771729953765869,-24.553007469177246,0.32329433465003965,31000.0,0.3303118672668934,24.56252001953125,24.56255298614502,24.562820640563963,62.0,1000.0,26.174699291736957,12.227924956990284,62000,31000.0,6226.060509443283
6.532246337890625,-3.7366293020248413,-24.459701202392576,0.319764300942421,31500.0,0.3447395968735218,24.46884880065918,24.46882942199707,24.46911135864258,63.0,1000.0,25.276432952056545,12.074712432877893,63000,31500.0,6308.878217220306
6.494563331604004,-3.7007539548873902,-24.297919883728028,0.31689965903759004,32000.0,0.3540283006727695,24.30443327331543,24.304435829162596,24.304671058654787,64.0,1000.0,255.7686847720117,11.461749363083495,64000,32000.0,6396.124934911728
6.456642221450806,-3.6649814558029177,-24.56711595916748,0.31741371417045594,32500.0,0.5135168357789517,24.561791557312013,24.561807289123536,24.56195743560791,65.0,1000.0,261.6027965772499,11.919905450682831,65000,32500.0,6480.018218755722
6.418479885101318,-3.6292398376464843,-25.034896377563477,0.3221971080303192,33000.0,0.28734784001111985,25.033500755310058,25.03347673034668,25.03387184906006,66.0,1000.0,25.51074051582568,11.94773459753878,66000,33000.0,6563.716095685959
6.380073278427124,-3.5931171941757203,-24.928192710876466,0.3178128129839897,33500.0,0.275761205881834,24.92427407836914,24.924202545166015,24.924267684936524,67.0,1000.0,135.68514652721112,12.121984707950098,67000,33500.0,6646.210837841034
6.3414192924499515,-3.5572233171463012,-25.0450931930542,0.31682010543346406,34000.0,0.3274139566719532,25.047610054016115,25.047643501281737,25.048320404052735,68.0,1000.0,265.151512746422,12.490609902680573,68000,34000.0,6726.270980834961
6.302514602661133,-3.5205969858169555,-25.404960960388184,0.3190670226216316,34500.0,0.31271356576681136,25.414552474975586,25.414576606750487,25.41474726867676,69.0,1000.0,26.68723898715729,12.447136481900815,69000,34500.0,6806.610744714737
6.263356014251709,-3.4836911497116088,-25.219478645324706,0.31498678284883497,35000.0,0.29680132648348806,25.22924439239502,25.22923575592041,25.22921647644043,70.0,1000.0,25.691381755227596,12.06891758282362,70000,35000.0,6889.468217372894
6.2239401798248295,-3.4474993953704836,-25.13156475830078,0.31242789220809936,35500.0,0.31310374093055726,25.137496269226073,25.137462112426757,25.13795223236084,71.0,1000.0,270.6653779732893,7.5436842127555765,71000,35500.0,7022.029440641403
6.184263748168945,-3.410245492935181,-25.45164562988281,0.3161083937883377,36000.0,0.321807499229908,25.460116233825683,25.460138610839845,25.46024270629883,72.0,1000.0,25.428907489609042,12.115448505067357,72000,36000.0,7104.568688631058
6.144323114395141,-3.372364378929138,-25.072431106567382,0.3096682003736496,36500.0,0.3203684787154198,25.089621353149415,25.089659858703612,25.089612907409666,73.0,1000.0,33.47955571640693,12.164739364711297,73000,36500.0,7186.773491859436
6.10411491394043,-3.3439468050003054,-28.745075660705567,0.30819670563936236,37000.0,2.2322478604316713,27.27068250274658,27.270497665405273,27.27635311126709,74.0,1000.0,223.65399494314053,12.20780254597477,74000,37000.0,7268.688317060471
6.0636353664398195,-3.302626993179321,-36.228944198608396,0.3107466411590576,37500.0,2.1168508293628694,34.5605873336792,34.56043660736084,34.564591789245604,75.0,1000.0,166.74671868068233,12.131073651460127,75000,37500.0,7351.1212520599365
6.022880886077881,-3.262546719551086,-39.366849029541015,0.3087341793179512,38000.0,0.7185294533967972,38.51616487121582,38.516030349731444,38.518042373657224,76.0,1000.0,117.82809212891618,12.02821719616964,76000,38000.0,7434.259093046188
5.981847705841065,-3.224670570373535,-40.98902186584473,0.30902303326129915,38500.0,0.3909668914079666,40.44296771240234,40.44298257446289,40.443730987548825,77.0,1000.0,91.31567288158561,11.652130710206732,77000,38500.0,7520.08030796051
5.9405319709777835,-3.1859200992584227,-41.94355067443848,0.30798498100042343,39000.0,0.2659754989147186,41.55070248413086,41.55076570129395,41.55170007324219,78.0,1000.0,118.55653942843365,12.035275377716053,78000,39000.0,7603.169392585754
5.8989297351837156,-3.1469654235839846,-42.36959411621094,0.3055911319255829,39500.0,0.21002722382545472,42.08647834777832,42.086531036376954,42.087096130371094,79.0,1000.0,252.3082873571142,12.041453163237465,79000,39500.0,7686.215848684311
5.857037061691284,-3.1087956190109254,-42.61604183959961,0.3090111954808235,40000.0,0.17749079751968383,42.37908853149414,42.37895111083984,42.37928727722168,80.0,1000.0,158.14289759024052,12.14512632323708,80000,40000.0,7768.553404092789
5.814849758148194,-3.0731368999481203,-42.77953504943848,0.3094810066223145,40500.0,0.19157750588655473,42.57896530151367,42.57904719543457,42.57978518676758,81.0,1000.0,131.37341244650327,7.2185480962874955,81000,40500.0,7907.085418224335
5.772363790512085,-3.037121154785156,-42.83520341491699,0.30962844705581666,41000.0,0.19913437449932098,42.64626870727539,42.64626889038086,42.64599261474609,82.0,1000.0,129.51234477504764,11.62535349953337,82000,41000.0,7993.1043083667755
5.72957486152649,-2.99941628074646,-42.93872930908203,0.3089778110384941,41500.0,0.19745061206817627,42.76001856994629,42.759989700317384,42.76046784973145,83.0,1000.0,150.12166593482692,11.615996905461273,83000,41500.0,8079.192487001419
5.686478513717652,-2.9588151187896727,-43.008389907836914,0.30835892909765245,42000.0,0.19445901980996133,42.81779637145996,42.8178016204834,42.818157638549806,84.0,1000.0,132.06043800539453,12.175830400246912,84000,42000.0,8161.322410106659
5.643070434570313,-2.9148702478408812,-43.35501361083984,0.30698063880205156,42500.0,0.1955267999470234,43.08044139099121,43.08046748352051,43.08115005493164,85.0,1000.0,263.1377550057915,12.108384158446048,85000,42500.0,8243.909813165665
5.599345947265625,-2.8759569215774534,-43.64185285949707,0.31023064064979555,43000.0,0.1731741268336773,43.40069380187988,43.40065119934082,43.40078462219238,86.0,1000.0,264.88878532066286,12.161467860370395,86000,43000.0,8326.136729955673
5.55530057144165,-2.8275514135360718,-43.97133462524414,0.3121641948223114,43500.0,0.16873678067326545,43.69675703430176,43.69687606811524,43.696869903564455,87.0,1000.0,257.02853281228704,12.051866693097248,87000,43500.0,8409.111428976059
5.510929349899292,-2.786917905807495,-44.346185119628906,0.3173104257583618,44000.0,0.16617085966467857,44.06652665710449,44.066424301147464,44.0669813079834,88.0,1000.0,220.4598917139265,12.26416383108405,88000,44000.0,8490.649805784225
5.46622767829895,-2.745359306335449,-44.71751109313965,0.3157034150362015,44500.0,0.17329646706581114,44.43612295532227,44.436154541015625,44.436690963745114,89.0,1000.0,263.5235948271092,12.106227558686191,89000,44500.0,8573.251921653748
5.421190341949463,-2.7038111963272096,-45.06093376159668,0.3186195047497749,45000.0,0.15992912876605989,44.804888778686525,44.80488000488281,44.80446156311035,90.0,1000.0,195.7705869893981,11.649099635829268,90000,45000.0,8659.095466136932
5.375812507629394,-2.661368058204651,-45.27109259033203,0.31973366177082063,45500.0,0.2086404764652252,45.0285613861084,45.02867353820801,45.02977198791504,91.0,1000.0,265.2159319860666,7.491002023518766,91000,45500.0,8792.588956594467
5.33008875465393,-2.6185417852401733,-45.50995603942871,0.32259184205532077,46000.0,0.1646885875761509,45.26116694641113,45.26113163757324,45.26072760009766,92.0,1000.0,260.6849672594807,11.95987263675938,92000,46000.0,8876.201887369156
5.284013950347901,-2.5770204553604126,-45.769908966064456,0.32252679258584976,46500.0,0.1742141587138176,45.52982060241699,45.529899215698244,45.53077574157715,93.0,1000.0,250.71808582325107,11.681589154041248,93000,46500.0,8961.806679725647
5.237582509994507,-2.534832929611206,-45.93901765441895,0.32686542546749114,47000.0,0.2195965912640095,45.7256870880127,45.72564289855957,45.72537477111816,94.0,1000.0,259.1224546456809,11.72483024024362,94000,47000.0,9047.09576177597
5.1907890510559085,-2.49241046333313,-46.08919659423828,0.3280321906805038,47500.0,0.19289133298397065,45.873160934448244,45.87315168762207,45.873497604370115,95.0,1000.0,245.79264572483297,12.079798769862181,95000,47500.0,9129.878597974777
5.143627702713013,-2.4512311000823974,-46.18835247802734,0.3297534722089768,48000.0,0.21084534540772437,46.001063217163086,46.00118260192871,46.00125886535645,96.0,1000.0,258.62804788441133,12.422440638550453,96000,48000.0,9210.378078222275
5.096092765808105,-2.40734814453125,-46.37847746276856,0.3305288701057434,48500.0,0.20879023373126984,46.15074038696289,46.1505944519043,46.150602600097656,97.0,1000.0,265.882572377637,11.752847703484177,97000,48500.0,9295.46384048462
5.048178195953369,-2.363154333114624,-46.607584869384766,0.3330907164812088,49000.0,0.20764710092544555,46.361137298583984,46.361265060424806,46.362023895263675,98.0,1000.0,162.99905383982406,12.426222798054564,98000,49000.0,9375.93881893158
4.999877906799316,-2.320452491760254,-46.78950228881836,0.3337971125841141,49500.0,0.23877155885100365,46.56443901062012,46.56440278625488,46.5641220703125,99.0,1000.0,239.22255954297802,12.253345421139116,99000,49500.0,9457.549185752869
4.951185667037964,-2.278089338302612,-46.972843460083006,0.3339059056043625,50000.0,0.277708860039711,46.743800567626955,46.743835998535154,46.744544311523434,100.0,1000.0,262.75408030133616,12.09347848888297,100000,50000.0,9540.238381624222
4.902095003128052,-2.232910309791565,-47.21844624328613,0.3367702225446701,50500.0,0.2969305377304554,46.97287269592285,46.97279077148438,46.97286990356445,101.0,1000.0,263.58922548532456,7.512986857021566,101000,50500.0,9673.341237068176
4.8525993957519535,-2.1872564334869384,-47.48544853210449,0.3395755846500397,51000.0,0.27271640381217005,47.21954539489746,47.219613677978515,47.220155014038085,102.0,1000.0,272.73541324629156,11.846804176439772,102000,51000.0,9757.7521879673
4.802692068099976,-2.141481019973755,-47.70984895324707,0.3399167659282684,51500.0,0.27328472131490705,47.46212078857422,47.46208796691894,47.46272668457031,103.0,1000.0,261.1974497584797,11.551269167189952,103000,51500.0,9844.322762966156
4.7523661403656,-2.0985015392303468,-47.9665241394043,0.3428907877206802,52000.0,0.3230496327877045,47.72586294555664,47.72596319580078,47.72613897705078,104.0,1000.0,232.02134234023723,12.036533183641165,104000,52000.0,9927.403165102005
4.701614465713501,-2.05288089466095,-48.2026215209961,0.34280793738365173,52500.0,0.35923106199502947,47.9646861114502,47.96459239196777,47.96554570007324,105.0,1000.0,274.8928623555045,12.074456666017378,105000,52500.0,10010.222626924515
4.650429946899414,-2.008490839958191,-48.32840127563477,0.34566603434085846,53000.0,0.34514811527729033,48.1122488861084,48.11217320251465,48.11170874023438,106.0,1000.0,268.75302077562543,12.15576937455147,106000,53000.0,10092.488090753555
4.598804882049561,-1.9609600415229798,-48.53792710876465,0.3487578717470169,53500.0,0.3794953660964966,48.31185646057129,48.311916442871095,48.31219514465332,107.0,1000.0,265.7392304318525,12.23487240839758,107000,53500.0,10174.221678256989
4.546731927871704,-1.914755210876465,-48.7160687713623,0.3502025258541107,54000.0,0.3911989753246307,48.47776182556152,48.47774020385742,48.478469985961915,108.0,1000.0,254.34853682721553,12.162643623044717,108000,54000.0,10256.440646648407
4.494202932357788,-1.8650215644836425,-48.9262259979248,0.35083231472969056,54500.0,0.4496876137852669,48.69012512207031,48.690171508789064,48.6895986328125,109.0,1000.0,271.90126027098364,12.125280079378346,109000,54500.0,10338.912969112396
4.441210094451904,-1.8166467475891113,-49.04417449951172,0.35282779157161714,55000.0,0.4543598328232765,48.817738525390624,48.817758087158204,48.81861959838867,110.0,1000.0,262.2646114453144,11.777929481341063,110000,55000.0,10423.817536830902
4.38774493598938,-1.7681075682640075,-49.18593327331543,0.35336467540264127,55500.0,0.4820341176390648,48.96434530639648,48.96434727478027,48.96509368896484,111.0,1000.0,290.8761443604702,7.4101270445397835,111000,55500.0,10558.767991065979
4.333799171447754,-1.719949047088623,-49.411886123657226,0.35597927796840667,56000.0,0.6215060888528824,49.170987045288086,49.171180068969726,49.1711368560791,112.0,1000.0,257.3895135774181,12.00734309464535,112000,56000.0,10642.050363063812
4.279363920211792,-1.6710393242836,-49.6054119720459,0.35672822999954223,56500.0,0.5961969290971756,49.351187866210935,49.35116746520996,49.351954681396485,113.0,1000.0,376.2593645512406,12.165713032651306,113000,56500.0,10724.248587846756
4.224430252075195,-1.6198495292663575,-49.861678756713864,0.3618637493848801,57000.0,0.5913212320804596,49.63534219360351,49.63523518371582,49.63522660827637,114.0,1000.0,183.09634916754135,12.147801768986792,114000,57000.0,10806.568008899689
4.168989036560059,-1.5708208255767822,-50.053077026367184,0.36130960154533387,57500.0,0.6021233097314834,49.83999211120606,49.84016383361816,49.84024967956543,115.0,1000.0,259.8692786242951,11.881182554389891,115000,57500.0,10890.734716176987
4.113030710220337,-1.5186578936576842,-50.235530563354494,0.3624212441444397,58000.0,0.6155598579645157,49.97602990722656,49.975844345092774,49.97565063476563,116.0,1000.0,238.0472234124269,12.111963026133377,116000,58000.0,10973.297716379166
4.056545600891114,-1.4694696612358094,-50.45303889465332,0.36395633745193484,58500.0,0.6176907857656478,50.20957958984375,50.209671035766604,50.210516662597655,117.0,1000.0,195.310721036447,11.572828950547828,117000,58500.0,11059.707013368607
3.9995236473083495,-1.4231829562187195,-50.89733171081543,0.36444230020046237,59000.0,0.7301724553108215,50.590915878295895,50.59086041259766,50.591047576904295,118.0,1000.0,300.71388675965534,12.167415835354294,118000,59000.0,11141.89373421669
3.941954568862915,-1.3708226041793823,-51.17443403625488,0.3653475050926209,59500.0,0.7231953462362289,50.887467575073245,50.88739508056641,50.888573944091796,119.0,1000.0,170.6742690533664,11.853196485805142,119000,59500.0,11226.259164571762
3.883827768325806,-1.3198330245018006,-51.426347915649416,0.36531408536434173,60000.0,0.7019071114063263,51.189050430297854,51.18884913635254,51.189392059326174,120.0,1000.0,259.031206583425,11.954479217502714,120000,60000.0,11309.90981888771
3.825132333755493,-1.2732859616279602,-51.639956832885744,0.366347984790802,60500.0,0.6765708354711533,51.369233016967776,51.36934233093262,51.36980862426758,121.0,1000.0,241.0826848536988,6.81854277912806,121000,60500.0,11456.568722009659
3.765857027053833,-1.2290309891700744,-51.89235679626465,0.3674249078035355,61000.0,0.6391646060943603,51.633316284179685,51.6332293548584,51.633138442993165,122.0,1000.0,415.6480068230066,11.780193124655232,122000,61000.0,11541.456974983215
3.705990267753601,-1.191308825492859,-52.240538925170895,0.3703636417388916,61500.0,0.6754158498048782,51.9588059387207,51.95877255249023,51.95977137756348,123.0,1000.0,257.5343358869611,11.6486365101086,123000,61500.0,11627.303933143616
3.6455201292037964,-1.1375548100471498,-52.51325840759277,0.3730468103885651,62000.0,0.633953739285469,52.24031031799316,52.240320022583006,52.23981698608399,124.0,1000.0,274.4996753123806,12.124148152433976,124000,62000.0,11709.783955335617
3.5844343338012696,-1.082608781814575,-52.74496734619141,0.37371810245513915,62500.0,0.6530094419717789,52.48511878967285,52.485011856079105,52.485580017089845,125.0,1000.0,259.60165281201165,12.300839096907703,125000,62500.0,11791.079223394394
3.5227202425003052,-1.0352729375362397,-52.9014188079834,0.37446201002597806,63000.0,0.6585849648714066,52.650963317871096,52.65086717224121,52.65113218688965,126.0,1000.0,258.85058936506573,12.437138660812957,126000,63000.0,11871.483570814133
3.4603647451400756,-0.9800973551273346,-53.188187255859376,0.3768703615665436,63500.0,0.676715318441391,52.92704627990722,52.927007415771484,52.9276284942627,127.0,1000.0,193.13966094385376,12.230466999392515,127000,63500.0,11953.246598005295
3.3973544101715087,-0.9235905776023865,-53.43193898010254,0.37691130650043486,64000.0,0.7290755953788758,53.16717820739746,53.16725019836426,53.16787741088867,128.0,1000.0,260.33530568118306,11.989366608509018,128000,64000.0,12036.65384054184
3.3336753330230713,-0.8708069257736206,-53.609364166259766,0.377129235625267,64500.0,0.7582649594545364,53.36622723388672,53.36604385375976,53.36650604248047,129.0,1000.0,385.4666754688297,12.287405644749613,129000,64500.0,12118.037986755371
3.269313129425049,-0.8075529358386994,-54.01316943359375,0.37968397319316866,65000.0,0.7953893369436265,53.74891661071777,53.74893367004395,53.74875276184082,130.0,1000.0,209.88725468282834,11.458104861695782,130000,65000.0,12205.312455415726
3.204253023147583,-0.7585843567848205,-54.16022631835938,0.38012858951091766,65500.0,0.8138678381443024,53.92718899536133,53.92714697265625,53.92760382080078,131.0,1000.0,469.8937963626708,7.359856721661348,131000,65500.0,12341.18466758728
3.13847971534729,-0.7017090413570404,-54.598702911376954,0.38660986328125,66000.0,0.9043927557468414,54.3075438079834,54.30763420104981,54.308377334594724,132.0,1000.0,162.10287553385052,12.18740110894348,132000,66000.0,12423.236616134644
3.071977337837219,-0.6407455577850342,-54.94303073120117,0.3843346883058548,66500.0,0.8921454949378967,54.64943797302246,54.649411834716794,54.64942588806152,133.0,1000.0,199.2995839926273,11.967387119347155,133000,66500.0,12506.797045469284
3.0047296333312987,-0.5811539378166198,-55.21929977416992,0.3849134705066681,67000.0,0.9762301871776581,54.92291938781738,54.92292904663086,54.92343626403809,134.0,1000.0,461.58768913774503,12.231487850492757,134000,67000.0,12588.553249120712
2.9367196416854857,-0.5193490607738495,-55.73461370849609,0.39037288856506347,67500.0,0.976612900018692,55.437045028686526,55.437136108398434,55.43738819885254,135.0,1000.0,480.51069402445853,12.056107864669414,135000,67500.0,12671.49875831604
2.8679298820495607,-0.4583583258390427,-56.191000900268556,0.3933913474082947,68000.0,0.9723936024904251,55.8684135131836,55.86841253662109,55.86924705505371,136.0,1000.0,101.31315664870777,12.199594009835481,136000,68000.0,12753.468699932098
2.798342339515686,-0.39651983988285067,-56.57975137329102,0.3913208988904953,68500.0,0.9421986775398254,56.25755229187012,56.257602066040036,56.2572067565918,137.0,1000.0,191.07417535150344,11.239272554929244,137000,68500.0,12842.442430973053
2.727938190460205,-0.34037548446655275,-56.925044723510744,0.39329208350181577,69000.0,1.0024779646396638,56.590602615356445,56.59060250854492,56.591330490112306,138.0,1000.0,425.8790992314394,12.085752706302829,138000,69000.0,12925.184485197067
2.6566981048583984,-0.27739535230398177,-57.40966436767578,0.3959709314107895,69500.0,1.0443581273555755,57.10324945068359,57.10336318969726,57.10351930236816,139.0,1000.0,470.1032836765184,12.12850141792841,139000,69500.0,13007.634902954102
2.5846019840240477,-0.21542194700241088,-57.81476551818848,0.4002181882858276,70000.0,0.975298877954483,57.524944198608395,57.524779235839844,57.52530247497559,140.0,1000.0,416.1976854907442,12.11499717776264,140000,70000.0,13090.17722582817
2.511628984451294,-0.1582940056324005,-58.11815937805176,0.40130920004844667,70500.0,0.9930222663879394,57.831187301635744,57.83128598022461,57.8316778717041,141.0,1000.0,152.3294160403372,7.398654019897737,141000,70500.0,13225.336945772171
2.437757532119751,-0.09920271569490433,-58.34953286743164,0.401443704366684,71000.0,1.006668128013611,58.05042007446289,58.05069975280762,58.0507951965332,142.0,1000.0,216.1916314834307,12.107083298573214,142000,71000.0,13307.93322300911
2.362965216636658,-0.03528999661654234,-58.62799629211426,0.40162830650806425,71500.0,1.041937739133835,58.32384414672852,58.3237942199707,58.32392698669434,143.0,1000.0,177.99110327906135,12.264022793475881,143000,71500.0,13389.47253704071
2.2872287893295287,0.029143924199044706,-58.743793045043944,0.40119191217422484,72000.0,1.0693863261938095,58.42608476257324,58.42614450073242,58.42707975769043,144.0,1000.0,431.42290132857227,11.606164418956208,144000,72000.0,13475.633649110794
2.2105240802764894,0.0804840426594019,-59.17916482543945,0.4051889637708664,72500.0,1.1742671189308167,58.86236520385742,58.862456863403324,58.862773498535155,145.0,1000.0,143.63943412314038,12.315632430538995,145000,72500.0,13556.831265687943
2.1328260984420777,0.1311763126850128,-59.42742713928223,0.40287924933433533,73000.0,1.1002023038864135,59.11799827575683,59.11786596679688,59.11784703063965,146.0,1000.0,142.99942859165867,12.260221343626316,146000,73000.0,13638.395862340927
2.0541086797714234,0.19750625815987588,-59.56363215637207,0.40204460883140564,73500.0,1.1290285460948943,59.26957679748535,59.26974388122559,59.27056187438965,147.0,1000.0,474.2611049168261,12.02072578300525,147000,73500.0,13721.585515737534
1.9743447761535644,0.2463449763059616,-60.07377738952637,0.40645299792289735,74000.0,1.1720438094139098,59.740452667236326,59.74054328918457,59.74045881652832,148.0,1000.0,279.42349296970184,11.874838097086345,148000,74000.0,13805.797191381454
1.8935062007904053,0.3193972253203392,-60.34534600830078,0.40676349663734435,74500.0,1.1630445368289948,59.99932975769043,59.99930514526367,60.00034864807129,149.0,1000.0,66.48086963815825,11.722378271554733,149000,74500.0,13891.104113817215
1.8115635595321655,0.3801992797851563,-60.65712812805176,0.40550609707832336,75000.0,1.122935967206955,60.3200414276123,60.32013900756836,60.32011302185059,150.0,1000.0,382.56719846363035,11.741765106513999,150000,75000.0,13976.270185947418
1.72848627948761,0.44110636055469515,-61.062894302368164,0.4079749275445938,75500.0,1.1323959565162658,60.73093098449707,60.73093751525879,60.732218475341796,151.0,1000.0,213.85393230183655,7.455699110220407,151000,75500.0,14110.395770549774
1.6442425317764282,0.5103002910614014,-61.277786392211915,0.40711337053775787,76000.0,1.1468010714054109,60.913028121948244,60.91306106567383,60.91304286193848,152.0,1000.0,404.5168170883258,12.253296987675455,152000,76000.0,14192.006459712982
1.558799062728882,0.5679105496406556,-61.85897305297851,0.41122645461559293,76500.0,1.1409985601902009,61.471913055419925,61.47215327453613,61.47171839904785,153.0,1000.0,427.74150464509233,12.25114582556252,153000,76500.0,14273.631478786469
1.4721211681365967,0.6485487678050995,-62.45660607910156,0.4153875775337219,77000.0,1.195391099691391,62.040105575561526,62.039883697509765,62.04040951538086,154.0,1000.0,265.4597304589699,12.478742007385714,154000,77000.0,14353.76776266098
1.3841727018356322,0.7368454847335816,-63.086961715698244,0.41474745321273804,77500.0,1.2171239681243897,62.6485008392334,62.64860978698731,62.649424896240234,155.0,1000.0,456.3857949958546,12.240339786582293,155000,77500.0,14435.464842319489
1.2949158725738525,0.8127482450008392,-63.71651408386231,0.4182220892906189,78000.0,1.1177390704154968,63.25781811523437,63.25769715881348,63.256971984863284,156.0,1000.0,423.610587616335,12.027548327166713,156000,78000.0,14518.607306957245
1.2043111267089843,0.8884429848194122,-64.48206057739257,0.41896500301361084,78500.0,1.1408273804187774,64.01232916259765,64.01249118041993,64.01413893127442,157.0,1000.0,52.95124880112841,12.165688684642342,157000,78500.0,14600.805695772171
1.1123171482086183,0.9726009695529938,-64.92015020751953,0.42118068599700925,79000.0,1.1370534179210663,64.4873889465332,64.4874754486084,64.48867825317383,158.0,1000.0,449.3942354130103,11.601086257602203,158000,79000.0,14687.004521846771
1.0188906812667846,1.0405553867816926,-65.50052062988281,0.422138157248497,79500.0,1.1063703558444977,65.07319264221191,65.07333596801757,65.07382385253906,159.0,1000.0,421.1671287127638,12.074765270002684,159000,79500.0,14769.821867465973
0.9239864187240601,1.126499053955078,-65.98724513244629,0.422869579076767,80000.0,1.13732865858078,65.55816291809082,65.55810008239746,65.55843591308594,160.0,1000.0,498.24964519730185,12.17794582241096,160000,80000.0,14851.93752360344
0.8275567846298217,1.214802728176117,-66.6280196685791,0.4276229840517044,80500.0,1.1030303316116332,66.2213849029541,66.22132580566407,66.22072134399414,161.0,1000.0,497.914711915567,7.396282907870601,161000,80500.0,14987.140573263168
0.7295520000457764,1.2958919649124145,-67.17123913574218,0.4317232394218445,81000.0,1.1362362020015717,66.77092411804199,66.7711215057373,66.77154331970215,162.0,1000.0,296.00072842584353,12.266517195628314,162000,81000.0,15068.663306474686
0.6299197053909302,1.3861182508468628,-67.4045799255371,0.43158870077133177,81500.0,1.1274133348464965,67.02991506958008,67.02987460327148,67.03032365417481,163.0,1000.0,463.5437908634812,12.12547269799047,163000,81500.0,15151.134319067001
0.5286050004959106,1.4491577301025391,-67.91556344604493,0.4345058354139328,82000.0,1.104957189321518,67.49791091918945,67.49788711547852,67.49798397827148,164.0,1000.0,190.7422979608279,11.955544378346662,164000,82000.0,15234.777520656586
0.42555004405975344,1.5136291766166687,-68.2263603515625,0.43675150990486145,82500.0,1.1183379945755005,67.81280764770507,67.81290469360351,67.8146915588379,165.0,1000.0,457.5708382911307,11.591006709435247,165000,82500.0,15321.0513048172
0.3206940221786499,1.59292746925354,-68.90049981689454,0.43977134430408477,83000.0,1.1874227783679963,68.44253189086913,68.44264819335937,68.44323461914063,166.0,1000.0,176.35552309537945,12.158875426472664,166000,83000.0,15403.295753955841
0.213972825050354,1.6813866715431214,-69.29266943359374,0.43681151258945466,83500.0,1.1431901993751525,68.8334239807129,68.83313336181641,68.83326940917969,167.0,1000.0,286.73375841020294,12.045297835306132,167000,83500.0,15486.315702438354
0.10531892108917236,1.7715891780853272,-69.81102435302735,0.4395460432767868,84000.0,1.1619707446098329,69.34150454711914,69.34171206665039,69.34164678955078,168.0,1000.0,156.6275597806366,12.242904576149519,168000,84000.0,15567.995666742325
-0.005339040756225586,1.8544988255500794,-70.23304013061524,0.43852546656131747,84500.0,1.1913977489471435,69.75781161499023,69.75783871459961,69.75878640747071,169.0,1000.0,501.94128484319964,12.15185753045211,169000,84500.0,15650.287613153458
-0.11807628536224365,1.940618776321411,-70.7325478515625,0.44211049127578733,85000.0,1.1877181606292724,70.27689685058594,70.27686483764649,70.27739541625976,170.0,1000.0,495.97319533668633,12.079121682147312,170000,85000.0,15733.075090646744
-0.2329725294113159,2.023444876194,-71.22697705078124,0.44171158480644224,85500.0,1.1917146236896514,70.75854592895507,70.75830450439453,70.75893859863281,171.0,1000.0,191.94861133807504,7.435214504448682,171000,85500.0,15867.570202589035
-0.35011207008361817,2.067908751487732,-71.66329953002929,0.444347527384758,86000.0,1.2625177497863769,71.20299340820313,71.20333224487305,71.20365014648438,172.0,1000.0,394.14398560077893,12.84382484874721,172000,86000.0,15945.42863035202
-0.46958423137664795,2.175589614868164,-72.22052041625976,0.44741763389110567,86500.0,1.2873099541664124,71.75100692749024,71.75088421630859,71.75162210083008,173.0,1000.0,299.52566779998233,12.72077740674897,173000,86500.0,16024.040179729462
-0.5914838047027587,2.28994197845459,-72.60865374755859,0.44572295355796815,87000.0,1.2965212485790252,72.14100009155274,72.14100936889649,72.14129473876953,174.0,1000.0,291.804095861635,12.72667507976269,174000,87000.0,16102.615298509598
-0.715911563873291,2.3942047929763794,-73.01537893676758,0.4477664606571197,87500.0,1.3859008269309998,72.51748306274413,72.51754257202148,72.51757015991211,175.0,1000.0,286.1134185401099,12.563297777484262,175000,87500.0,16182.212235212326
-0.8429744853973389,2.5283093528747558,-73.54411157226562,0.44865600192546845,88000.0,1.3684587564468385,72.99923086547851,72.99916812133789,73.00065545654297,176.0,1000.0,505.03378895866877,12.38657404976495,176000,88000.0,16262.94480919838
-0.9727866697311401,2.662127017021179,-74.25634722900391,0.45037742602825165,88500.0,1.413498815536499,73.72029122924805,73.72016217041016,73.71978192138671,177.0,1000.0,459.71190619146194,12.248714866663375,177000,88500.0,16344.586028575897
-1.105469744682312,2.7509781455993654,-74.84486434936524,0.4525710108280182,89000.0,1.4808669719696046,74.33426724243164,74.33435168457031,74.33450927734376,178.0,1000.0,299.25209128193404,12.259311785755218,178000,89000.0,16426.156676530838
-1.2411535835266114,2.8472600526809693,-75.25048611450195,0.4542790285348892,89500.0,1.4570798716545106,74.76008825683594,74.76025463867188,74.76088870239258,179.0,1000.0,489.6445700493048,12.432141883080742,179000,89500.0,16506.5933406353
-1.3799770317077638,2.9611001691818237,-75.75239544677734,0.4580650460720062,90000.0,1.3937428724765777,75.25357202148437,75.2535478515625,75.25550866699218,180.0,1000.0,466.2067219130127,12.64528302495455,180000,90000.0,16585.67421245575
-1.5220888423919678,3.095968741416931,-76.40787881469727,0.46040572130680085,90500.0,1.4187836434841157,75.91159527587891,75.91156732177734,75.9115185546875,181.0,1000.0,282.9186297612808,7.613799845941915,181000,90500.0,16717.01467680931
-1.6676486263275145,3.25409320640564,-77.05036511230469,0.4622161773443222,91000.0,1.4251502439975738,76.49210055541992,76.49217678833008,76.4929592590332,182.0,1000.0,564.3323692371571,12.666959046648781,182000,91000.0,16795.960223913193
-1.816827844619751,3.3666425457000733,-77.65832516479492,0.4638403037786484,91500.0,1.4718311998844147,77.11894079589844,77.11904928588868,77.11902423095704,183.0,1000.0,459.38935231253174,12.71597969194828,183000,91500.0,16874.601432323456
-1.9698111305236816,3.4773111066818236,-78.26171368408203,0.4660062407255173,92000.0,1.5834912490844726,77.72536694335938,77.72513491821289,77.72628860473633,184.0,1000.0,461.49751370073994,12.508524356029763,184000,92000.0,16954.546914815903
-2.1267975826263426,3.6199030590057375,-78.8447966003418,0.46921477794647215,92500.0,1.526621319770813,78.32382165527343,78.32387561035156,78.32292947387695,185.0,1000.0,314.55813712652895,12.37566109794708,185000,92500.0,17035.350679636
-2.2880023384094237,3.769265580177307,-79.20928332519532,0.46936488461494447,93000.0,1.6764850921630858,78.71045443725586,78.71066595458984,78.71145977783203,186.0,1000.0,445.93727551366675,12.657453388473662,186000,93000.0,17114.355514526367
-2.453658402442932,3.8945414485931398,-79.80359637451171,0.4742149226665497,93500.0,1.6236778583526612,79.34258251953125,79.34256256103515,79.34410876464844,187.0,1000.0,341.90364685845185,12.710867755200951,187000,93500.0,17193.028349876404
-2.624018620491028,4.04030803489685,-80.03663934326173,0.47441682136058805,94000.0,1.6974703767299653,79.59351452636719,79.59341424560547,79.59359216308594,188.0,1000.0,327.28654111832327,12.54496005850397,188000,94000.0,17272.741637706757
-2.799357991218567,4.192702680587769,-80.2076330871582,0.4748974823951721,94500.0,1.6617862305641173,79.78423522949218,79.78425576782226,79.78529455566407,189.0,1000.0,488.4769652991941,12.395328168829984,189000,94500.0,17353.417195796967
-2.979976432800293,4.364206666946411,-80.49981887817383,0.4786007343530655,95000.0,1.7181434035301208,80.07698449707031,80.07673461914062,80.07536276245118,190.0,1000.0,794.2224086149083,12.436077811565971,190000,95000.0,17433.828400850296
-3.166201661109924,4.540220315933228,-80.79162567138673,0.4827233210802078,95500.0,1.6966814062595368,80.36978652954102,80.37001434326172,80.37112084960937,191.0,1000.0,213.3785123918959,7.631656752333453,191000,95500.0,17564.86154818535
-3.3583930177688597,4.72148900604248,-81.10192819213867,0.4834906269311905,96000.0,1.7184992003440858,80.63830227661133,80.6383041381836,80.63867642211915,192.0,1000.0,539.543296081937,12.488204875988638,192000,96000.0,17644.93710923195
-3.556945529937744,4.8938150863647465,-81.44375231933594,0.48461334669589995,96500.0,1.7685121865272522,80.96685604858398,80.96651370239258,80.96758978271484,193.0,1000.0,914.3604064015714,12.64617888545237,193000,96500.0,17724.012379169464
-3.7622947483062745,5.103602108001709,-82.1039267578125,0.49224059808254245,97000.0,1.7532503199577332,81.58926806640625,81.58934481811524,81.58973095703125,194.0,1000.0,337.45611377862576,12.295917946755628,194000,97000.0,17805.340183734894
-3.9749225940704345,5.279108127593994,-82.35231982421875,0.494018589258194,97500.0,1.8051549158096314,81.87761340332031,81.87778524780273,81.87747116088867,195.0,1000.0,905.5124863548723,12.727086780837293,195000,97500.0,17883.912760972977
-4.195364151000977,5.479860445022583,-82.88725927734374,0.4994119545221329,98000.0,1.8532463054656982,82.39010104370116,82.38979483032226,82.39119259643554,196.0,1000.0,480.4037482450611,12.431768461110394,196000,98000.0,17964.351840496063
-4.424215812683105,5.702243371963501,-83.3190717163086,0.5030212032794953,98500.0,1.8316315913200378,82.84462216186523,82.8448967590332,82.84470935058594,197.0,1000.0,857.4985622292828,12.5446177228867,197000,98500.0,18044.067303419113
-4.662144691467285,5.947887908935547,-83.8380163269043,0.5090642857551575,99000.0,1.9529991841316223,83.3547326965332,83.35474862670898,83.35540139770508,198.0,1000.0,650.6034186855012,12.547612329233884,198000,99000.0,18123.7637424469
-4.909901077270508,6.203469911575318,-84.55822232055664,0.5148200376033782,99500.0,1.9359702281951905,84.04313674926757,84.04317568969726,84.04444268798828,199.0,1000.0,718.6661830447449,12.601374033670623,199000,99500.0,18203.120168685913
-5.16833194732666,6.4073385124206546,-84.91245376586915,0.5177181779146195,100000.0,1.989107171535492,84.4150922241211,84.41513925170898,84.41495791625977,200.0,1000.0,858.7778015668727,12.631472039533149,200000,100000.0,18282.287509679794
-5.3018798828125,6.552104766845703,-85.5576978149414,0.5245424942970276,100500.0,2.0416039481163026,85.0599761352539,85.05973699951171,85.06030389404297,201.0,1000.0,636.6326383845302,7.6794419186819525,201000,100500.0,18412.50530576706
-5.3018798828125,6.535915142059326,-85.94035333251954,0.5276323531866074,101000.0,2.1719376611709595,85.48904302978515,85.48925637817383,85.48986199951172,202.0,1000.0,502.5094959706105,12.709789276240144,202000,101000.0,18491.184817314148
-5.3018798828125,6.55408151435852,-86.44886254882813,0.5314643777608872,101500.0,2.0918557419776915,85.95005349731446,85.94999401855469,85.9506153869629,203.0,1000.0,509.6479068658191,12.768524853666538,203000,101500.0,18569.50240087509
-5.3018798828125,6.571148141860962,-86.99723287963867,0.5340473464727402,102000.0,2.193284013748169,86.48822644042968,86.48843353271485,86.48770120239257,204.0,1000.0,422.9385231322472,12.513920989124099,204000,102000.0,18649.41340661049
-5.3018798828125,6.574795345306397,-87.24269732666015,0.5301394776105881,102500.0,2.393823354721069,86.73358978271484,86.73343237304688,86.73469732666015,205.0,1000.0,977.080250139921,12.854098778152313,205000,102500.0,18727.209604263306
-5.3018798828125,6.551771867752075,-87.97392785644531,0.5415869238376617,103000.0,2.348203980922699,87.47108773803711,87.47106372070313,87.47161291503906,206.0,1000.0,876.6245956269503,12.977223134071984,206000,103000.0,18804.267693281174
-5.3018798828125,6.5447241420745845,-88.57647598266601,0.5485347598791123,103500.0,2.4899193568229676,88.06049737548828,88.06049951171875,88.06068344116211,207.0,1000.0,676.6190559729888,13.03856098119021,207000,103500.0,18880.96327471733
-5.3018798828125,6.529194652557373,-89.16810827636719,0.5527413673400879,104000.0,2.482381078720093,88.67115963745117,88.67096380615234,88.67195098876954,208.0,1000.0,681.7961257894357,13.092866093861266,208000,104000.0,18957.34074664116
-5.3018798828125,6.547333765029907,-89.59423303222657,0.553644057393074,104500.0,2.523789779663086,89.09881274414063,89.09895095825195,89.0992770690918,209.0,1000.0,809.4118522063548,13.144109027828208,209000,104500.0,19033.42045736313
-5.3018798828125,6.500841146469116,-90.12392446899415,0.5586183049678802,105000.0,2.5843057413101196,89.6325404663086,89.6325789794922,89.63362860107422,210.0,1000.0,446.7554371770982,13.019559284225586,210000,105000.0,19110.227974414825
-5.3018798828125,6.535744916915894,-90.79752691650391,0.5615142302513123,105500.0,2.6706547813415527,90.24150820922851,90.24151635742187,90.24287469482422,211.0,1000.0,828.1233591797413,7.196752272813805,211000,105500.0,19249.179541110992
-5.3018798828125,6.536693037033081,-91.55136053466796,0.5661251833438873,106000.0,2.765797547340393,90.9861417541504,90.98578118896485,90.9861025390625,212.0,1000.0,603.1644205407176,13.041430719981589,212000,106000.0,19325.85824584961
-5.3018798828125,6.5401084499359134,-92.13907174682618,0.5707773786783218,106500.0,3.002380479812622,91.57811227416992,91.57820327758789,91.5786480102539,213.0,1000.0,651.0160798602266,13.217663566673776,213000,106500.0,19401.51458287239
-5.3018798828125,6.539119241714477,-92.74947903442383,0.5717848494052887,107000.0,3.0597140855789187,92.14791549682617,92.14811447143555,92.14877682495117,214.0,1000.0,886.3176086606773,13.056874074201177,214000,107000.0,19478.102593421936
-5.3018798828125,6.531598129272461,-93.59718661499024,0.5781552712917328,107500.0,3.1897622718811034,93.01971875,93.01941006469727,93.02041955566406,215.0,1000.0,747.7648293326725,12.978565824450254,215000,107500.0,19555.152709960938
-5.3018798828125,6.536483070373535,-94.30480328369141,0.5829557321071624,108000.0,3.29830197095871,93.75741482543945,93.75719973754883,93.75664801025391,216.0,1000.0,946.9280914111752,13.164219706929527,216000,108000.0,19631.116195201874
-5.3018798828125,6.508645420074463,-95.05763372802734,0.5872919449806213,108500.0,3.317008170604706,94.50787911987305,94.50809802246094,94.50921774291992,217.0,1000.0,956.5068741048967,13.144429213318931,217000,108500.0,19707.194053411484
-5.3018798828125,6.533442667007447,-95.82202349853516,0.5905548710823059,109000.0,3.540873719215393,95.2161418762207,95.21601397705078,95.21648553466797,218.0,1000.0,833.6092010982717,12.993036441685696,218000,109000.0,19784.15835738182
-5.3018798828125,6.519889505386352,-96.6063342590332,0.5980878214836121,109500.0,3.414906017303467,96.00136148071289,96.00111364746094,96.0029714050293,219.0,1000.0,912.9006773772994,12.829079704093795,219000,109500.0,19862.10627222061
-5.3018798828125,6.507707647323608,-97.60287426757813,0.6063705248832703,110000.0,3.6764161949157717,97.00582803344727,97.005783203125,97.00662390136719,220.0,1000.0,620.6788232353683,12.828145306269361,220000,110000.0,19940.059864521027
-5.3018798828125,6.493582241058349,-98.27188522338867,0.6074049296379089,110500.0,3.8284086818695067,97.65733276367187,97.65727996826172,97.65728491210938,221.0,1000.0,465.37691966283853,7.604998781620268,221000,110500.0,20071.552325725555
-5.3018798828125,6.463019960403442,-98.83479724121094,0.6086803741455078,111000.0,3.794181381225586,98.2046123046875,98.20447714233399,98.2059740600586,222.0,1000.0,946.5338038793418,12.651031326364434,222000,111000.0,20150.59726548195
-5.3018798828125,6.500073329925537,-99.98804595947266,0.6174175851345062,111500.0,3.9008030233383177,99.3427758178711,99.34289129638672,99.3426272277832,223.0,1000.0,939.0802850874696,11.964495863769356,223000,111500.0,20234.177887678146
-5.3018798828125,6.477164049148559,-100.72718054199218,0.6201995725631714,112000.0,4.064621676445007,100.06323229980468,100.06334301757812,100.06375750732421,224.0,1000.0,408.5854159288359,12.03683273618201,224000,112000.0,20317.25622177124
-5.3018798828125,6.500076093673706,-101.55295071411133,0.6234487414360046,112500.0,3.990701043128967,100.88630313110352,100.88615838623046,100.88726806640625,225.0,1000.0,979.9419563616084,11.882332683115983,225000,112500.0,20401.41478204727
-5.3018798828125,6.468647241592407,-102.4327478942871,0.6280254085063934,113000.0,4.011690062522888,101.75136224365234,101.75159420776367,101.75223837280274,226.0,1000.0,387.1618630988394,11.641927116337568,226000,113000.0,20487.31121492386
-5.3018798828125,6.4858164253234865,-102.98763265991211,0.6281651222705841,113500.0,4.329998797416687,102.30926202392578,102.30915078735352,102.30892449951172,227.0,1000.0,909.1899711813438,11.647595024268119,227000,113500.0,20573.165848970413
-5.3018798828125,6.4789423828125,-103.92531939697265,0.6337112164497376,114000.0,4.457975987434387,103.24782498168945,103.24763519287109,103.25083950805664,228.0,1000.0,819.3057482966207,11.798701544329933,228000,114000.0,20657.92093873024
-5.3018798828125,6.47482593536377,-104.9288893737793,0.637430979013443,114500.0,4.63126651763916,104.24299533081054,104.24290200805665,104.24381860351562,229.0,1000.0,874.8675098548191,11.646545639745783,229000,114500.0,20743.783308506012
-5.3018798828125,6.476532863616943,-105.90120568847657,0.6431339035034179,115000.0,4.616331583976746,105.19248025512695,105.1925940246582,105.19248324584962,230.0,1000.0,935.872027652446,11.772440081374056,230000,115000.0,20828.727466583252
-5.3018798828125,6.485105625152588,-106.81732354736329,0.6473482789993286,115500.0,4.64732168674469,106.09783944702149,106.09799429321289,106.0974035949707,231.0,1000.0,857.0241403880896,7.329244676597025,231000,115500.0,20965.16717481613
-5.3018798828125,6.483222158432007,-107.63139263916015,0.6548041009902954,116000.0,4.809888216972351,106.93715838623046,106.93705868530273,106.93785250854492,232.0,1000.0,860.8456259935932,11.785541761348675,232000,116000.0,21050.016902923584
-5.3018798828125,6.476351974487304,-108.58399227905274,0.6580144512653351,116500.0,4.719604035377502,107.87332189941407,107.87333303833007,107.87355239868164,233.0,1000.0,929.1715890374907,11.810646294461199,233000,116500.0,21134.686275482178
-5.3018798828125,6.489551834106445,-109.64036920166015,0.6639952399730682,117000.0,4.832533885955811,108.91364801025391,108.91377368164062,108.91523068237305,234.0,1000.0,967.1992429711444,11.67372819440776,234000,117000.0,21220.348712682724
-5.3018798828125,6.474974723815918,-110.64886242675782,0.6682422173023224,117500.0,4.9553393487930295,109.88815737915039,109.88808575439454,109.88973336791992,235.0,1000.0,565.4085497532932,11.619651264686729,235000,117500.0,21306.409816741943
-5.3018798828125,6.470564855575562,-111.41114712524414,0.6693833131790161,118000.0,5.3822595510482785,110.63638854980469,110.63611724853516,110.63761724853515,236.0,1000.0,877.3017012230235,11.763821242704063,236000,118000.0,21391.416209220886
-5.3018798828125,6.453876924514771,-112.39618295288086,0.6725669884681702,118500.0,5.389934638977051,111.66701266479492,111.66693560791016,111.66686795043945,237.0,1000.0,627.62581044801,11.839626232307365,237000,118500.0,21475.878336191177
-5.3018798828125,6.458906873703003,-113.53995074462891,0.6767840545177459,119000.0,5.552923383712769,112.76910171508788,112.76886315917969,112.76901602172852,238.0,1000.0,978.6906020846792,11.71875151703736,238000,119000.0,21561.21165895462
-5.3018798828125,6.460606548309326,-114.47494223022461,0.683298760175705,119500.0,5.682453039169311,113.72833676147461,113.7283360900879,113.72927362060547,239.0,1000.0,927.4734373640193,11.665995461616962,239000,119500.0,21646.93087720871
-5.3018798828125,6.4588768043518066,-115.49699313354492,0.6900426926612854,120000.0,5.517812428474426,114.74806893920899,114.74818197631836,114.74940444946289,240.0,1000.0,998.1272222344396,11.830839994338872,240000,120000.0,21731.455730199814
-5.3018798828125,6.456726041793823,-116.3645348815918,0.6943339540958404,120500.0,5.832521705627442,115.60870880126953,115.60874645996094,115.60835095214844,241.0,1000.0,958.803853388207,7.448598397920835,241000,120500.0,21865.709176301956
-5.3018798828125,6.433815284729004,-117.16667858886719,0.6963577725887299,121000.0,5.731252510070801,116.43386407470703,116.43385559082031,116.43475302124024,242.0,1000.0,976.0268340357798,11.886999096936956,242000,121000.0,21949.834698677063
-5.3018798828125,6.424623241424561,-118.24948599243164,0.7035568165779114,121500.0,5.846799401283264,117.48895956420898,117.48873010253907,117.49102233886718,243.0,1000.0,907.3397429530434,11.68212313443484,243000,121500.0,22035.435577869415
-5.3018798828125,6.40603649520874,-119.3006053161621,0.7097706987857818,122000.0,5.89534890460968,118.52777963256835,118.52811303710938,118.5265224609375,244.0,1000.0,974.8074429192602,11.956817204627713,244000,122000.0,22119.069875717163
-5.3018798828125,6.412809871673584,-120.30506057739258,0.7125467884540558,122500.0,5.858593958854676,119.5176427307129,119.51749307250977,119.5190150756836,245.0,1000.0,870.3833212169725,11.487585558917736,245000,122500.0,22206.12037062645
-5.3018798828125,6.412220989227295,-121.2073518371582,0.7165067961215973,123000.0,6.224915981292725,120.37251574707031,120.3723918762207,120.3731918334961,246.0,1000.0,960.8663359643501,11.81952109261315,246000,123000.0,22290.726168632507
-5.3018798828125,6.395252960205078,-122.42794760131837,0.7192912619113923,123500.0,6.076825764656067,121.60962496948243,121.60970703125,121.6111622314453,247.0,1000.0,914.1992593527077,11.746974998583198,247000,123500.0,22375.85446858406
-5.3018798828125,6.385869457244873,-123.63876431274414,0.7270781621932983,124000.0,6.085893070220947,122.81000088500977,122.810099609375,122.81090478515625,248.0,1000.0,975.502662621384,11.918992880702515,248000,124000.0,22459.754175662994
-5.3018798828125,6.390693971633911,-124.81553872680664,0.7322170324325562,124500.0,6.296408359527588,123.95410968017578,123.95403970336915,123.95387292480468,249.0,1000.0,929.8332976576419,11.985529536480955,249000,124500.0,22543.18812060356
-5.3018798828125,6.366980440139771,-125.78025985717774,0.7373900775909423,125000.0,6.492535535812378,124.9668385925293,124.96660049438476,124.9691030883789,250.0,1000.0,700.7559924993195,12.129475081018818,250000,125000.0,22625.63192009926
-5.3018798828125,6.371809589385986,-126.89566751098633,0.73967360496521,125500.0,6.339717166900635,126.02580661010742,126.02579351806641,126.02648052978516,251.0,1000.0,827.9348336433342,6.820224928699505,251000,125500.0,22772.254651784897
-5.3018798828125,6.366222913742066,-127.54235299682617,0.7418350021839142,126000.0,6.447257678985595,126.7220712890625,126.72222360229492,126.72101135253907,252.0,1000.0,893.7038921418654,11.960633319535686,252000,126000.0,22855.862265586853
-5.3018798828125,6.35447287940979,-128.65196124267578,0.7463923246860504,126500.0,6.509785388946534,127.83485382080079,127.83466204833984,127.83677255249023,253.0,1000.0,959.1863112987786,11.974361797572476,253000,126500.0,22939.374023914337
-5.3018798828125,6.338826446533203,-129.62965188598633,0.7516162462234497,127000.0,6.434311175346375,128.80175015258789,128.80180969238282,128.8034160461426,254.0,1000.0,999.5658456737666,11.944975837256129,254000,127000.0,23023.091230392456
-5.3018798828125,6.3461331939697265,-130.36525930786132,0.7525543158054352,127500.0,6.73021976852417,129.48723941040038,129.48703366088867,129.48705526733397,255.0,1000.0,686.326085229064,11.703338860644175,255000,127500.0,23108.536932706833
-5.3018798828125,6.349817840576172,-131.62925277709962,0.7596599595546722,128000.0,6.611294494628906,130.8231284790039,130.82335647583008,130.82294262695314,256.0,1000.0,931.1671948336154,11.856688311413151,256000,128000.0,23192.877516269684
-5.3018798828125,6.380591667175293,-132.4529468383789,0.7603460836410523,128500.0,6.753415584564209,131.6297405090332,131.62990811157226,131.63179571533203,257.0,1000.0,975.4982995435398,11.932624590409418,257000,128500.0,23276.68137693405
-5.3018798828125,6.364701358795166,-133.33891061401368,0.7689916718006135,129000.0,6.65586310005188,132.53977212524413,132.53986605834962,132.53965216064452,258.0,1000.0,972.1317676239112,11.830610071539398,258000,129000.0,23361.207872867584
-5.3018798828125,6.372193000793457,-134.14299029541016,0.7696847364902496,129500.0,6.717869159698487,133.30783862304688,133.30738397216797,133.3074946899414,259.0,1000.0,425.4054916198757,11.508582729417306,259000,129500.0,23448.09954571724
-5.3018798828125,6.371798006057739,-135.00157006835937,0.7732850570678711,130000.0,6.648167757987976,134.15168804931642,134.1518773803711,134.15445538330079,260.0,1000.0,963.070104767178,12.05954039241488,260000,130000.0,23531.021446943283
-5.3018798828125,6.386884899139404,-135.98713446044923,0.779944304227829,130500.0,6.66775866985321,135.1391417236328,135.139052734375,135.14012060546875,261.0,1000.0,966.867108475009,7.340815547640331,261000,130500.0,23667.24611377716
-5.3018798828125,6.3946419563293455,-136.83197094726563,0.7785395164489746,131000.0,6.644976982116699,135.96754083251952,135.9676517944336,135.96718408203125,262.0,1000.0,928.8305335210582,11.787705964727822,262000,131000.0,23752.080263376236
-5.3018798828125,6.3659185256958,-137.68874829101563,0.7833211121559143,131500.0,6.85462665939331,136.81797674560548,136.81723327636718,136.81917706298827,263.0,1000.0,996.4999701024906,11.827284365411163,263000,131500.0,23836.630527734756
-5.3018798828125,6.3321967124938965,-138.86667242431642,0.7911170601844788,132000.0,6.747394571304321,138.0190101928711,138.01932482910155,138.02090570068358,264.0,1000.0,962.9556063077627,12.072898314357253,264000,132000.0,23919.46068072319
-5.3018798828125,6.342568685531616,-139.54312200927734,0.7918727655410767,132500.0,6.939166543960571,138.678939453125,138.67849908447266,138.68027545166015,265.0,1000.0,889.2517560839627,12.193886086762788,265000,132500.0,24001.468992233276
-5.3018798828125,6.315562919616699,-140.56760485839843,0.800828905582428,133000.0,6.814539463043213,139.70337561035157,139.7031163330078,139.70295837402344,266.0,1000.0,857.8285531730191,11.90546371986752,266000,133000.0,24085.4640417099
-5.3018798828125,6.361641546249389,-141.25326190185547,0.8005590336322784,133500.0,7.023769849777222,140.3799892578125,140.38040283203125,140.38138134765626,267.0,1000.0,734.9224257063927,12.020092917525158,267000,133500.0,24168.65807533264
-5.3018798828125,6.353453424453735,-142.09254907226563,0.8031583385467529,134000.0,7.1885517234802245,141.22528576660156,141.22511596679686,141.22587243652345,268.0,1000.0,962.4923604664255,11.686747496206666,268000,134000.0,24254.225082874298
-5.3018798828125,6.339955570220948,-142.88321990966796,0.8059906845092774,134500.0,7.253710008621216,142.04744006347656,142.0476046142578,142.04757208251954,269.0,1000.0,509.80905044919245,11.643550568593122,269000,134500.0,24340.109539031982
-5.3018798828125,6.335538429260254,-143.63110998535157,0.8077066977024079,135000.0,6.962767906188965,142.8004584350586,142.800455078125,142.8013427734375,270.0,1000.0,962.4849937729341,11.752509231740888,270000,135000.0,24425.1977519989
-5.3018798828125,6.340809595108032,-144.59842980957032,0.8129649720191956,135500.0,6.916800680160523,143.79469079589845,143.79483520507813,143.79730334472657,271.0,1000.0,962.4193355185545,7.237181311629648,271000,135500.0,24563.373094558716
-5.3018798828125,6.3392131137847905,-145.3912466430664,0.8188410563468933,136000.0,6.939669933319092,144.55343951416015,144.55322930908204,144.55345404052736,272.0,1000.0,941.288093844541,11.735149530488007,272000,136000.0,24648.58717727661
-5.3018798828125,6.320662687301636,-146.18690270996095,0.8209423792362213,136500.0,7.0212433090209965,145.34691400146485,145.34762023925782,145.34776110839843,273.0,1000.0,939.19088419284,11.750281561192416,273000,136500.0,24733.691521644592
-5.3018798828125,6.326577854156494,-146.72677630615235,0.8239619421958924,137000.0,6.950675374984741,145.88038897705079,145.8801040649414,145.88154949951172,274.0,1000.0,723.8243758504835,11.608561741616828,274000,137000.0,24819.83483839035
-5.3018798828125,6.336080844879151,-147.52049786376952,0.8268735094070434,137500.0,6.971125776290894,146.6159918823242,146.61576678466798,146.6177042236328,275.0,1000.0,969.8155177346428,11.871067419025708,275000,137500.0,24904.073261976242
-5.3018798828125,6.358788528442383,-148.43833227539062,0.8319397778511047,138000.0,6.7354711875915525,147.59432141113282,147.5943355102539,147.59349835205077,276.0,1000.0,956.7198051692877,11.930123295372871,276000,138000.0,24987.894693374634
-5.3018798828125,6.314485929489136,-149.18287139892578,0.8313554854393005,138500.0,6.820574337005615,148.3158544921875,148.31571618652345,148.3157689819336,277.0,1000.0,979.9454165205428,11.778836289715546,277000,138500.0,25072.792724847794
-5.3018798828125,6.352260475158691,-150.0630296020508,0.8391604897975922,139000.0,6.531907775878906,149.16750354003906,149.1673685913086,149.16961151123047,278.0,1000.0,949.9259422033554,11.54753960979474,278000,139000.0,25159.391260147095
-5.3018798828125,6.354772037506104,-150.99135815429688,0.8436153061389923,139500.0,6.710832984924316,150.09541796875,150.09555841064454,150.09782287597656,279.0,1000.0,974.8338335886597,11.879073856705443,279000,139500.0,25243.572907686234
-5.3018798828125,6.33979743385315,-151.5320971069336,0.8483217961788178,140000.0,6.9121122074127195,150.65819274902344,150.65833740234376,150.65857763671875,280.0,1000.0,682.00512928718,11.804379848815092,280000,140000.0,25328.28722834587
-5.3018798828125,6.34018323135376,-151.94043566894533,0.8468975002765655,140500.0,7.037541278839111,151.10498596191405,151.1047643432617,151.10538653564453,281.0,1000.0,968.5483826780076,7.162068784143838,281000,140500.0,25467.911691188812
-5.3018798828125,6.312425971984863,-152.70673095703125,0.8524970448017121,141000.0,7.032276176452637,151.89357647705077,151.89370068359375,151.8939828491211,282.0,1000.0,905.2729255019985,11.658666664917344,282000,141000.0,25553.68479347229
-5.3018798828125,6.326420879364013,-153.502279296875,0.853298235654831,141500.0,6.757963691711426,152.63467022705078,152.6347158203125,152.63493939208985,283.0,1000.0,966.8240769412014,11.726411820068698,283000,141500.0,25638.962372541428
-5.3018798828125,6.317321668624878,-154.17714190673829,0.8572344098091126,142000.0,6.84415539932251,153.29821423339843,153.29807916259765,153.29875317382812,284.0,1000.0,957.4662740513875,11.883554850511961,284000,142000.0,25723.11227798462
-5.3018798828125,6.3252811508178715,-154.8829683227539,0.8642207126617432,142500.0,6.706609798431397,154.0333372192383,154.03321411132814,154.0342074584961,285.0,1000.0,963.7916468947221,11.881682329827782,285000,142500.0,25807.275444746017
-5.3018798828125,6.321879106521607,-155.409833984375,0.8670805296897888,143000.0,6.728751106262207,154.55016040039064,154.54981225585936,154.5515735473633,286.0,1000.0,883.7835964506502,11.93836888336042,286000,143000.0,25891.038982629776
-5.3018798828125,6.352013586044311,-156.06523248291015,0.8723924765586853,143500.0,6.8772319965362545,155.21267291259767,155.2128119506836,155.21351062011718,287.0,1000.0,951.3191196382057,11.902552651704328,287000,143500.0,25975.054575443268
-5.3018798828125,6.3584336585998535,-156.61844079589844,0.873511545419693,144000.0,6.919383522033692,155.78020294189454,155.78023919677733,155.78225146484374,288.0,1000.0,948.239352767844,11.79411960598663,288000,144000.0,26059.842593193054
-5.3018798828125,6.352718772888184,-157.0609281616211,0.8735258555412293,144500.0,6.702737476348877,156.21488989257813,156.21479724121093,156.21448992919923,289.0,1000.0,974.3569878804565,11.898722971193427,289000,144500.0,26143.885226249695
-5.3018798828125,6.361992008209229,-158.00057775878906,0.8826433734893799,145000.0,6.8215036201477055,157.0922346191406,157.09244030761718,157.09444714355467,290.0,1000.0,762.7929749227555,11.922823827976776,290000,145000.0,26227.75797510147
-5.3018798828125,6.3467333889007564,-158.6098549194336,0.8803937180042267,145500.0,6.751634538650513,157.74340887451172,157.7428626098633,157.7428623046875,291.0,1000.0,967.2850110471138,6.86552915985662,291000,145500.0,26373.41317296028
-5.3018798828125,6.337086975097656,-159.19176214599608,0.8849395756721496,146000.0,6.554293909072876,158.3079182739258,158.30828314208983,158.30923089599608,292.0,1000.0,974.8829116350325,11.90977780183034,292000,146000.0,26457.37779712677
-5.3018798828125,6.364742282867431,-159.99437908935548,0.8902783641815185,146500.0,6.401908101081848,159.12892852783204,159.12909875488282,159.1298550415039,293.0,1000.0,965.0821883163209,11.870921771399203,293000,146500.0,26541.617254257202
-5.3018798828125,6.345934658050537,-160.48615582275391,0.8964678175449371,147000.0,6.286875165939331,159.63527044677735,159.6349956665039,159.63628979492188,294.0,1000.0,916.3860563187079,11.773072648192882,294000,147000.0,26626.556848287582
-5.3018798828125,6.34890071105957,-160.76727221679687,0.8950042848587036,147500.0,6.410269500732422,159.95687365722657,159.95736199951173,159.96002801513671,295.0,1000.0,921.1459831292519,11.81300936812461,295000,147500.0,26711.209283828735
-5.3018798828125,6.350453824996948,-161.65595770263673,0.9040939977169037,148000.0,6.014076617240906,160.85061840820313,160.85045629882814,160.84955419921874,296.0,1000.0,890.9179561369165,11.948423857031637,296000,148000.0,26794.90233182907
-5.3018798828125,6.355551544189453,-161.73058551025392,0.902889886379242,148500.0,6.001409595489502,160.94152349853516,160.94162963867188,160.94284509277344,297.0,1000.0,972.302881205015,11.947957251210847,297000,148500.0,26878.598648309708
-5.3018798828125,6.3410451831817625,-162.26177191162108,0.9086883754730225,149000.0,6.147789577484131,161.45261901855469,161.45290545654296,161.45521673583985,298.0,1000.0,883.6251864874502,11.945406692621388,298000,149000.0,26962.31283545494
-5.3018798828125,6.359253211975098,-162.48666619873046,0.9085662569999695,149500.0,6.340405855178833,161.6784702758789,161.6783460083008,161.67649322509766,299.0,1000.0,977.2632656882475,11.859903241627448,299000,149500.0,27046.630556583405
-5.3018798828125,6.341323299407959,-163.119037109375,0.9172800939083099,150000.0,5.827834503173828,162.33108471679688,162.3306220703125,162.33258483886718,300.0,1000.0,856.751963102054,11.813243331918738,300000,150000.0,27131.281315088272
-5.3018798828125,6.3401005020141605,-163.36107958984374,0.910446320772171,150500.0,6.034206470489502,162.58567260742188,162.58551019287108,162.58533728027345,301.0,1000.0,784.5621277148052,7.312844442220335,301000,150500.0,27268.027010917664
-5.3018798828125,6.337888229370117,-163.6337662963867,0.9180000011920929,151000.0,6.202251454353332,162.87042065429688,162.87059387207032,162.87137963867187,302.0,1000.0,957.1401807505418,11.917551263584992,302000,151000.0,27351.936866998672
-5.3018798828125,6.340651430130005,-163.91890447998045,0.9209760887622833,151500.0,6.156814220428466,163.13773010253905,163.13756036376952,163.13961071777345,303.0,1000.0,974.9462638045637,11.752704217800908,303000,151500.0,27437.02366876602
-5.3018798828125,6.3194779071807865,-164.38075134277344,0.9248513193130493,152000.0,5.758017092704773,163.6035414428711,163.60365808105468,163.60379437255858,304.0,1000.0,931.999022072477,11.886096442452757,304000,152000.0,27521.155579328537
-5.3018798828125,6.342072204589844,-164.63382232666015,0.9284278383255005,152500.0,6.022746166229248,163.85828167724608,163.85796392822266,163.8576818847656,305.0,1000.0,973.0362090126206,11.883589092190821,305000,152500.0,27605.30524134636
-5.3018798828125,6.332685848236084,-165.27796234130858,0.9338279721736908,153000.0,5.890160465240479,164.4337822265625,164.43384246826173,164.43666284179687,306.0,1000.0,940.4936698545366,11.759456746867976,306000,153000.0,27690.343185424805
-5.3018798828125,6.336564268112182,-165.2644506225586,0.932647442817688,153500.0,5.886598640441894,164.49247088623048,164.49252124023437,164.4919662475586,307.0,1000.0,863.1256657596082,12.197029066179123,307000,153500.0,27772.330364227295
-5.3018798828125,6.362839687347412,-165.57461541748046,0.9373440346717834,154000.0,5.8655616483688355,164.8321589355469,164.83191192626953,164.83406860351562,308.0,1000.0,950.7672642694494,11.974303887227386,308000,154000.0,27855.84252667427
-5.3018798828125,6.315203115463257,-166.17487384033203,0.9418870885372161,154500.0,5.7049843769073485,165.38686010742188,165.3868134765625,165.38819158935547,309.0,1000.0,917.8835039427329,11.908427975665822,309000,154500.0,27939.8166680336
-5.3018798828125,6.317176445007324,-166.3855542602539,0.9430804343223572,155000.0,5.693006165504456,165.61923229980468,165.6190259399414,165.6191025390625,310.0,1000.0,960.677222618471,11.765951466673277,310000,155000.0,28024.80767059326
-5.3018798828125,6.306700401306152,-167.00942083740233,0.9521980538368225,155500.0,5.4851473588943485,166.22607397460936,166.22635736083984,166.22774322509767,311.0,1000.0,951.1574336041391,7.012897129039894,311000,155500.0,28167.402091503143
-5.3018798828125,6.315798675537109,-167.28027185058593,0.9531227490901947,156000.0,5.451587468147278,166.4869569091797,166.4869301147461,166.48723193359376,312.0,1000.0,998.5017050120745,11.727668261967848,312000,156000.0,28252.670534849167
-5.3018798828125,6.311871362686158,-167.49126409912108,0.9507674152851104,156500.0,5.390834001541138,166.7077807006836,166.70764196777344,166.7081271972656,313.0,1000.0,934.082070231852,11.640064839065094,313000,156500.0,28338.580709695816
-5.3018798828125,6.3276105442047115,-167.98686529541015,0.9572441599369049,157000.0,5.217258075714112,167.2119291381836,167.21187524414063,167.2137007446289,314.0,1000.0,996.1998383866368,11.844588985713001,314000,157000.0,28423.007447481155
-5.3018798828125,6.323703966140747,-168.0323352050781,0.9571732313632965,157500.0,5.135671399116516,167.28409307861327,167.28447918701173,167.2859416503906,315.0,1000.0,939.8349079512035,11.905015331265428,315000,157500.0,28507.005660533905
-5.3018798828125,6.330694631576538,-168.35974786376954,0.9606173233985901,158000.0,5.22430274105072,167.61589752197267,167.6153666381836,167.61453875732423,316.0,1000.0,974.4155810350966,11.906702007420977,316000,158000.0,28590.99197435379
-5.3018798828125,6.331195987701416,-168.62186846923828,0.9649202451705933,158500.0,5.043544791221619,167.87705059814454,167.87676458740233,167.8792811279297,317.0,1000.0,971.5905861039653,11.940670250194767,317000,158500.0,28674.739368200302
-5.3018798828125,6.296392387390137,-168.93673449707032,0.9697865426540375,159000.0,4.880217830657959,168.1858099975586,168.1860922241211,168.186314453125,318.0,1000.0,952.7869521622902,11.959272794219478,318000,159000.0,28758.356492996216
-5.3018798828125,6.306774347305298,-169.21889654541016,0.9728823955059052,159500.0,4.956247231483459,168.44654132080078,168.4463225708008,168.44652307128905,319.0,1000.0,951.0896853361072,11.565470709769528,319000,159500.0,28844.8207654953
-5.3018798828125,6.325069730758667,-169.51577142333986,0.9760625145435333,160000.0,4.9991571874618534,168.75339990234374,168.75335766601563,168.75360809326173,320.0,1000.0,876.9945008338732,11.642986495833519,320000,160000.0,28930.709383249283
-5.3018798828125,6.2983821849823,-169.77109075927734,0.976546005487442,160500.0,5.099797964096069,168.99751696777344,168.99750885009766,168.99950061035156,321.0,1000.0,919.5778268834224,7.249110730020185,321000,160500.0,29068.65733909607
-5.3018798828125,6.321195112228393,-170.03357916259765,0.9786182444095611,161000.0,4.976828024864197,169.26410705566406,169.26411041259766,169.26338232421875,322.0,1000.0,924.4490276928047,11.90688801445245,322000,161000.0,29152.642340898514
-5.3018798828125,6.346525051116943,-170.41618756103514,0.982191576719284,161500.0,4.805761285781861,169.64538348388672,169.64481744384764,169.64688787841797,323.0,1000.0,999.2993375217497,11.964533133211686,323000,161500.0,29236.222702741623
-5.3018798828125,6.351920972824097,-170.85393969726562,0.9843687596321106,162000.0,4.828846641540528,170.05936016845703,170.05934790039063,170.0587163696289,324.0,1000.0,890.1953751007649,11.770917481061197,324000,162000.0,29321.177848815918
-5.3018798828125,6.349359657287597,-171.06793884277343,0.9821282260417938,162500.0,4.853802936553955,170.29442138671874,170.29435333251953,170.29518139648437,325.0,1000.0,921.5118893626164,11.939274023262112,325000,162500.0,29404.935036182404
-5.3018798828125,6.326017959594727,-171.33591888427733,0.9874251120090485,163000.0,4.743396910667419,170.56997479248048,170.56987805175783,170.5711407470703,326.0,1000.0,973.6991573933225,11.946623189047118,326000,163000.0,29488.64069890976
-5.3018798828125,6.348959537506103,-171.90516387939454,0.9935056893825531,163500.0,4.593605312347412,171.14472863769532,171.14480462646483,171.14726489257814,327.0,1000.0,960.4322442124937,12.004699983104766,327000,163500.0,29571.941407203674
-5.3018798828125,6.338720701217651,-171.91872497558595,0.9980214619636536,164000.0,4.613936287879944,171.19271008300782,171.1925885620117,171.1917318725586,328.0,1000.0,921.5132124658334,11.959494104900012,328000,164000.0,29655.55698609352
-5.3018798828125,6.314293626785278,-172.2174253540039,1.0010566790103912,164500.0,4.506099134445191,171.48227728271485,171.48270635986327,171.48399047851564,329.0,1000.0,970.3052736450829,11.835690377280521,329000,164500.0,29740.047199726105
-5.3018798828125,6.329029504776001,-172.37716632080077,1.0023888640403749,165000.0,4.502335323333741,171.6474761352539,171.64724822998048,171.64709838867188,330.0,1000.0,980.1837824964657,11.87531124778023,330000,165000.0,29824.255519628525
-5.3018798828125,6.316567733764648,-172.55168621826172,1.0016112577915193,165500.0,4.524250985145569,171.80640795898438,171.80613763427735,171.8074901123047,331.0,1000.0,956.3941518394165,6.823104504155335,331000,165500.0,29970.816371440887
-5.3018798828125,6.319582986831665,-173.0627833251953,1.0091651477813721,166000.0,4.448231408119201,172.30493115234376,172.3052371826172,172.30626470947266,332.0,1000.0,931.1048930707277,11.753767912992977,332000,166000.0,30055.89547228813
-5.3018798828125,6.316927713394165,-173.0928392944336,1.0079947657585144,166500.0,4.400157794952393,172.36431158447266,172.36414025878906,172.36482556152345,333.0,1000.0,954.5320673237052,11.940372949334783,333000,166500.0,30139.644951581955
-5.3018798828125,6.305874282836914,-173.35264477539062,1.0084483432769775,167000.0,4.424363285064698,172.61644451904297,172.61633612060547,172.6165571899414,334.0,1000.0,901.8971610946089,11.77143772295982,334000,167000.0,30224.596342086792
-5.3018798828125,6.316758003234863,-173.56248834228515,1.0103282206058501,167500.0,4.531087621688843,172.83169494628908,172.83135137939453,172.83256909179687,335.0,1000.0,978.9900859010434,11.879466122919222,335000,167500.0,30308.7752096653
-5.3018798828125,6.306160995483398,-173.6403765258789,1.0142253305912017,168000.0,4.533383137702942,172.94163403320312,172.9417982788086,172.94094976806642,336.0,1000.0,914.003028089008,11.835243989432644,336000,168000.0,30393.268610715866
-5.3018798828125,6.2880352725982664,-173.8669130859375,1.0183203136920929,168500.0,4.557225608825684,173.1534766845703,173.1532728881836,173.15441229248046,337.0,1000.0,173.84449206857352,11.889416552249484,337000,168500.0,30477.377027511597
-5.3018798828125,6.294815977096557,-173.79244744873046,1.0183822939395903,169000.0,4.51259522819519,173.0960228881836,173.09594348144532,173.09785455322265,338.0,1000.0,997.2444298410887,11.860318289207541,338000,169000.0,30561.691797733307
-5.3018798828125,6.30814767074585,-173.8002993774414,1.0203238115310669,169500.0,4.333851461410522,173.12847296142579,173.12863708496093,173.1278494873047,339.0,1000.0,977.887146774447,11.962544764168879,339000,169500.0,30645.28605222702
-5.3018798828125,6.302706630706787,-173.9349146118164,1.0263115522861481,170000.0,4.228443108558655,173.2611596069336,173.26122528076172,173.26107983398438,340.0,1000.0,926.016192344301,11.930592853101833,340000,170000.0,30729.104184389114
-5.3018798828125,6.281261157989502,-173.9409796142578,1.023647690296173,170500.0,4.4389235239028935,173.26927685546875,173.26907250976564,173.2703999633789,341.0,1000.0,855.2075122157603,7.294100717722444,341000,170500.0,30866.20127749443
-5.3018798828125,6.3013479633331295,-174.2138285522461,1.0301182000637055,171000.0,4.2934277095794675,173.5345238647461,173.53490002441407,173.53424743652343,342.0,1000.0,929.1006223154259,11.788219508326462,342000,171000.0,30951.031731128693
-5.3018798828125,6.296645063400269,-174.30871997070312,1.0350672352313994,171500.0,4.384098797798157,173.60323138427734,173.6033583984375,173.6042593383789,343.0,1000.0,978.0497193286928,11.837071032947277,343000,171500.0,31035.512089967728
-5.3018798828125,6.306504693984985,-174.43270831298827,1.0314480423927308,172000.0,4.349174951553345,173.71595727539062,173.71590740966798,173.71615313720704,344.0,1000.0,956.5384762797123,12.05052892313375,344000,172000.0,31118.496000528336
-5.3018798828125,6.309377758026123,-174.65053741455077,1.035869381904602,172500.0,4.305320705413818,173.93231414794923,173.9322822265625,173.9331174926758,345.0,1000.0,973.0421396951667,11.790905797698924,345000,172500.0,31203.307127714157
-5.3018798828125,6.3039770050048825,-174.6063897705078,1.03256857585907,173000.0,4.240074429512024,173.88763891601562,173.8871142578125,173.88722735595704,346.0,1000.0,978.1192381218282,12.020729021397463,346000,173000.0,31286.49675822258
-5.3018798828125,6.295388818740845,-175.03422705078125,1.0432847375869752,173500.0,4.325861385345459,174.32537219238282,174.3258759765625,174.32659783935546,347.0,1000.0,978.3587789278614,11.503438362736485,347000,173500.0,31373.42728948593
-5.3018798828125,6.289689661026001,-175.31998486328126,1.0425205507278443,174000.0,4.461761947631836,174.57368634033202,174.57367150878906,174.574662109375,348.0,1000.0,972.4613312949399,10.142170838689868,348000,174000.0,31472.025511026382
-5.3018798828125,6.328301471710205,-175.62585119628906,1.047986047267914,174500.0,4.3544747848510745,174.93907720947266,174.93877185058594,174.93994329833984,349.0,1000.0,997.2828617271929,4.78209217175553,349000,174500.0,31681.139005184174
-5.3018798828125,6.298052669525147,-175.50662567138673,1.048170830488205,175000.0,4.174771709442139,174.84740588378907,174.84770593261717,174.8467495727539,350.0,1000.0,956.4734281730438,9.699829944981275,350000,175000.0,31784.23359656334
-5.3018798828125,6.26150185585022,-175.59084216308594,1.0489228167533875,175500.0,4.197256929397583,174.89621942138672,174.8958369140625,174.89650427246093,351.0,1000.0,964.3525322345055,8.158178423010112,351000,175500.0,31906.809980630875
-5.3018798828125,6.2865566158294675,-176.00225561523436,1.0559979162216186,176000.0,4.276355916023254,175.30061334228515,175.30087512207032,175.30195404052733,352.0,1000.0,960.6276126884974,16.51675399086874,352000,176000.0,31967.35456585884
-5.3018798828125,6.308342849731445,-175.97920434570312,1.0586039881706237,176500.0,4.24877165222168,175.2831387939453,175.28330133056642,175.28406536865234,353.0,1000.0,974.6821560945695,16.162932625471317,353000,176500.0,32029.22452688217
-5.3018798828125,6.30025048828125,-176.10984594726563,1.0570792758464813,177000.0,4.114604593276978,175.4192139892578,175.41903588867189,175.41905963134766,354.0,1000.0,964.2714007518599,16.429720446358058,354000,177000.0,32090.089836120605
-5.3018798828125,6.300379177093506,-176.27248364257812,1.061035873889923,177500.0,4.236606482505798,175.58125653076172,175.58142553710937,175.58058142089843,355.0,1000.0,998.5402206018731,17.086970376021437,355000,177500.0,32148.61396241188
-5.3018798828125,6.279769756317139,-176.52043157958985,1.0674152476787566,178000.0,4.16237550830841,175.85428314208986,175.8540365600586,175.85563720703124,356.0,1000.0,967.6810713659758,16.488615110181883,356000,178000.0,32209.261870861053
-5.3018798828125,6.282482341766357,-176.3788091430664,1.0637192356586456,178500.0,4.1095240659713745,175.70491711425782,175.70509942626953,175.70333837890624,357.0,1000.0,949.4758895354737,16.167312167469063,357000,178500.0,32271.115072250366
-5.3018798828125,6.2817517795562745,-176.59620080566407,1.0670891613960267,179000.0,4.179973669052124,175.91516180419922,175.91528314208983,175.91652502441406,358.0,1000.0,965.9865391212323,15.518915628320864,358000,179000.0,32335.552565336227
-5.3018798828125,6.304277212142944,-176.75768383789062,1.070176691532135,179500.0,4.024011972427368,176.0771204223633,176.07700006103516,176.07853527832032,359.0,1000.0,977.2827394707472,15.589019036035047,359000,179500.0,32399.70028424263
-5.3018798828125,6.301747156143189,-176.98051000976562,1.0753324544429779,180000.0,4.077252039909363,176.28130328369141,176.28138690185546,176.2814219970703,360.0,1000.0,964.5193462311772,15.349688633054239,360000,180000.0,32464.8481862545
-5.3018798828125,6.276757223129272,-177.12356823730468,1.0751257588863372,180500.0,4.129879815101623,176.4505242919922,176.45051525878907,176.45088671875,361.0,1000.0,976.111680008554,8.139218882414028,361000,180500.0,32587.71009993553
-5.3018798828125,6.259517091751099,-177.41593896484375,1.0800762729644775,181000.0,4.062993159294129,176.72792736816407,176.72782440185546,176.72633489990235,362.0,1000.0,970.0275365528681,15.606989796350838,362000,181000.0,32651.783955574036
-5.3018798828125,6.287410764694214,-177.43030242919923,1.0808682441711426,181500.0,4.061717977523804,176.72108117675782,176.7215492553711,176.72301867675782,363.0,1000.0,965.4434139086969,15.45209507136035,363000,181500.0,32716.50010061264
-5.3018798828125,6.293534399032593,-177.51188891601564,1.083618733406067,182000.0,4.0577842206954955,176.85533410644533,176.8551328125,176.85575646972657,364.0,1000.0,978.8978451963704,15.40041716537386,364000,182000.0,32781.43340730667
-5.3018798828125,6.275718494415283,-177.65287731933594,1.0839509015083313,182500.0,3.9043314199447634,176.9692131958008,176.96905975341798,176.96953741455079,365.0,1000.0,975.4205656698588,15.631798701354798,365000,182500.0,32845.405572891235
-5.3018798828125,6.2812745552062985,-177.94031176757812,1.0900925447940826,183000.0,3.9357904987335206,177.25815087890626,177.25816497802734,177.25921069335936,366.0,1000.0,978.663945848397,15.506326475719394,366000,183000.0,32909.89538025856
-5.3018798828125,6.258369050979614,-178.01495037841798,1.0857644848823547,183500.0,3.8743821420669557,177.33811206054688,177.33798474121093,177.3383589477539,367.0,1000.0,972.6912506316877,15.43128908958167,367000,183500.0,32974.69878077507
-5.3018798828125,6.273629556655884,-178.29563745117187,1.0946143233776093,184000.0,3.786022309303284,177.6272858276367,177.62732580566407,177.62696838378906,368.0,1000.0,963.8037055707002,15.349584261538016,368000,184000.0,33039.8471262455
-5.3018798828125,6.279132360458374,-178.3687890625,1.0941174478530884,184500.0,3.8279091005325316,177.67620239257812,177.6761826171875,177.67688275146483,369.0,1000.0,998.0931035285558,15.489600058006822,369000,184500.0,33104.40657353401
-5.3018798828125,6.282704549789429,-178.5547392578125,1.099316222190857,185000.0,3.6743082456588745,177.84918774414064,177.84917053222657,177.85094622802734,370.0,1000.0,976.6307833163618,15.548291364774949,370000,185000.0,33168.7223238945
-5.3018798828125,6.25305590057373,-178.78749090576173,1.1011364109516144,185500.0,3.69192857837677,178.07696795654297,178.0769580078125,178.07792431640624,371.0,1000.0,907.5078294053178,7.893847454437061,371000,185500.0,33295.403262376785
-5.3018798828125,6.278396017074585,-178.8655853881836,1.0994137349128723,186000.0,3.7368903970718383,178.2132369995117,178.21307446289063,178.21331048583986,372.0,1000.0,962.3775059149826,14.903259892319351,372000,186000.0,33362.50267791748
-5.3018798828125,6.259368547439575,-178.9211883544922,1.1024054172039033,186500.0,3.791565007209778,178.2689067993164,178.26902984619142,178.26874096679688,373.0,1000.0,968.0718644238543,14.950457564371643,373000,186500.0,33429.39026379585
-5.3018798828125,6.204873525619507,-179.25680041503907,1.1095665247440338,187000.0,3.7973503913879396,178.57439739990235,178.57430157470702,178.57454736328125,374.0,1000.0,898.0159441277873,15.426982386954906,374000,187000.0,33494.21175575256
-5.3018798828125,6.216401197433472,-179.19485729980468,1.104576651096344,187500.0,3.6458606805801392,178.52231549072266,178.52225012207032,178.52199700927736,375.0,1000.0,967.9076049878573,15.651505448708022,375000,187500.0,33558.10337424278
-5.3018798828125,6.234903759002686,-179.3122095336914,1.106942108631134,188000.0,3.702295124053955,178.59370483398436,178.59358612060547,178.5954515991211,376.0,1000.0,982.9942155254885,15.527402284956336,376000,188000.0,33622.50564837456
-5.3018798828125,6.22798962020874,-179.72741162109375,1.1157640542984009,188500.0,3.796617015838623,178.98621466064452,178.98631091308593,178.98668286132812,377.0,1000.0,971.1963848382131,15.438646504431208,377000,188500.0,33687.278166770935
-5.3018798828125,6.221972311019898,-180.03132147216797,1.1180042219161987,189000.0,3.67685284614563,179.3405441894531,179.34067401123048,179.34031427001952,378.0,1000.0,971.4590368434606,15.61274805440323,378000,189000.0,33751.32839131355
-5.3018798828125,6.240935497283935,-180.15690063476563,1.1171334176063537,189500.0,3.6684852638244627,179.46744696044922,179.467162109375,179.4669055175781,379.0,1000.0,955.4831073217722,15.47191986813981,379000,189500.0,33815.961612701416
-5.3018798828125,6.211177738189697,-180.11518475341796,1.1187144751548768,190000.0,3.714881616592407,179.43061871337892,179.43093286132813,179.4314542236328,380.0,1000.0,976.8354536004301,15.473954321224074,380000,190000.0,33880.58633542061
-5.3018798828125,6.227473970413208,-180.46832202148437,1.1242617564201356,190500.0,3.6421097707748413,179.78669451904298,179.7866655883789,179.7875848388672,381.0,1000.0,974.2236574067796,7.842310970882987,381000,190500.0,34008.09977006912
-5.3018798828125,6.214265787124634,-180.7725231323242,1.1273983101844787,191000.0,3.8370515937805174,180.08045220947267,180.08049304199218,180.08211346435547,382.0,1000.0,972.5322646261271,15.855746541708397,382000,191000.0,34071.16838765144
-5.3018798828125,6.226875160217285,-180.73168322753907,1.1227341313362122,191500.0,3.6695117168426514,180.03876446533204,180.03894049072267,180.03910925292968,383.0,1000.0,945.2858688357836,16.003878869811526,383000,191500.0,34133.65324115753
-5.3018798828125,6.239863988876343,-181.04034857177734,1.126326498031616,192000.0,3.5997730226516724,180.3584168701172,180.35838244628906,180.35778149414062,384.0,1000.0,975.7775402150178,15.428163101104099,384000,192000.0,34198.46977186203
-5.3018798828125,6.24507841873169,-180.98682525634766,1.1287108998298645,192500.0,3.704423819541931,180.31509680175782,180.31501684570313,180.31559509277344,385.0,1000.0,966.2091844357676,15.419360358794934,385000,192500.0,34263.3233063221
-5.3018798828125,6.24011240196228,-181.20468438720704,1.1307024211883545,193000.0,3.5288858613967897,180.54933880615235,180.5494486694336,180.5501954345703,386.0,1000.0,882.3908939379075,15.50977287077328,386000,193000.0,34327.79878425598
-5.3018798828125,6.241006866455078,-181.42037854003905,1.1346059589385986,193500.0,3.6577119245529173,180.75506237792968,180.75474865722657,180.75426934814453,387.0,1000.0,973.1620558333879,15.38103237891068,387000,193500.0,34392.81392741203
-5.3018798828125,6.2372026462554935,-181.36086938476564,1.1346139192581177,194000.0,3.565979130744934,180.7022847290039,180.70222937011718,180.70417407226563,388.0,1000.0,977.640028186465,15.573904035865535,388000,194000.0,34457.02390384674
-5.3018798828125,6.22811244392395,-181.6556953125,1.1373529872894288,194500.0,3.593299621582031,180.99555395507812,180.99585510253905,180.99576574707032,389.0,1000.0,985.1852134253083,15.277302870457614,389000,194500.0,34522.480484724045
-5.3018798828125,6.242597793579102,-181.82222027587892,1.1411695671081543,195000.0,3.585823462486267,181.1332886352539,181.13325555419922,181.13405908203126,390.0,1000.0,967.8934853559867,15.406147108909757,390000,195000.0,34587.38964176178
-5.3018798828125,6.251959501266479,-181.89001843261718,1.139335090637207,195500.0,3.555196756362915,181.20528497314453,181.2049426269531,181.20519451904298,391.0,1000.0,925.6693231695549,7.899555954523485,391000,195500.0,34713.979036569595
-5.3018798828125,6.248632238388062,-182.13786505126953,1.1438050699234008,196000.0,3.487279209136963,181.4557211303711,181.45572015380858,181.4562904663086,392.0,1000.0,967.5605579993805,15.449496526940433,392000,196000.0,34778.70606613159
-5.3018798828125,6.239311937332153,-182.1518875732422,1.1431655249595642,196500.0,3.4166315994262697,181.49545483398438,181.49560681152343,181.49644683837892,393.0,1000.0,977.7684681458355,15.497916893215823,393000,196500.0,34843.230867385864
-5.3018798828125,6.234062433242798,-182.36523388671876,1.1464360718727111,197000.0,3.418742868423462,181.70484045410157,181.70475946044922,181.70563610839844,394.0,1000.0,900.8006084496934,15.597282281671939,394000,197000.0,34907.34460186958
-5.3018798828125,6.259585739135742,-182.41111749267577,1.1475234260559082,197500.0,3.35871919298172,181.7796188354492,181.7794779663086,181.77936206054687,395.0,1000.0,953.6699663088787,15.359752035253093,395000,197500.0,34972.449820518494
-5.3018798828125,6.256245897293091,-182.32364080810547,1.1481472039222718,198000.0,3.3897281665802,181.6606517944336,181.66122827148436,181.66128637695311,396.0,1000.0,976.3400338817975,15.68176217509255,396000,198000.0,35036.21816587448
-5.3018798828125,6.25099404335022,-182.53736157226564,1.1501426372528076,198500.0,3.2145578680038454,181.8873999633789,181.8868031616211,181.88740588378906,397.0,1000.0,934.3988902761685,15.277293243716295,397000,198500.0,35101.67478752136
-5.3018798828125,6.221069940567016,-182.80990490722655,1.1564304990768433,199000.0,3.3949916381835936,182.15418151855468,182.15449566650392,182.1550870361328,398.0,1000.0,961.9109816450149,15.51089000231881,398000,199000.0,35166.14562177658
-5.3018798828125,6.226070747375489,-183.0336121826172,1.1601564469337464,199500.0,3.2353932065963744,182.37317419433595,182.3728364868164,182.37221160888672,399.0,1000.0,964.6271366324994,15.417979791051964,399000,199500.0,35231.004962682724
-5.3018798828125,6.226750179290772,-183.0949384765625,1.1599008169174194,200000.0,3.3076892619132994,182.4457951660156,182.44609533691406,182.44834228515626,400.0,1000.0,962.674663014784,15.631880438213855,400000,200000.0,35294.97679400444
-5.3018798828125,6.210615070343017,-183.24348272705078,1.1607315344810485,200500.0,3.223887689590454,182.5874874267578,182.58743389892578,182.588087890625,401.0,1000.0,969.0112057909132,7.851682060145823,401000,200500.0,35422.338039159775
-5.3018798828125,6.233327684402465,-183.07252447509765,1.1596253685951232,201000.0,3.2139650235176087,182.42638977050783,182.42683056640624,182.42655859375,402.0,1000.0,927.6183996689172,15.406846687703215,402000,201000.0,35487.24424910545
-5.3018798828125,6.235595273971557,-183.36262274169923,1.1647187070846559,201500.0,3.1494888968467714,182.721359375,182.72115838623046,182.72187603759767,403.0,1000.0,948.1363988258463,15.789480599012787,403000,201500.0,35550.57755565643
-5.3018798828125,6.248027156829834,-183.4389467163086,1.1665678148269654,202000.0,3.2481452083587645,182.78617834472655,182.786048828125,182.78692840576173,404.0,1000.0,960.3016746623539,15.491982709910376,404000,202000.0,35615.12707424164
-5.3018798828125,6.254590353012085,-183.51750732421874,1.1673077430725098,202500.0,3.244476505279541,182.88189343261718,182.88187145996093,182.88137652587892,405.0,1000.0,962.6990450708901,15.368242889895235,405000,202500.0,35680.1963224411
-5.3018798828125,6.256706113815308,-183.48922998046876,1.167361680984497,203000.0,3.1986781477928163,182.85772338867187,182.85768206787108,182.859310546875,406.0,1000.0,973.3488162877117,15.153930482433585,406000,203000.0,35746.18580389023
-5.3018798828125,6.257834192276001,-183.6451559448242,1.1731215734481812,203500.0,3.0295783338546753,183.0066655883789,183.00651251220702,183.0066879272461,407.0,1000.0,996.526743161101,15.329936613259745,407000,203500.0,35811.4176466465
-5.3018798828125,6.210609979629517,-183.70187811279297,1.1752611746788024,204000.0,3.2427057676315307,183.08363317871093,183.08377154541014,183.08390869140624,408.0,1000.0,931.5344089499142,15.061450717779442,408000,204000.0,35877.81231427193
-5.3018798828125,6.221365013122559,-183.75160003662108,1.1728364005088807,204500.0,3.2022633752822878,183.11264477539063,183.11258587646483,183.11180682373046,409.0,1000.0,978.8506275558183,15.122473512666597,409000,204500.0,35943.93906331062
-5.3018798828125,6.223626924514771,-183.9327850341797,1.1771495399475098,205000.0,3.044344217300415,183.31067004394532,183.31074090576172,183.31250634765624,410.0,1000.0,977.6242919152922,15.287183740059094,410000,205000.0,36009.35333633423
-5.3018798828125,6.216950107574463,-183.96895861816407,1.1808321113586426,205500.0,2.958091212272644,183.33520135498046,183.33512268066406,183.33474505615234,411.0,1000.0,931.5825555126419,8.100454094495408,411000,205500.0,36132.803206920624
-5.3018798828125,6.22135181427002,-184.0879093017578,1.1814011354446412,206000.0,3.0878038687705995,183.4526787109375,183.45253442382813,183.45326446533204,412.0,1000.0,979.3138678421593,15.37717682459178,412000,206000.0,36197.83465099335
-5.3018798828125,6.2482718563079835,-184.0857120361328,1.1845492153167725,206500.0,3.176858997344971,183.42466027832032,183.4247191772461,183.42548095703125,413.0,1000.0,975.966036565432,15.159071521759813,413000,206500.0,36263.80175280571
-5.3018798828125,6.218462518692016,-184.42829229736327,1.185552050113678,207000.0,3.1744215655326844,183.76510876464843,183.76514904785157,183.7659475708008,414.0,1000.0,964.7204942860338,15.278257814451875,414000,207000.0,36329.254242658615
-5.3018798828125,6.231619775772095,-184.5243013305664,1.1854864902496338,207500.0,3.0171630930900575,183.82705346679688,183.82707171630858,183.82673663330078,415.0,1000.0,977.6471343481044,15.367712520645982,415000,207500.0,36394.325736284256
-5.3018798828125,6.229645351409912,-184.80765112304687,1.1875030426979065,208000.0,3.091867619514465,184.16435375976562,184.16450988769532,184.16587377929687,416.0,1000.0,978.9781194073478,15.484983017963199,416000,208000.0,36458.90443253517
-5.3018798828125,6.21376282119751,-184.91551153564453,1.192491452217102,208500.0,2.9107206482887267,184.29393194580078,184.29398760986328,184.293041015625,417.0,1000.0,989.1903607714012,15.341513644605154,417000,208500.0,36524.087050676346
-5.3018798828125,6.20581792640686,-184.96959143066405,1.1932206273078918,209000.0,2.8975814232826234,184.3209470214844,184.32100927734376,184.32114080810547,418.0,1000.0,959.4337323198702,15.06089226080004,418000,209000.0,36590.48418045044
