cmpe-260-team-4/drqv2/src/main/tex/others/quadruped_walk_1150_train_R.csv
actor_ent,actor_logprob,actor_loss,batch_reward,buffer_size,critic_loss,critic_q1,critic_q2,critic_target_q,episode,episode_length,episode_reward,fps,frame,step,total_time
16.978584800720213,-11.248351997375488,-1.9017746447622776,0.7652083315700292,2500.0,2.682500606995076,1.6560853425860405,1.6626579218506814,1.7511816615909337,5.0,1000.0,7.471431459249644,10.158676003965626,5000,2500.0,98.43803095817566
16.967735992431642,-11.197733768463134,-3.1427158422470094,0.41433785618841645,3000.0,0.8642423872426153,2.7232754075527192,2.7232301535606385,2.7378840539455416,6.0,1000.0,26.257333535414933,39.92664691002526,6000,3000.0,123.48396158218384
16.95687739562988,-11.18653381729126,-4.237385804891586,0.4203055096119642,3500.0,0.8819348233863711,3.929808458805084,3.929963803291321,3.9373008363246917,7.0,1000.0,102.19349566174617,41.1807578171201,7000,3500.0,147.76714825630188
16.946008766174316,-11.176061592102052,-5.713749134540558,0.479827979169786,4000.0,1.6117465847656132,5.471305428981781,5.471648309230805,5.478713782310486,8.0,1000.0,61.74239246900299,42.07366990959862,8000,4000.0,171.53498315811157
16.93513060760498,-11.165657279968261,-7.064906625270844,0.5218515236675739,4500.0,1.0053134666830301,6.8462208576202395,6.84636879491806,6.852150113582611,9.0,1000.0,26.951522567573605,41.090801974363,9000,4500.0,195.8713309764862
16.92424249267578,-11.155395503997802,-6.411984796524048,0.4246925594508648,5000.0,0.8843382337838411,6.267329464435577,6.267504676342011,6.2725155029296875,10.0,1000.0,25.639496708842216,39.820698322207086,10000,5000.0,220.98390007019043
16.913344383239746,-11.145130142211913,-7.195820793151856,0.43113224616646767,5500.0,1.201572983160615,7.065521765708923,7.06550380897522,7.0693051691055295,11.0,1000.0,232.24781394016318,13.93544688395176,11000,5500.0,292.74335050582886
16.902436408996582,-11.134249439239502,-8.017687364578247,0.5023283444643021,6000.0,1.0286301799416542,7.885805778503418,7.886012415885926,7.889334583282471,12.0,1000.0,132.05277947680992,41.199599813304886,12000,6000.0,317.01543164253235
16.891518508911133,-11.123502799987794,-9.145775256156922,0.5538644644021988,6500.0,2.2618056679368017,9.090616153717042,9.090601670265197,9.093604007720947,13.0,1000.0,28.232288129400963,39.83927565630331,13000,6500.0,342.11629033088684
16.880590675354004,-11.113154739379883,-8.623829417228698,0.5022686523497104,7000.0,1.6362532556653022,8.560694724082946,8.560824569702149,8.565309880256653,14.0,1000.0,59.28618197979828,39.335697299291795,14000,7000.0,367.5384922027588
16.86965293121338,-11.102682125091553,-9.267898734092713,0.5089072079956531,7500.0,2.3542293684482574,9.233101691246032,9.233438105583192,9.235911841392516,15.0,1000.0,32.245049071653675,39.96832001703667,15000,7500.0,392.5583086013794
16.858705123901366,-11.091529392242432,-9.268033215522767,0.4938996897935867,8000.0,2.3893605264127253,9.324543507575989,9.32464998817444,9.328137912750243,16.0,1000.0,26.30008863528765,38.210798359678485,16000,8000.0,418.72892212867737
16.847747367858886,-11.08154515838623,-9.227409379959106,0.4670788314342499,8500.0,1.6587449287772178,9.253341144561768,9.253362011909484,9.255692253112793,17.0,1000.0,29.87026023966484,42.77978303817643,17000,8500.0,442.1044509410858
16.8367795791626,-11.070643035888672,-8.97314990234375,0.4397577502727509,9000.0,1.5827939471006394,8.91399213027954,8.913966910362245,8.917459037780763,18.0,1000.0,22.32563162218647,48.65084197553942,18000,9000.0,462.6590802669525
16.8258017578125,-11.059808864593506,-9.191681775093079,0.43377556893229485,9500.0,1.390373090416193,9.18541613483429,9.185399564743042,9.186948906898499,19.0,1000.0,246.20455288542206,49.383959738294344,19000,9500.0,482.9085714817047
16.814813888549804,-11.049030368804932,-10.25301149368286,0.48540992963314056,10000.0,1.9180063269138337,10.225314108848572,10.225562273979188,10.228052004814147,20.0,1000.0,52.91059661042888,46.652892566120094,20000,10000.0,504.3434724807739
16.80381591796875,-11.039451927185059,-10.605006381988526,0.4763305879235268,10500.0,1.811026319116354,10.55525824546814,10.555327878952026,10.557951114654541,21.0,1000.0,31.20842916477355,15.254617205035066,21000,10500.0,569.8973960876465
16.792807891845705,-11.028023017883301,-10.474893754959107,0.4602767859697342,11000.0,1.8281066721081733,10.468192886352538,10.468207117080688,10.471868118286134,22.0,1000.0,26.138802865720628,50.74390078687028,22000,11000.0,589.6041989326477
16.781789749145506,-11.017098659515382,-10.704259078979492,0.458843389749527,11500.0,1.9382126562595368,10.692850358963012,10.693425912857055,10.693294500350952,23.0,1000.0,23.769421656553188,51.44150063972816,23000,11500.0,609.0437572002411
16.770761444091796,-11.007278469085694,-10.451197463989258,0.438919168561697,12000.0,1.7377947022020817,10.45620140838623,10.456254381179809,10.458563844680786,24.0,1000.0,22.8215200938954,50.25235240103349,24000,12000.0,628.9433238506317
16.75972302246094,-10.996078586578369,-10.232221849441528,0.42179221138358114,12500.0,1.4804675679802894,10.233863563537598,10.23411329650879,10.234997053146362,25.0,1000.0,26.896716898463104,51.10900388740247,25000,12500.0,648.5093486309052
16.748674507141114,-10.985458724975587,-10.133472776412964,0.40969829308986666,13000.0,1.4459043743610382,10.125595737457276,10.125877876281738,10.126916955947875,26.0,1000.0,25.350976851165118,49.97693947081451,26000,13000.0,668.5185782909393
16.737615715026855,-10.975486309051513,-10.125971929550172,0.4040650705099106,13500.0,1.4864069457650184,10.138130723953248,10.138395797729492,10.140371173858643,27.0,1000.0,73.80578527354027,51.0047350463229,27000,13500.0,688.1246023178101
16.72654676055908,-10.964247928619384,-9.941708070755006,0.40000454264879226,14000.0,2.609981804251671,9.995738704681397,9.996279602050782,9.997214252471924,28.0,1000.0,22.38689362592711,48.44741616856788,28000,14000.0,708.7655396461487
16.715467666625976,-10.953808723449708,-9.683237939834594,0.39313712739944456,14500.0,1.9327124212980271,9.74854404449463,9.748676242828369,9.748624784469605,29.0,1000.0,55.84185811753613,52.05473919890634,29000,14500.0,727.9760870933533
16.70437816619873,-10.943216621398927,-9.644353412628174,0.3924415199160576,15000.0,2.0502178968787192,9.677836400985719,9.678023969650269,9.681413511276245,30.0,1000.0,21.454323210171022,50.582617907688906,30000,15000.0,747.7457251548767
16.69327848815918,-10.931730052947998,-9.419434801101685,0.383467000156641,15500.0,1.7011928558647633,9.458374366760253,9.458417531967163,9.457986839294433,31.0,1000.0,36.59437171671886,16.426705648844678,31000,15500.0,808.6222050189972
16.68216855621338,-10.92158390045166,-9.225175033569336,0.3794363729059696,16000.0,1.469532241910696,9.265887574195862,9.265972727775575,9.26753356552124,32.0,1000.0,27.396007336260087,48.521767816268486,32000,16000.0,829.2315125465393
16.671048316955567,-10.911137966156005,-9.058922859191895,0.37084459722042085,16500.0,1.4355055261552334,9.10160299873352,9.101586080551147,9.100669902801513,33.0,1000.0,35.017424113172645,50.07857790967657,33000,16500.0,849.2001321315765
16.659917739868163,-10.90021270751953,-9.008541059494018,0.36195796239376066,17000.0,1.3335849107801914,9.023114479064942,9.02344873046875,9.025692028045654,34.0,1000.0,36.56020156845295,50.32952650979856,34000,17000.0,869.0691862106323
16.64877685546875,-10.88908031463623,-9.145408807754517,0.36767956441640853,17500.0,1.7363312011361123,9.14967574119568,9.149926517486572,9.149880529403687,35.0,1000.0,24.30904724237779,50.65526666808855,35000,17500.0,888.8104717731476
16.63762561798096,-10.879109413146972,-8.861214429855346,0.3565566394031048,18000.0,1.537024457514286,8.885912452697754,8.886069084167481,8.88745820236206,36.0,1000.0,26.29939142188205,46.363536114554776,36000,18000.0,910.3791468143463
16.626463996887207,-10.868273193359375,-8.761102624893189,0.348956214427948,18500.0,1.3792933580875397,8.791918125152588,8.791957746505737,8.792235866546632,37.0,1000.0,64.85252552680242,51.361180814989225,37000,18500.0,929.8491048812866
16.61529200744629,-10.85766004562378,-8.736612205505372,0.34756592953205107,19000.0,1.4701702215075494,8.792235363006592,8.792424362182617,8.791477392196656,38.0,1000.0,128.43193117436647,50.71609159484514,38000,19000.0,949.5667133331299
16.60410958099365,-10.846668117523194,-8.845897022247314,0.3597700051665306,19500.0,2.444386749982834,8.895429887771606,8.895520322799683,8.89583773612976,39.0,1000.0,23.99140441890936,52.25008576602411,39000,19500.0,968.7054386138916
16.59291674041748,-10.835947536468506,-8.738564052581786,0.35058027720451357,20000.0,1.801864974617958,8.774246919631958,8.774260246276855,8.775436143875122,40.0,1000.0,120.54628487676705,51.97850114831445,40000,20000.0,987.9441628456116
16.58171342468262,-10.824493103027343,-8.875021940231322,0.36146615839004514,20500.0,2.1665765911340715,8.90062985420227,8.900690151214599,8.900002445220947,41.0,1000.0,25.466869635393167,16.453579294606154,41000,20500.0,1048.7212135791779
16.570499641418458,-10.813752407073975,-8.77783334159851,0.35469535821676257,21000.0,2.0079732584953307,8.795530229568481,8.795592323303223,8.79733730316162,42.0,1000.0,24.058966312884717,52.41801695868639,42000,21000.0,1067.7986238002777
16.559275367736817,-10.803041748046875,-8.962538944244384,0.35717760449647906,21500.0,1.7004293888807296,8.979524839401245,8.97969800567627,8.97950555229187,43.0,1000.0,25.401854011271908,51.624857071113674,43000,21500.0,1087.1691381931305
16.548040634155274,-10.792181186676025,-8.804867521286011,0.34365281051397323,22000.0,1.6042716407775879,8.817551527023316,8.817650804519653,8.818775577545166,44.0,1000.0,64.28461469613484,51.43065316977593,44000,22000.0,1106.6127965450287
16.53679527282715,-10.781628147125245,-8.72439001274109,0.3481534408926964,22500.0,1.6967303847670556,8.76250114440918,8.762520275115968,8.762481090545654,45.0,1000.0,55.96662981939955,48.03819925975912,45000,22500.0,1127.4295642375946
16.5255394821167,-10.770503379821777,-8.601655372619629,0.34652451318502425,23000.0,1.6627646049261093,8.635883277893067,8.635909257888795,8.63707897377014,46.0,1000.0,64.69741012882712,50.632946232638,46000,23000.0,1147.1795518398285
16.51427307128906,-10.760094776153565,-8.587080963134765,0.35206485450267794,23500.0,1.986889794588089,8.6238012008667,8.623823471069336,8.624515560150147,47.0,1000.0,22.62326233401745,51.372945969058094,47000,23500.0,1166.6450510025024
16.502996055603028,-10.748671794891358,-8.403057836532593,0.34666289699077607,24000.0,1.7388710831403733,8.444864917755128,8.444719619750977,8.444607933044434,48.0,1000.0,20.480681240276592,52.50554275761381,48000,24000.0,1185.6906607151031
16.491708450317383,-10.73796004486084,-8.345668329238892,0.3412763492465019,24500.0,1.5788039506673812,8.378636850357056,8.378563911437988,8.378896226882935,49.0,1000.0,67.65280483677975,44.610110790125006,49000,24500.0,1208.1071043014526
16.480410263061522,-10.727687370300293,-8.314857370376586,0.3421309303045273,25000.0,1.8617112830877305,8.337848838806153,8.337918857574463,8.339098119735718,50.0,1000.0,26.912838500756465,50.761783659155626,50000,25000.0,1227.806964635849
16.469101364135742,-10.716662498474122,-8.31895831489563,0.33880193161964417,25500.0,1.4955212600231171,8.332199489593506,8.331967924118041,8.332118957519532,51.0,1000.0,276.21073668790154,16.040626700488186,51000,25500.0,1290.148669242859
16.45778179168701,-10.70528857421875,-8.80212613105774,0.3635187598466873,26000.0,3.595037065386772,8.792545808792115,8.791981664657593,8.792630180358886,52.0,1000.0,25.160111457143874,46.67634171652303,52000,26000.0,1311.5727994441986
16.44645164489746,-10.694734329223634,-8.8654225730896,0.3592291440963745,26500.0,2.3488094874620438,8.864031133651734,8.864279220581055,8.865599767684937,53.0,1000.0,30.54657356716517,52.417638319140416,53000,26500.0,1330.650348186493
16.435110595703126,-10.68391901397705,-8.935939336776734,0.3581558346748352,27000.0,2.3344020491838453,8.927607927322388,8.927460315704346,8.927488430023192,54.0,1000.0,22.757587330178218,52.8360437136814,54000,27000.0,1349.576822757721
16.423758979797363,-10.673148239135742,-8.876094095230103,0.35497611290216446,27500.0,2.3721593022346497,8.885304723739624,8.885507135391235,8.886258905410767,55.0,1000.0,23.288020501183723,52.9371628537444,55000,27500.0,1368.4671444892883
16.41239653778076,-10.662352321624756,-8.708825744628907,0.34784980410337446,28000.0,1.8730962689518929,8.728479202270508,8.728286540985108,8.729109045028686,56.0,1000.0,175.77799797818227,51.49933232529326,56000,28000.0,1387.884872674942
16.401023292541502,-10.650735988616944,-8.693506509780883,0.35649912732839584,28500.0,1.8146553375720977,8.69897416114807,8.698979873657226,8.700555000305176,57.0,1000.0,21.571933955814444,43.50264912346026,57000,28500.0,1410.8719794750214
16.389639366149904,-10.639792881011964,-8.714586990356445,0.3555698158144951,29000.0,1.815528280377388,8.698539432525635,8.698640054702759,8.698295806884765,58.0,1000.0,264.1933725091433,49.75030985827017,58000,29000.0,1430.9723584651947
16.378244621276856,-10.629221965789794,-9.019409227371217,0.37708845651149747,29500.0,1.8717725341320037,8.982555820465087,8.982864948272706,8.984726757049561,59.0,1000.0,236.03983394550957,51.69700116142195,59000,29500.0,1450.315840959549
16.366838958740235,-10.617413604736328,-9.705203239440918,0.39037045162916184,30000.0,2.8131610481739044,9.682472927093507,9.682330457687378,9.682975946426392,60.0,1000.0,119.11853629960152,50.402026163605186,60000,30000.0,1470.156314611435
16.35542247772217,-10.606640113830567,-9.772372119903565,0.3933193374276161,30500.0,2.212895612478256,9.745825250625611,9.745800151824952,9.747307039260864,61.0,1000.0,237.5095822370759,15.808303455455976,61000,30500.0,1533.414210319519
16.34399517059326,-10.595704444885254,-10.606024698257446,0.4130419478416443,31000.0,2.6452017104625702,10.592450233459473,10.592147891998291,10.594709659576417,62.0,1000.0,28.208627486049867,49.042063593779304,62000,31000.0,1553.8048713207245
16.332557250976564,-10.586042629241943,-10.674806938171386,0.41732075268030167,31500.0,2.6064064202308654,10.656976932525636,10.657075916290284,10.656455926895141,63.0,1000.0,42.33191542926608,51.682548574778345,63000,31500.0,1573.1537635326385
16.321107765197755,-10.5739694480896,-10.69066943359375,0.4082099462747574,32000.0,2.665041100025177,10.675169393539429,10.675172021865844,10.67711392402649,64.0,1000.0,33.55529221789722,51.665477444948166,64000,32000.0,1592.5090489387512
16.30964768218994,-10.562977821350097,-10.71505784034729,0.4086915389895439,32500.0,2.668902283668518,10.701374013900757,10.701580755233765,10.702062072753906,65.0,1000.0,255.36698496648424,45.271689404147615,65000,32500.0,1614.5979099273682
16.298176681518555,-10.55220189666748,-10.982428455352784,0.42196498745679856,33000.0,4.167461071968079,10.9509732131958,10.950838565826416,10.952483980178833,66.0,1000.0,19.852647155272177,52.36671729289737,66000,33000.0,1633.6940095424652
16.28669462585449,-10.540758838653565,-11.00584934425354,0.4213361456990242,33500.0,3.3153526678085328,10.993680004119874,10.993631687164306,10.994235166549682,67.0,1000.0,21.10074923771488,51.57335850448887,67000,33500.0,1653.0838663578033
16.27520157623291,-10.53038274383545,-10.975102531433105,0.41676036149263385,34000.0,2.8024743301868438,10.960858310699463,10.96078600692749,10.96166976928711,68.0,1000.0,45.0981553704186,52.29507039230442,68000,34000.0,1672.2061281204224
16.26369758605957,-10.518778865814209,-10.91047820854187,0.41471249467134474,34500.0,2.9755701508522034,10.903322689056397,10.903060640335083,10.903219148635864,69.0,1000.0,26.336605468735957,50.051804755879935,69000,34500.0,1692.1854288578033
16.252182540893553,-10.507261108398437,-10.793308032989502,0.4040945127606392,35000.0,3.124813447713852,10.797948192596435,10.79800211906433,10.799444387435914,70.0,1000.0,44.97617524254147,49.34559878279325,70000,35000.0,1712.4506616592407
16.240656379699708,-10.496409633636475,-10.809920803070069,0.4071866062879562,35500.0,2.789901557445526,10.811608713150024,10.811636665344238,10.81426545715332,71.0,1000.0,121.60703244876618,16.093290609830767,71000,35500.0,1774.5883581638336
16.229119148254394,-10.485381355285645,-10.940041282653809,0.4089537919163704,36000.0,3.266169537782669,10.934925287246704,10.935300182342528,10.934607179641723,72.0,1000.0,24.465091781590935,51.365251645528346,72000,36000.0,1794.0567734241486
16.21757088470459,-10.47505982208252,-10.899708263397217,0.4084454114437103,36500.0,3.233008500814438,10.894239648818969,10.894027221679687,10.896373775482179,73.0,1000.0,59.88212291559696,51.246640573501445,73000,36500.0,1813.5702488422394
16.2060114364624,-10.462880882263184,-10.875355110168456,0.40397795420885085,37000.0,3.2385966653823854,10.87904794883728,10.879402227401734,10.88132134437561,74.0,1000.0,23.703867599636386,50.244262976853605,74000,37000.0,1833.473019361496
16.194440879821776,-10.451966632843018,-10.585999765396117,0.400418236374855,37500.0,2.963712493419647,10.606613670349121,10.606491207122803,10.605692052841187,75.0,1000.0,22.925502626613774,49.61791884786126,75000,37500.0,1853.6270298957825
16.182858993530274,-10.441031883239747,-10.541030279159546,0.3974117707014084,38000.0,2.8504029434919356,10.555317623138428,10.55533088684082,10.55772995376587,76.0,1000.0,220.18301106809696,51.79382326491907,76000,38000.0,1872.9343519210815
16.171266166687012,-10.429466602325439,-10.885885049819946,0.4096094632148743,38500.0,3.666174554824829,10.886918754577637,10.88633179473877,10.886910520553588,77.0,1000.0,22.54487540726841,51.46875397545526,77000,38500.0,1892.3636174201965
16.159662048339843,-10.418390853881835,-10.952073198318482,0.4103093957901001,39000.0,3.5161631078720093,10.960756410598755,10.961180768966674,10.962182104110719,78.0,1000.0,23.534610566449086,46.696726089788804,78000,39000.0,1913.7783951759338
16.14804665374756,-10.407776321411133,-10.84565738105774,0.3980114856362343,39500.0,3.1145558881759645,10.846701417922974,10.846975418090821,10.84778007888794,79.0,1000.0,23.5595152994506,52.75725612518417,79000,39500.0,1932.73313498497
16.136419982910155,-10.396505657196045,-10.711886728286743,0.39731615549325944,40000.0,2.9271194850206377,10.713804574966431,10.71422990989685,10.714855142593384,80.0,1000.0,40.01154053075335,52.483912700678076,80000,40000.0,1951.7865934371948
16.12478209686279,-10.385134826660156,-10.739263471603394,0.39651381301879884,40500.0,2.8428256335258486,10.751554637908935,10.751191871643066,10.752576854705811,81.0,1000.0,27.14973020331112,15.696228367536737,81000,40500.0,2015.4961669445038
16.113132888793945,-10.373584396362304,-10.561872653961181,0.3950312229394913,41000.0,2.7172797553539274,10.580676847457886,10.580740226745606,10.58136047744751,82.0,1000.0,27.444729044116144,48.176145317759925,82000,41000.0,2036.2533295154572
16.101472381591798,-10.362458927154542,-10.499087839126586,0.3913825069069862,41500.0,2.941777900457382,10.504859394073486,10.504716192245484,10.503275602340699,83.0,1000.0,23.435715971755616,51.24224169707086,83000,41500.0,2055.7684803009033
16.089800483703613,-10.351641185760498,-10.52922331047058,0.38692400097846985,42000.0,2.7016138225793838,10.523637720108033,10.523967374801636,10.525861721038819,84.0,1000.0,23.94086813198837,50.77007071174819,84000,42000.0,2075.4651248455048
16.07811725616455,-10.340650955200195,-10.45343635559082,0.3879558901190758,42500.0,2.7465936015844346,10.463936569213868,10.463873640060426,10.4641100730896,85.0,1000.0,27.089649265493502,50.862167054150326,85000,42500.0,2095.126105070114
16.066422637939453,-10.329590438842773,-10.31716330909729,0.3851792773604393,43000.0,2.7891011056900026,10.334029502868653,10.334007741928101,10.336162881851196,86.0,1000.0,24.592136890430492,52.03123195816923,86000,43000.0,2114.373077392578
16.054716613769532,-10.317992393493652,-10.223949621200562,0.383161514878273,43500.0,2.759056751489639,10.252313745498657,10.252612298965454,10.253148439407349,87.0,1000.0,39.17308453123052,48.849705997679024,87000,43500.0,2134.8440296649933
16.042999153137206,-10.306194637298583,-10.20182601737976,0.3791167376041412,44000.0,2.518315244913101,10.221055541992188,10.221065227508545,10.220830999374389,88.0,1000.0,26.684706548334557,46.22318438236873,88000,44000.0,2156.478195667267
16.03127028656006,-10.295170574188232,-10.094176580429076,0.3749249794483185,44500.0,2.6181141954660414,10.108117628097535,10.108012533187866,10.109104389190675,89.0,1000.0,25.95813141194851,52.84625968899143,89000,44500.0,2175.4010112285614
16.0195298538208,-10.284345046997071,-10.12624363899231,0.3738950374126434,45000.0,2.465271962881088,10.13244779586792,10.132297227859498,10.133043495178223,90.0,1000.0,37.82759102107913,51.81853825680345,90000,45000.0,2194.6991250514984
16.007778007507323,-10.272347595214844,-10.142658660888673,0.3755105580687523,45500.0,2.4711519573926926,10.154617900848388,10.154519485473633,10.155030572891235,91.0,1000.0,23.796427405609936,15.693448540190023,91000,45500.0,2258.419983148575
15.99601459121704,-10.261465629577637,-9.873473049163819,0.36867489385604857,46000.0,2.5807634913921356,9.890881601333618,9.890721368789674,9.892332708358765,92.0,1000.0,47.966548358735835,51.95853177219131,92000,46000.0,2277.66610121727
15.98423963546753,-10.250576435089112,-9.842274333953858,0.36640436398983,46500.0,3.0161081095933913,9.853652729034424,9.853757291793823,9.854604183197022,93.0,1000.0,50.7382152217081,48.9831621197708,93000,46500.0,2298.081280708313
15.972453128814697,-10.238797458648682,-9.873475481033326,0.3745607675909996,47000.0,3.0150670195817946,9.90158182144165,9.901555948257446,9.902264398574829,94.0,1000.0,22.05364357582193,48.238419544211254,94000,47000.0,2318.811645746231
15.960654972076416,-10.227113285064696,-9.81033134841919,0.37127975142002106,47500.0,2.6661692538261414,9.82602353477478,9.825827138900756,9.827147155761718,95.0,1000.0,227.63763254440087,48.183972141894934,95000,47500.0,2339.565435409546
15.948845294952392,-10.215998527526855,-10.004517036437989,0.37650018578767774,48000.0,2.6998384581804276,10.017788621902465,10.017841361999512,10.016680074691772,96.0,1000.0,22.84008371034433,51.76513984806391,96000,48000.0,2358.8834562301636
15.937023971557617,-10.2056569480896,-9.860886672973633,0.36840467524528503,48500.0,2.806103131890297,9.872679342269898,9.87272780418396,9.873721603393555,97.0,1000.0,140.8417169889882,52.067781528300834,97000,48500.0,2378.089191675186
15.925190967559814,-10.19392455291748,-10.00025692176819,0.37079432475566865,49000.0,2.9231451021432875,10.02107829093933,10.021240377426148,10.022212993621826,98.0,1000.0,239.8931541596823,50.79583025283312,98000,49000.0,2397.7758479118347
15.913346267700195,-10.18230617904663,-10.562759809494018,0.3911950968503952,49500.0,3.984168388605118,10.572258211135864,10.571873081207276,10.572361236572265,99.0,1000.0,28.08482831225912,48.67099181251724,99000,49500.0,2418.321968317032
15.901489944458008,-10.171228103637695,-10.276530685424804,0.38492967480421064,50000.0,2.932196851015091,10.302596956253051,10.302720518112183,10.30362944984436,100.0,1000.0,175.33331472880738,49.328686878029046,100000,50000.0,2438.5941495895386
15.889621788024902,-10.159336532592773,-10.375250965118408,0.39168780684471133,50500.0,3.5997994227409364,10.420884744644166,10.420776691436767,10.42156389427185,101.0,1000.0,64.8776835283509,16.072266093782364,101000,50500.0,2500.8131301403046
15.877741954803467,-10.14808589553833,-10.434838274002075,0.3962010758519173,51000.0,3.34397616314888,10.460426736831666,10.46028925704956,10.461916772842407,102.0,1000.0,26.85887901688021,48.496034678557145,102000,51000.0,2521.4333729743958
15.865850276947022,-10.136946792602538,-10.283785036087036,0.3917816746234894,51500.0,3.207419133424759,10.345804145812988,10.346302492141724,10.34733018875122,103.0,1000.0,44.25558070351074,51.42030134280869,103000,51500.0,2540.8809456825256
15.853946865081786,-10.125323886871337,-10.081850639343262,0.3848314549922943,52000.0,3.54928513944149,10.107461917877197,10.107055904388428,10.10708607673645,104.0,1000.0,26.38711822096226,51.765596646651964,104000,52000.0,2560.1987957954407
15.842031650543213,-10.113958438873292,-10.158401348114014,0.38868545585870745,52500.0,2.9878188354969026,10.196028078079223,10.196130025863647,10.19830019569397,105.0,1000.0,245.19304745448957,52.44149018510617,105000,52500.0,2579.2676672935486
15.830104541778564,-10.102085193634034,-10.275959390640258,0.3949141122102737,53000.0,3.887781707048416,10.301250379562378,10.301123748779297,10.301118669509888,106.0,1000.0,29.62042100998095,49.35767013378972,106000,53000.0,2599.527944087982
15.81816563796997,-10.090976055145264,-10.248360906600952,0.3935694750547409,53500.0,3.2732919418811797,10.269281093597412,10.269169359207153,10.269760431289672,107.0,1000.0,87.55815784362244,46.0893230733966,107000,53500.0,2621.224943637848
15.8062147064209,-10.079257049560546,-10.221358278274536,0.39675449407100677,54000.0,3.388149028778076,10.2583170337677,10.258218618392945,10.258818765640259,108.0,1000.0,31.165654670188864,46.742472469269416,108000,54000.0,2642.618763923645
15.794251968383788,-10.067018276214599,-10.159641344070435,0.3943555434942245,54500.0,2.9831079239845275,10.176173126220704,10.175929033279418,10.176455335617066,109.0,1000.0,232.13761644075498,47.206901225266826,109000,54500.0,2663.8021082878113
15.782277263641358,-10.056527969360351,-10.365485710144043,0.40017176043987274,55000.0,3.1628921518325805,10.369553339004517,10.369887729644775,10.371188150405883,110.0,1000.0,38.758035392869814,52.48573258627965,110000,55000.0,2682.8549058437347
15.770290622711181,-10.044541812896728,-10.510896041870117,0.4009607114195824,55500.0,2.936025380730629,10.500681741714477,10.500346660614014,10.503179981231689,111.0,1000.0,31.019244033919055,15.559346722477914,111000,55500.0,2747.124957561493
15.758291957855224,-10.033673973083497,-10.427922651290894,0.39746544176340104,56000.0,2.991301558971405,10.43179786682129,10.432088125228882,10.433571632385254,112.0,1000.0,30.552292064003364,49.93820267909159,112000,56000.0,2767.149708032608
15.746281284332275,-10.021218055725098,-10.477400520324707,0.3982247869372368,56500.0,2.5516489231586457,10.484192638397216,10.48402737045288,10.486584671020507,113.0,1000.0,25.57766509267299,47.368763307946764,113000,56500.0,2788.260668039322
15.734258636474609,-10.010483409881592,-10.640369333267213,0.39635812360048295,57000.0,2.7977138620615007,10.635263473510742,10.635176342010498,10.63630266571045,114.0,1000.0,31.606056246362478,47.392228262755424,114000,57000.0,2809.361175775528
15.722223884582519,-9.998759464263916,-10.578932720184326,0.3910103296637535,57500.0,2.489393461585045,10.567959342956543,10.567967586517334,10.568938638687134,115.0,1000.0,242.9716435542628,43.87426171397371,115000,57500.0,2832.153583049774
15.710177074432373,-9.987079097747802,-10.869733697891235,0.4030975781083107,58000.0,3.0801704236268996,10.852785299301148,10.852699756622314,10.853746343612672,116.0,1000.0,26.789322409653664,50.36200984559964,116000,58000.0,2852.0098209381104
15.69811812210083,-9.975547225952148,-10.948230312347413,0.40364727401733397,58500.0,2.644971175432205,10.923252422332764,10.923320608139038,10.92555011177063,117.0,1000.0,266.636230538126,47.266496792326144,117000,58500.0,2873.166457414627
15.686047077178955,-9.96381095123291,-11.168633138656617,0.4121245560050011,59000.0,2.7872453491687774,11.147963718414307,11.147872179031372,11.149651859283447,118.0,1000.0,37.80203381652854,40.49307881618906,118000,59000.0,2897.8620359897614
15.673963779449464,-9.952382499694824,-11.081004028320313,0.4065318835377693,59500.0,2.6544785524606707,11.090836740493774,11.090766778945923,11.092268688201905,119.0,1000.0,28.45481541458148,43.340303651944346,119000,59500.0,2920.935249567032
15.66186842727661,-9.941133613586425,-11.111846670150756,0.4066925703287125,60000.0,2.6953645515441895,11.11179873085022,11.111465181350708,11.11254330444336,120.0,1000.0,35.927855871164134,40.412273591688816,120000,60000.0,2945.680207967758
15.649760848999023,-9.929492099761962,-10.958869089126587,0.4006392732858658,60500.0,2.448928178548813,10.952608839035035,10.952966297149658,10.952990217208862,121.0,1000.0,27.084034370820874,15.838079585724598,121000,60500.0,3008.8191781044006
15.637641006469726,-9.918104316711426,-10.997198461532593,0.39911283999681474,61000.0,2.3033501750230787,10.979291185379028,10.979386365890504,10.981742500305176,122.0,1000.0,34.21908525819413,42.27515871992276,122000,61000.0,3032.473732471466
15.625508949279785,-9.905905956268311,-11.092793891906739,0.4022666395902634,61500.0,2.5597602356672287,11.091839221954345,11.091695888519286,11.092789571762085,123.0,1000.0,33.47839192528922,43.092882204722756,123000,61500.0,3055.679422855377
15.613364570617676,-9.894120338439942,-11.046554494857789,0.40265890568494794,62000.0,2.1884815559387207,11.04763583946228,11.047734394073487,11.047798696517944,124.0,1000.0,26.28707039852192,43.18171216339533,124000,62000.0,3078.8373749256134
15.601207832336426,-9.883169624328612,-11.039589012145996,0.39882326579093935,62500.0,2.3328975496292115,11.02606834602356,11.026007860183716,11.027939029693604,125.0,1000.0,27.443319535793982,47.210866753114594,125000,62500.0,3100.018939971924
15.589038898468017,-9.870939529418946,-10.95008226966858,0.39444394159317014,63000.0,2.1658150304555894,10.96154538154602,10.961684028625488,10.962231813430787,126.0,1000.0,127.04700310205482,42.518428284071284,126000,63000.0,3123.538154602051
15.57685757446289,-9.859636184692382,-11.119849460601806,0.3967501880526543,63500.0,2.738697066307068,11.120909936904907,11.120801336288451,11.122624452590943,127.0,1000.0,27.460809245513715,44.62691802305889,127000,63500.0,3145.9461562633514
15.56466385269165,-9.847852283477783,-11.000544357299805,0.3968340064287186,64000.0,2.6749588913917544,11.00644910812378,11.006707670211792,11.007860052108764,128.0,1000.0,30.153204501104245,43.086433297707934,128000,64000.0,3169.15531873703
15.552457695007325,-9.836191101074219,-10.874438089370727,0.3915394378900528,64500.0,2.519134994029999,10.87901003074646,10.878771409988403,10.87787391281128,129.0,1000.0,29.56953523644023,45.91865662740526,129000,64500.0,3190.932960510254
15.540239170074463,-9.825038688659667,-10.86624335861206,0.39464261454343796,65000.0,2.550372825264931,10.864740076065063,10.864761548995972,10.86638165473938,130.0,1000.0,279.6627213942084,40.37670798231055,130000,65000.0,3215.6997158527374
15.528008144378662,-9.813129203796386,-11.277172534942627,0.4011723458170891,65500.0,3.084438531398773,11.257779668807983,11.25758420753479,11.258802865982055,131.0,1000.0,133.56988149273786,14.751982889108959,131000,65500.0,3283.487214565277
15.515764652252198,-9.800852527618408,-11.30865011024475,0.4029993691444397,66000.0,3.0826583433151247,11.300290035247803,11.300337436676026,11.302668670654297,132.0,1000.0,238.64549113795277,39.52832610454367,132000,66000.0,3308.7855291366577
15.503508701324463,-9.789532146453858,-11.667391122817993,0.41202872633934023,66500.0,3.479364546060562,11.657223272323609,11.657015829086303,11.65903788948059,133.0,1000.0,27.314281581068165,37.610568761501824,133000,66500.0,3335.3738012313843
15.491240154266357,-9.777091735839845,-11.628139049530029,0.4120583614706993,67000.0,2.75706444811821,11.622460632324218,11.622451204299926,11.62285263633728,134.0,1000.0,84.84392808118152,42.80119235030161,134000,67000.0,3358.7376379966736
15.478959091186523,-9.766397590637206,-11.622602886199951,0.41552915692329406,67500.0,3.3006916055679323,11.610060642242432,11.61021964263916,11.610026245117188,135.0,1000.0,28.55588545268864,39.87465852311623,135000,67500.0,3383.816224336624
15.466665325164795,-9.754436973571778,-11.50132789993286,0.40559409379959105,68000.0,2.6764957630634307,11.50893910598755,11.509083074569702,11.512058391571045,136.0,1000.0,30.13162726458967,36.06815379144101,136000,68000.0,3411.5415143966675
15.454359142303467,-9.74231279373169,-11.586445423126221,0.4099948801398277,68500.0,2.773207136631012,11.580885547637939,11.581024120330811,11.58149407196045,137.0,1000.0,256.3501810717339,38.09764574522377,137000,68500.0,3437.789857149124
15.442040267944336,-9.730085338592529,-11.648878677368163,0.4166354159116745,69000.0,3.0308621442317962,11.646482479095459,11.646132953643798,11.648617361068725,138.0,1000.0,38.5315804521697,40.67335413950114,138000,69000.0,3462.375978708267
15.429708675384521,-9.71865353012085,-11.703122688293456,0.41467750906944273,69500.0,3.158064473628998,11.68431201171875,11.684382759094238,11.684706394195556,139.0,1000.0,236.71050436487934,38.40679503031948,139000,69500.0,3488.4130399227142
15.41736446762085,-9.706498107910157,-11.958912105560303,0.4213353750705719,70000.0,3.1205912175178527,11.963489414215088,11.963571838378906,11.964294481277467,140.0,1000.0,27.612835207674763,36.8290417584721,140000,70000.0,3515.56552529335
15.405007522583007,-9.694941036224366,-11.82056964111328,0.4144272307753563,70500.0,3.1801424794197084,11.823106212615967,11.82298681640625,11.823939083099365,141.0,1000.0,239.33749930565298,12.638671835868372,141000,70500.0,3594.6877641677856
15.392637844085693,-9.682908645629883,-12.021676082611084,0.42188227915763854,71000.0,3.205215252637863,12.01598703956604,12.015754695892333,12.016431907653809,142.0,1000.0,27.667524847298143,33.70971431576815,142000,71000.0,3624.3528044223785
15.380255363464356,-9.670813632965087,-12.20079759979248,0.4258762711286545,71500.0,3.292252324104309,12.171078845977783,12.171163120269775,12.172795310974122,143.0,1000.0,263.0196630789096,31.873764358958326,143000,71500.0,3655.7265713214874
15.367860069274903,-9.658860984802246,-12.506820568084716,0.43394704067707063,72000.0,3.330992905139923,12.475202926635742,12.475243228912353,12.477060432434081,144.0,1000.0,28.603762954334087,37.14836580648128,144000,72000.0,3682.6456570625305
15.35545206451416,-9.647194313049317,-12.522161468505859,0.43278104305267334,72500.0,3.096186016321182,12.483728931427002,12.483776912689208,12.485742328643799,145.0,1000.0,220.18446275519824,36.256753724832656,145000,72500.0,3710.2267277240753
15.343031112670898,-9.635063426971435,-12.670755712509155,0.43410018742084505,73000.0,3.1768755180835724,12.629285978317261,12.629436735153199,12.631143712997437,146.0,1000.0,28.617913127250723,31.297913995238076,146000,73000.0,3742.1777396202087
15.330597385406493,-9.62418111038208,-12.65990602493286,0.4346719214916229,73500.0,2.902952446460724,12.651613876342774,12.6514326171875,12.65313122177124,147.0,1000.0,236.49758378470978,31.623249009298604,147000,73500.0,3773.8000450134277
15.3181506690979,-9.61140505218506,-12.866947414398194,0.4425449763536453,74000.0,3.3674390778541565,12.839442802429199,12.839340785980225,12.841196636199951,148.0,1000.0,24.398214797925263,34.79796627680974,148000,74000.0,3802.5373573303223
15.305691074371337,-9.599926155090332,-12.87065149307251,0.44106886827945707,74500.0,3.065908235788345,12.851367015838623,12.851067306518555,12.852825416564942,149.0,1000.0,30.30839186854162,30.80457148423765,149000,74500.0,3835.000072956085
15.293218524932861,-9.58783922958374,-12.738480056762695,0.43458827340602874,75000.0,2.969520513176918,12.707796169281005,12.707820989608765,12.710033102035522,150.0,1000.0,36.804637189300536,32.958864785975585,150000,75000.0,3865.3409247398376
15.280733001708985,-9.576266410827637,-12.813177543640137,0.43876837635040283,75500.0,2.7259450759887693,12.786665538787842,12.786865341186523,12.788708026885987,151.0,1000.0,40.5089668045062,11.65788577506957,151000,75500.0,3951.1197741031647
15.268234466552734,-9.564184032440185,-12.725780477523804,0.4376479004025459,76000.0,2.842855625987053,12.710390480041504,12.710181735992432,12.712393730163575,152.0,1000.0,279.17447202864383,36.20860720150811,152000,76000.0,3978.737516641617
15.255722854614257,-9.551766006469727,-12.894012428283691,0.442823259472847,76500.0,3.253348018407822,12.881170360565186,12.881310989379882,12.88066632461548,153.0,1000.0,44.216203331280084,34.538630445093105,153000,76500.0,4007.69060587883
15.243198291778565,-9.540758438110352,-12.944169578552247,0.4406974796652794,77000.0,3.232073773622513,12.900320638656616,12.900199251174927,12.903227039337159,154.0,1000.0,28.146480070470076,32.11919772641355,154000,77000.0,4038.8246352672577
15.230660617828368,-9.52726237487793,-13.092802352905274,0.44424662280082705,77500.0,3.2547171030044555,13.057072067260743,13.05720435333252,13.058837650299072,155.0,1000.0,35.41668803430255,33.26257551837759,155000,77500.0,4068.8884539604187
15.218109756469726,-9.516593143463135,-12.999530530929565,0.4420068787336349,78000.0,3.2275343178510667,12.969932144165039,12.969999336242676,12.97199560546875,156.0,1000.0,27.18008966234077,31.968572156027488,156000,78000.0,4100.169176578522
15.205545841217042,-9.504226867675781,-12.960762327194214,0.4391406595110893,78500.0,3.0876390979290007,12.946071514129638,12.946091205596924,12.946668210983276,157.0,1000.0,247.39654580616,34.251767292491635,157000,78500.0,4129.364751338959
15.192968704223633,-9.492907047271729,-13.050370599746705,0.4418804203271866,79000.0,3.1550514439344406,13.035723224639893,13.035714059829711,13.037235214233398,158.0,1000.0,26.737042981682666,34.382135989411395,158000,79000.0,4158.449623346329
15.180378364562989,-9.4803225440979,-13.181234268188476,0.44456023967266084,79500.0,3.188041422367096,13.151102409362792,13.150929111480712,13.151624382019042,159.0,1000.0,245.25184316093862,33.61433866762932,159000,79500.0,4188.1988344192505
15.167774784088135,-9.468215282440186,-13.340114910125733,0.44958451092243196,80000.0,3.2823003972768783,13.308073253631592,13.308068614959717,13.310234992980957,160.0,1000.0,127.35901278541083,36.37623931950384,160000,80000.0,4215.689307928085
15.15515800857544,-9.455243698120118,-13.445437023162842,0.45052321112155913,80500.0,2.926301369667053,13.413207683563233,13.413286289215089,13.414816246032714,161.0,1000.0,28.27304056841586,12.033745593806493,161000,80500.0,4298.788955211639
15.142527908325196,-9.44384827041626,-13.321563076019286,0.44673960572481153,81000.0,3.361554591417313,13.29687875366211,13.296764883041382,13.297191772460938,162.0,1000.0,236.864254728787,27.91041101323286,162000,81000.0,4334.617880582809
15.129884521484374,-9.432359508514404,-13.563470050811768,0.45446912831068037,81500.0,3.6364181218147276,13.530634605407714,13.530719997406006,13.53122504043579,163.0,1000.0,28.37994336557854,33.0386974048905,163000,81500.0,4364.885418653488
15.117227874755859,-9.419776519775391,-13.552832538604736,0.4517198711633682,82000.0,3.2874991052150726,13.525082946777344,13.525353771209717,13.52836085510254,164.0,1000.0,31.153438876717072,33.092795968002136,164000,82000.0,4395.103476285934
15.104557762145996,-9.408121612548829,-13.333441329956054,0.44676095974445346,82500.0,3.275632032632828,13.32246257019043,13.322358493804932,13.3219402885437,165.0,1000.0,54.8458948490183,26.546092429427226,165000,82500.0,4432.773805141449
15.091874240875244,-9.395626724243163,-13.55703617477417,0.45373139894008635,83000.0,3.083450164556503,13.533252464294433,13.533226417541504,13.535758991241455,166.0,1000.0,27.6820503198927,28.92248612855636,166000,83000.0,4467.348980426788
15.079177383422852,-9.384432975769043,-13.460473766326905,0.4527685136795044,83500.0,3.089153263092041,13.430388172149659,13.43038911819458,13.431340213775634,167.0,1000.0,65.93648934479799,26.469114939978912,167000,83500.0,4505.128861904144
15.066467025756836,-9.371267921447753,-13.342356243133544,0.4486533015966415,84000.0,2.948102625012398,13.332629291534424,13.332711906433106,13.33319411087036,168.0,1000.0,30.53939659566435,29.351225039664843,168000,84000.0,4539.198991775513
15.053743228912353,-9.359179862976074,-13.296206199645995,0.4469981254339218,84500.0,3.3749650223255157,13.2586453666687,13.258630443572999,13.259053482055664,169.0,1000.0,28.027427272374002,31.702689089621753,169000,84500.0,4570.742058753967
15.041005870819092,-9.346610744476319,-13.323030628204346,0.44858621352910993,85000.0,3.285188941717148,13.301045360565185,13.300890495300292,13.30355502319336,170.0,1000.0,260.8104378877316,31.296833652596597,170000,85000.0,4602.694173812866
15.028255016326904,-9.335193920135499,-13.33412251663208,0.44773768258094787,85500.0,3.1453899915218355,13.320529445648193,13.320568054199219,13.320747905731201,171.0,1000.0,265.11451338487524,11.608543010452214,171000,85500.0,4688.837629556656
15.015490573883056,-9.321738796234131,-13.635871391296387,0.461468530356884,86000.0,3.428268166065216,13.621646697998047,13.6216608543396,13.622946407318116,172.0,1000.0,39.879769653935355,28.727565929694084,172000,86000.0,4723.647402524948
15.002712558746337,-9.310965061187744,-13.560413215637206,0.4583783205747604,86500.0,3.816353557109833,13.533810173034668,13.533637203216554,13.53487538909912,173.0,1000.0,26.98253944601796,34.29151438510201,173000,86500.0,4752.809136867523
14.989920974731445,-9.297788848876953,-13.537883262634278,0.4571440259218216,87000.0,2.9960800247192383,13.501213035583497,13.501327159881592,13.502721256256104,174.0,1000.0,235.0925350375055,28.471551463748128,174000,87000.0,4787.931916952133
14.977115661621093,-9.285434032440186,-13.674339351654053,0.45682741892337797,87500.0,3.3293343124389647,13.654968120574951,13.655272411346436,13.65667370223999,175.0,1000.0,27.61821354137072,29.03244698703978,175000,87500.0,4822.3761377334595
14.964296661376952,-9.274152599334716,-13.53172682952881,0.45087946397066114,88000.0,3.2958157538175583,13.5267223777771,13.526462882995606,13.525984134674072,176.0,1000.0,31.96497399541209,29.657807926141487,176000,88000.0,4856.094072818756
14.951464008331298,-9.262062614440918,-13.710550903320312,0.4573146721124649,88500.0,3.28608083486557,13.675942012786866,13.676331066131592,13.678098545074462,177.0,1000.0,31.56898706609341,32.61106105210415,177000,88500.0,4886.758516073227
14.938617603302003,-9.249038749694824,-13.642224613189697,0.4567398272752762,89000.0,3.3246514048576357,13.620403484344482,13.620216972351074,13.61931715774536,178.0,1000.0,80.48267311453033,29.158203475417064,178000,89000.0,4921.054182767868
14.925757335662842,-9.237732624053955,-13.654193058013917,0.4591236664056778,89500.0,3.145553831577301,13.625857391357421,13.625804946899414,13.626867729187012,179.0,1000.0,56.654364435813115,28.18455083559994,179000,89500.0,4956.534614086151
14.912883422851563,-9.224631210327148,-13.541800148010253,0.4546371657848358,90000.0,3.3591303446292877,13.527998954772949,13.52820878982544,13.530678897857666,180.0,1000.0,27.304806164343248,28.21096074853092,180000,90000.0,4991.981830358505
14.899995609283447,-9.213086547851562,-13.540175819396973,0.45241436862945555,90500.0,3.4088543417453767,13.518639636993408,13.518621517181396,13.518717838287353,181.0,1000.0,268.0589689004475,12.351942120249733,181000,90500.0,5072.940760135651
14.887093982696534,-9.199687908172608,-13.721773555755615,0.4630496300458908,91000.0,3.2954841125011445,13.690983203887939,13.691172191619874,13.693270305633545,182.0,1000.0,279.4313846355201,29.68016680488338,182000,91000.0,5106.633293867111
14.874178447723388,-9.188051456451417,-13.874089294433594,0.46394780778884886,91500.0,3.4492282083034516,13.839354640960693,13.839410205841064,13.84282479095459,183.0,1000.0,28.20902214189028,30.248140600764007,183000,91500.0,5139.69317817688
14.86124896621704,-9.174876251220702,-13.943661869049071,0.46743873131275177,92000.0,4.07898227095604,13.916894870758057,13.917082935333251,13.916301303863525,184.0,1000.0,284.54734314862077,29.268691291314823,184000,92000.0,5173.859381437302
14.848305583953858,-9.163326305389404,-14.171327976226806,0.47663823544979095,92500.0,3.6323339738845823,14.153305515289306,14.152994285583496,14.155363399505616,185.0,1000.0,25.890528135134165,30.59779653909436,185000,92500.0,5206.541473865509
14.835348152160645,-9.150650608062744,-14.040857662200928,0.47058625650405883,93000.0,3.53684192609787,14.023186260223389,14.02327876663208,14.02495407485962,186.0,1000.0,25.640085180338858,30.353992067572904,186000,93000.0,5239.486071109772
14.8223768119812,-9.138502544403076,-13.928990421295167,0.4690195634365082,93500.0,3.470431962966919,13.90855753326416,13.908776500701904,13.908602424621582,187.0,1000.0,25.572583171138813,30.016446088376597,187000,93500.0,5272.80114197731
14.809391342163085,-9.125033195495606,-13.87129379272461,0.46596739757061006,94000.0,3.253307005882263,13.860600311279297,13.86056900024414,13.861853237152099,188.0,1000.0,28.702038286734307,29.963931299471373,188000,94000.0,5306.174601316452
14.79639190673828,-9.11386672592163,-13.87288790512085,0.46201050806045535,94500.0,3.7037624082565306,13.838819904327393,13.83887975692749,13.839870052337647,189.0,1000.0,41.81754643900737,28.489773123321278,189000,94500.0,5341.2749173641205
14.783378253936768,-9.101268989562989,-13.809218296051025,0.4627367388010025,95000.0,3.38578156709671,13.784740486145019,13.784733821868896,13.788057933807373,190.0,1000.0,35.74862183547088,23.93776053506297,190000,95000.0,5383.049920558929
14.770350559234618,-9.087840511322021,-13.726384910583496,0.45628894233703615,95500.0,3.4162934920787813,13.70756399154663,13.707991847991943,13.708020164489746,191.0,1000.0,31.633435441967386,12.032942028655295,191000,95500.0,5466.155117511749
14.75730865097046,-9.076134418487548,-13.750478225708008,0.46232805955410006,96000.0,3.2633603460788727,13.740545261383057,13.740462730407716,13.741893070220947,192.0,1000.0,27.605263839494125,26.66681739044609,192000,96000.0,5503.6549072265625
14.744252628326416,-9.064610485076905,-13.701972389221192,0.45888600146770475,96500.0,3.2624075620174406,13.689193420410156,13.689201808929443,13.689264110565185,193.0,1000.0,257.55039542764786,30.692001191939994,193000,96500.0,5536.236686944962
14.731182300567626,-9.050733028411866,-13.87014739227295,0.4628206871747971,97000.0,3.346436745882034,13.846483737945556,13.84659966659546,13.847909542083741,194.0,1000.0,240.11985317696912,26.207902242037253,194000,97000.0,5574.393119096756
14.7180977973938,-9.038832000732421,-14.074937553405762,0.46775676000118255,97500.0,3.4336247963905335,14.072387817382813,14.072295177459717,14.074448207855225,195.0,1000.0,289.25116693401753,25.409916947460026,195000,97500.0,5613.74783372879
14.70499896621704,-9.02666065979004,-14.13660009765625,0.47438282024860384,98000.0,3.6249647015333175,14.117849754333497,14.118167957305909,14.118262523651124,196.0,1000.0,30.154729606775284,29.987305722045487,196000,98000.0,5647.095278739929
14.69188579940796,-9.01502420425415,-14.253909286499024,0.4760579519271851,98500.0,3.6405884687900545,14.228023418426513,14.228051452636718,14.227489898681641,197.0,1000.0,27.792277687305845,32.77824704340189,197000,98500.0,5677.603317737579
14.678758346557617,-9.001061798095703,-14.155791549682617,0.47506744611263274,99000.0,3.806439648628235,14.135858821868897,14.135965473175048,14.138679489135741,198.0,1000.0,26.689246923100228,27.28503670251249,198000,99000.0,5714.253443479538
14.665616477966308,-8.989500087738037,-14.057963809967042,0.473358731508255,99500.0,3.4682444732189177,14.040821346282959,14.040904342651368,14.04287544631958,199.0,1000.0,34.02763971351444,30.01151094866,199000,99500.0,5747.573993444443
14.652460216522217,-8.976093921661377,-14.124712924957276,0.4700079048871994,100000.0,3.431388370513916,14.114374229431153,14.114834056854248,14.115212032318116,200.0,1000.0,39.92790439746709,30.453800696121682,200000,100000.0,5780.410619020462
14.639289505004882,-8.964002838134766,-14.068928211212159,0.47188159394264223,100500.0,3.526426465988159,14.055457931518555,14.055316986083984,14.057331661224366,201.0,1000.0,29.78161456130398,12.279196044272902,201000,100500.0,5861.8491768836975
14.626104339599609,-8.95121524810791,-13.835763423919678,0.4618783005475998,101000.0,3.2657269113063814,13.826705570220946,13.826616027832031,13.827898708343506,202.0,1000.0,273.91549170933445,29.181724099811323,202000,101000.0,5896.117200613022
14.612904640197755,-8.939072845458984,-14.105069374084472,0.47098565769195555,101500.0,3.6681792697906492,14.10570959854126,14.105752090454102,14.106324623107911,203.0,1000.0,33.913507364822244,26.223325928458685,203000,101500.0,5934.251189470291
14.599690437316895,-8.926628940582276,-13.932126571655273,0.4664867036342621,102000.0,3.8220364696979523,13.91471432876587,13.914886379241944,13.915652660369872,204.0,1000.0,28.434109309021558,24.058417128594662,204000,102000.0,5975.816685914993
14.586461700439454,-8.913065162658691,-14.166943920135498,0.4780237843990326,102500.0,3.3353001630306243,14.148040336608886,14.14794873046875,14.148456321716308,205.0,1000.0,279.90919596004926,25.066542843493604,205000,102500.0,6015.710501194
14.573218292236328,-8.901199951171876,-14.151209884643555,0.47582441818714144,103000.0,2.9825423567295073,14.145395771026612,14.145543827056885,14.148311725616455,206.0,1000.0,38.504351979474045,29.245426326620795,206000,103000.0,6049.903882741928
14.559960273742675,-8.88872095489502,-14.052722015380859,0.4767589600086212,103500.0,3.264810694694519,14.048102005004882,14.048336223602295,14.048067668914795,207.0,1000.0,297.8691538989519,28.748522615359516,207000,103500.0,6084.688280582428
14.546687637329102,-8.875941757202149,-14.094552272796632,0.475310128569603,104000.0,3.3990296448469164,14.10454384613037,14.10471397781372,14.10522525024414,208.0,1000.0,244.5282450318363,28.921945657410166,208000,104000.0,6119.264102697372
14.533400188446045,-8.862598266601562,-14.421114204406738,0.49351681661605834,104500.0,3.5690483083724978,14.402455673217773,14.402147674560547,14.403343143463134,209.0,1000.0,266.42355592558744,27.748647888994665,209000,104500.0,6155.301895618439
14.520098106384278,-8.850465538024903,-14.649120826721191,0.49481735908985136,105000.0,3.2542114870548247,14.624968990325927,14.624669136047363,14.625936027526855,210.0,1000.0,90.6395629140351,25.012892871795696,210000,105000.0,6195.281279087067
14.50678125,-8.83701346206665,-14.621712238311767,0.49195518255233767,105500.0,3.5171094820499422,14.609734603881837,14.610102195739746,14.610885372161865,211.0,1000.0,257.8124347927912,12.720716990035509,211000,105500.0,6273.89320063591
14.49344958114624,-8.82572137451172,-14.655601123809815,0.4953000510931015,106000.0,3.4269038376808165,14.642705596923829,14.642419296264649,14.643425395965576,212.0,1000.0,27.662745724155737,26.425079229170407,212000,106000.0,6311.736039876938
14.48010311126709,-8.81202505493164,-14.756084648132324,0.4958627278804779,106500.0,3.452003030538559,14.73164027786255,14.732061405181884,14.731702026367188,213.0,1000.0,29.742671879433885,29.54809409339002,213000,106500.0,6345.579171419144
14.466741802215576,-8.799999797821044,-14.554411991119384,0.4925876712799072,107000.0,3.345417085647583,14.550149940490723,14.54995021057129,14.549925666809083,214.0,1000.0,286.0227623264871,27.444075723303783,214000,107000.0,6382.016909360886
14.453365516662597,-8.787702640533448,-14.702862056732178,0.4931816682815552,107500.0,3.2671858205795288,14.689240470886231,14.689507843017578,14.692416095733643,215.0,1000.0,255.32697357052368,26.097645820122512,215000,107500.0,6420.334542274475
14.439974323272706,-8.774110431671142,-14.913122829437256,0.5033357092142106,108000.0,3.584731073141098,14.890998882293701,14.890719329833985,14.891029777526855,216.0,1000.0,63.810053921221815,27.634956273651575,216000,108000.0,6456.520596265793
14.426568187713624,-8.761519260406494,-14.95681028366089,0.5031430023908615,108500.0,3.684570633172989,14.934179508209228,14.934247058868408,14.935423389434815,217.0,1000.0,225.81770111365014,26.255424921922533,217000,108500.0,6494.607964515686
14.413147098541259,-8.74887154006958,-14.988584457397462,0.5008665471076965,109000.0,3.6983475375175474,14.965546642303467,14.965479022979736,14.96664792251587,218.0,1000.0,33.46152348394204,27.744293153239134,218000,109000.0,6530.65141415596
14.39971088027954,-8.735710033416748,-15.050524070739746,0.5087611333131791,109500.0,3.4748546278476713,15.040664421081543,15.040912441253662,15.041611164093018,219.0,1000.0,30.9585835160681,28.943303246923776,219000,109500.0,6565.201722145081
14.386259754180909,-8.723392017364501,-14.939231090545654,0.5003383454084397,110000.0,3.636072613477707,14.912224403381348,14.91239123916626,14.915441688537598,220.0,1000.0,251.4965193880488,28.261745873059972,220000,110000.0,6600.585241556168
14.37279341506958,-8.710422634124756,-15.100343395233155,0.5065943514108657,110500.0,3.7833595328330993,15.071782649993896,15.072064262390137,15.070804302215576,221.0,1000.0,27.631131204119132,11.8184901873601,221000,110500.0,6685.198420286179
14.359311965942382,-8.697515197753907,-15.209142650604248,0.5081997017860412,111000.0,3.686029194831848,15.191291095733643,15.191455001831054,15.19393371963501,222.0,1000.0,208.500106454954,26.164430679704825,222000,111000.0,6723.418246984482
14.345815391540528,-8.685338676452636,-15.289614673614501,0.5155310609340668,111500.0,3.7745269751548767,15.27265016937256,15.272766857147216,15.274872383117676,223.0,1000.0,24.932938724006096,25.845472040048335,223000,111500.0,6762.109745502472
14.332303554534912,-8.671052268981933,-15.12279349899292,0.5110887908935546,112000.0,3.7762810754776,15.123453254699706,15.122904331207275,15.123829067230224,224.0,1000.0,242.154100224407,28.62611532833409,224000,112000.0,6797.0428829193115
14.318776554107666,-8.658488075256347,-15.298919185638427,0.5100971434116364,112500.0,3.7542458984851836,15.289501522064208,15.290053310394287,15.289782943725585,225.0,1000.0,31.311920451062274,28.741460391111403,225000,112500.0,6831.835828304291
14.305234252929688,-8.646530055999756,-15.222863033294677,0.5122565785646439,113000.0,3.363766045331955,15.211440998077393,15.2113016166687,15.214078998565673,226.0,1000.0,29.91461121962429,24.128434829106755,226000,113000.0,6873.280706167221
14.291676692962646,-8.633793048858642,-15.14130725479126,0.5079658967256546,113500.0,3.5542036480903625,15.133518680572509,15.133337707519532,15.13462728881836,227.0,1000.0,28.34110073497938,28.78651229612473,227000,113500.0,6908.019197940826
14.278103733062744,-8.61971643447876,-15.165921718597412,0.511574691772461,114000.0,3.4812878143787382,15.151599399566651,15.151924633026123,15.15316365814209,228.0,1000.0,253.85246247243754,26.204250438698832,228000,114000.0,6946.180946588516
14.264515441894531,-8.607646045684815,-15.274106761932373,0.5117362118959426,114500.0,3.4435485377311705,15.26320308303833,15.263420757293702,15.264672496795654,229.0,1000.0,240.1086250383476,26.84109597421701,229000,114500.0,6983.437250852585
14.250911735534668,-8.59433415222168,-15.518443084716797,0.5172702128887177,115000.0,3.1380688202381135,15.498492576599121,15.498492626190185,15.499076107025147,230.0,1000.0,278.0474382965677,27.01206301309419,230000,115000.0,7020.457748889923
14.237292583465576,-8.581544448852538,-15.553956035614014,0.5214058686494827,115500.0,3.5105224874019623,15.531061046600342,15.531020149230956,15.532046550750733,231.0,1000.0,252.23434249386315,12.635996732063163,231000,115500.0,7099.596738576889
14.223657970428468,-8.568572303771973,-15.696838523864747,0.5264618058204651,116000.0,3.519751036643982,15.66778045654297,15.667835079193114,15.670445457458497,232.0,1000.0,271.40598036649584,25.063884519775552,232000,116000.0,7139.494784832001
14.210007865905762,-8.555458667755127,-15.968507202148437,0.5289653161764145,116500.0,3.7762623348236084,15.951641525268554,15.951614265441895,15.951486068725586,233.0,1000.0,28.43643953890379,21.201656132707775,233000,116500.0,7186.660913228989
14.196342208862305,-8.542855533599854,-15.821774845123292,0.524706688284874,117000.0,3.5255118329524993,15.795217086791991,15.795460803985595,15.799198226928711,234.0,1000.0,267.63819982856467,26.443844979182813,234000,117000.0,7224.4768970012665
14.182660942077638,-8.529563041687013,-16.13006442642212,0.5362967053651809,117500.0,3.520964482307434,16.125902683258058,16.12577332687378,16.124239639282226,235.0,1000.0,30.21458529969869,25.96178292775011,235000,117500.0,7262.995053768158
14.168964073181153,-8.517077629089355,-15.917433586120605,0.528468420624733,118000.0,3.553897743463516,15.918205852508544,15.918486415863038,15.92123755645752,236.0,1000.0,275.2886620358967,23.328684583481287,236000,118000.0,7305.86073756218
14.155251544952392,-8.504167678833008,-16.179908210754395,0.5429528019428254,118500.0,3.9983185229301452,16.167428337097167,16.167682033538817,16.168011280059815,237.0,1000.0,26.776970412597606,25.21465939931937,237000,118500.0,7345.520207643509
14.141523540496825,-8.490860939025879,-15.967360034942628,0.5307595793008805,119000.0,3.2113581042289736,15.957162036895753,15.957111637115478,15.957910007476807,238.0,1000.0,26.839929935119248,27.103008380012415,238000,119000.0,7382.416481494904
14.127779426574707,-8.478120933532715,-15.931065940856934,0.5295262324810028,119500.0,3.4999875156879425,15.913579868316651,15.913758716583253,15.915626316070556,239.0,1000.0,31.24821319868469,25.57118543806908,239000,119500.0,7421.5230004787445
14.114019721984864,-8.464457874298096,-15.894610412597656,0.5289323912858963,120000.0,3.2274335100650786,15.872303310394287,15.87266040802002,15.873830211639405,240.0,1000.0,77.06661620139677,24.968638472271056,240000,120000.0,7461.573242664337
14.100244289398193,-8.452454235076905,-16.033858837127685,0.533899847984314,120500.0,3.9414466948509217,16.009135471343996,16.009424217224122,16.009679874420165,241.0,1000.0,283.8978226680595,12.242080374944067,241000,120500.0,7543.258706569672
14.086452976226807,-8.438491790771485,-16.126295028686524,0.5358009084463119,121000.0,3.1958010005950928,16.108289199829102,16.107752738952637,16.110033176422117,242.0,1000.0,262.48897683563564,22.58944932454525,242000,121000.0,7587.527161121368
14.072645767211913,-8.425754768371583,-16.203346370697023,0.5386976382732391,121500.0,3.410101883172989,16.179523014068604,16.179745071411133,16.181462715148925,243.0,1000.0,29.884503390174608,21.989252763616488,243000,121500.0,7633.003924846649
14.058822708129883,-8.413272422790527,-16.335931335449217,0.5369023075103759,122000.0,3.430728836774826,16.30463257598877,16.30447988510132,16.306144187927245,244.0,1000.0,26.498938652216268,24.191618290253313,244000,122000.0,7674.340556383133
14.044983657836914,-8.400178184509278,-16.257205474853517,0.5358030332326889,122500.0,3.3518462398052216,16.227118743896483,16.22710931777954,16.228508487701415,245.0,1000.0,282.938747966682,24.334618549778796,245000,122500.0,7715.434278011322
14.031128646850586,-8.385425132751465,-16.42178258895874,0.5410081065893173,123000.0,3.5461863949298857,16.387432151794435,16.38752572250366,16.390132999420167,246.0,1000.0,30.2766318867771,25.13073746957448,246000,123000.0,7755.226187944412
14.017257682800293,-8.373398792266846,-16.272730144500734,0.5422536504268646,123500.0,3.4315258684158327,16.262508819580077,16.26269652938843,16.262513763427734,247.0,1000.0,286.2250524497438,25.138848657892254,247000,123500.0,7795.005257606506
14.003370552062988,-8.36010652923584,-16.38521506500244,0.5420619583129883,124000.0,3.4514601249694823,16.37195724105835,16.37181421661377,16.373155059814454,248.0,1000.0,33.3639254920397,25.989202746042952,248000,124000.0,7833.482776641846
13.989467376708985,-8.346773509979249,-16.461581108093263,0.5424626457691193,124500.0,3.571992983341217,16.451795974731446,16.45181326675415,16.453957763671873,249.0,1000.0,26.811555003162344,25.38838861764741,249000,124500.0,7872.870862483978
13.975548160552979,-8.333128910064698,-16.488442806243896,0.5476691868305207,125000.0,3.5381942722797395,16.46142037963867,16.46170367050171,16.461825580596923,250.0,1000.0,261.1727596762053,26.453674811352425,250000,125000.0,7910.67279458046
13.961612686157226,-8.320669269561767,-16.474863803863524,0.541464879155159,125500.0,3.676892465591431,16.458521144866943,16.45869360733032,16.460383808135987,251.0,1000.0,25.23419273722765,11.845890118336383,251000,125500.0,7995.090259552002
13.947661003112794,-8.306764175415038,-16.409902961730957,0.5400639168024063,126000.0,3.040058757543564,16.40185414505005,16.40198191833496,16.403500900268554,252.0,1000.0,251.30779302634704,25.33622659238105,252000,126000.0,8034.559437036514
13.933693111419677,-8.294391864776612,-16.718717918395996,0.5501222778558731,126500.0,3.1458110556602477,16.704740825653076,16.704515689849853,16.70432978439331,253.0,1000.0,250.3218887670831,23.415651302735885,253000,126500.0,8077.265917062759
13.919708934783936,-8.281331680297852,-16.646640823364258,0.5499190486669541,127000.0,3.060657887458801,16.62438652038574,16.624419116973876,16.627245334625243,254.0,1000.0,26.83914547660122,25.8630496621198,254000,127000.0,8115.93111872673
13.905708442687988,-8.268208850860596,-16.721763328552246,0.5503650870323181,127500.0,3.4662493789196014,16.70364929199219,16.704081897735595,16.70389539337158,255.0,1000.0,27.93439213136984,24.23959644193601,255000,127500.0,8157.185932159424
13.891691585540771,-8.253865909576415,-16.619340900421143,0.5477021696567536,128000.0,3.373388777732849,16.59814896774292,16.597560039520264,16.599845428466796,256.0,1000.0,31.44066351155584,23.18666807272873,256000,128000.0,8200.314165592194
13.87765837097168,-8.241055946350098,-16.67315860748291,0.5511310431957245,128500.0,3.3160240519046784,16.652295917510987,16.65273592376709,16.654865699768067,257.0,1000.0,228.4415498659507,24.417397083386238,257000,128500.0,8241.26857328415
13.863608680725097,-8.226883270263672,-16.879293159484863,0.5550442717075348,129000.0,3.408557079792023,16.861853816986084,16.861857318878172,16.861340000152587,258.0,1000.0,32.90291483025625,23.619432719240308,258000,129000.0,8283.606594324112
13.849542568206788,-8.213445209503174,-16.66653667449951,0.547751643538475,129500.0,3.533871740818024,16.64715647506714,16.647071517944337,16.65116997909546,259.0,1000.0,247.849148937753,23.42349431257739,259000,129500.0,8326.298774242401
13.835459922790527,-8.200147090911866,-16.930904628753662,0.5553116518259048,130000.0,3.4048208293914795,16.912287830352785,16.9123426322937,16.91267321395874,260.0,1000.0,273.18602344758744,22.401714686910765,260000,130000.0,8370.938215970993
13.821360721588135,-8.185771991729736,-17.046745014190673,0.5594103517532348,130500.0,3.518652148246765,17.02588570022583,17.02616997909546,17.02695860671997,261.0,1000.0,76.45444374955034,11.981431783589091,261000,130500.0,8454.4006960392
13.80724496459961,-8.17386222076416,-17.021398483276368,0.5586172058582306,131000.0,3.4584829950332643,17.002170902252196,17.002405792236328,17.004730262756347,262.0,1000.0,29.989185802048418,22.41355776396046,262000,131000.0,8499.016550302505
13.793112571716309,-8.160918487548829,-17.000881008148195,0.5545761897563934,131500.0,3.130464849472046,16.977429542541504,16.977309509277344,16.979496208190916,263.0,1000.0,29.15824137142124,23.64662549930073,263000,131500.0,8541.305882930756
13.778963455200195,-8.146896102905274,-16.905649570465087,0.556176407456398,132000.0,3.9792953827381132,16.88492281341553,16.884675788879395,16.885948638916016,264.0,1000.0,269.57218711923673,23.618886865442718,264000,132000.0,8583.644881725311
13.764797733306885,-8.133521659851073,-17.209482349395753,0.5614721680879593,132500.0,3.6123737914562226,17.186588752746584,17.186491691589357,17.1868955078125,265.0,1000.0,27.39460744419737,23.56612132505067,265000,132500.0,8626.078680038452
13.750615222930907,-8.120251499176025,-17.004210865020752,0.5552915968894958,133000.0,3.3407865710258484,16.988287265777586,16.988159603118895,16.990505310058595,266.0,1000.0,255.41641064687715,22.70743051243518,266000,133000.0,8670.11712884903
13.736415966033935,-8.10720654296875,-17.165437049865723,0.5581390761137008,133500.0,3.41488032579422,17.143690048217774,17.143965465545655,17.144396369934082,267.0,1000.0,269.95402017326694,25.0859334298683,267000,133500.0,8709.980107784271
13.72219981765747,-8.093619190216064,-17.28359262466431,0.5572124325037002,134000.0,3.575841551542282,17.237204235076906,17.236976474761963,17.238032386779786,268.0,1000.0,27.943535437104078,22.5367880488327,268000,134000.0,8754.35200381279
13.707966876983642,-8.079957542419434,-17.17729626083374,0.5603887848854064,134500.0,3.425979689359665,17.160029262542725,17.159952754974366,17.16171007156372,269.0,1000.0,28.17868819570792,24.07726190398831,269000,134500.0,8795.884966611862
13.693717018127442,-8.0670202293396,-17.442667667388918,0.5669355784654617,135000.0,3.1079957394599913,17.42981447982788,17.429852375030517,17.431227954864504,270.0,1000.0,29.875164250149755,23.795344866143783,270000,135000.0,8837.909994840622
13.679450252532959,-8.053738418579101,-17.105382720947265,0.5592978786230087,135500.0,3.4491830055713653,17.091497451782228,17.092013496398927,17.092881191253664,271.0,1000.0,262.5609358560691,10.928813925276463,271000,135500.0,8929.411233186722
13.665166328430177,-8.03999645614624,-17.238902347564697,0.5631122595071792,136000.0,3.434339632034302,17.21521537017822,17.215280227661133,17.216422412872316,272.0,1000.0,292.355660235478,24.03632456357419,272000,136000.0,8971.01493358612
13.650865558624268,-8.025979572296142,-17.449982662200927,0.5682117607593536,136500.0,3.517548019170761,17.4231068649292,17.423097621917723,17.425423332214354,273.0,1000.0,30.57849959079058,23.69374534414083,273000,136500.0,9013.220165729523
13.63654768371582,-8.011471452713012,-17.37122850036621,0.5648143185377121,137000.0,3.2901185176372527,17.33471311569214,17.334582107543945,17.335827617645265,274.0,1000.0,274.55818111648546,21.195429899157645,274000,137000.0,9060.400149583817
13.622212726593018,-7.998802684783936,-17.580452381134034,0.5748793725967407,137500.0,3.3099856894016266,17.558226608276367,17.558355098724366,17.560314418792725,275.0,1000.0,28.112018195551773,23.199786019887433,275000,137500.0,9103.503996610641
13.607860603332519,-7.986554712295532,-17.53522226333618,0.5676694884300232,138000.0,3.1559331300258635,17.52043684387207,17.52090539932251,17.522021259307863,276.0,1000.0,28.01460289668666,22.445401918270633,276000,138000.0,9148.056552648544
13.593491271972656,-7.971098724365234,-17.469973442077638,0.5688869380950927,138500.0,3.573877748250961,17.45338236618042,17.453277706146242,17.454726818084715,277.0,1000.0,26.698564851460272,21.87803415751314,277000,138500.0,9193.764499902725
13.579104801177978,-7.958209463119507,-17.338799144744872,0.5643772062063217,139000.0,3.1039942088127135,17.341868343353273,17.342075199127198,17.342941345214843,278.0,1000.0,26.27022830042795,21.777530805963202,278000,139000.0,9239.68338894844
13.56470092010498,-7.945013380050659,-17.45024802017212,0.564476846575737,139500.0,3.2678226454257966,17.435372718811035,17.435217357635498,17.435666038513183,279.0,1000.0,284.4675132437279,24.064541264174217,279000,139500.0,9281.238306045532
13.550279819488525,-7.931250244140625,-17.419403968811036,0.5676208971738815,140000.0,3.275957251548767,17.40451052093506,17.404443702697755,17.40507967376709,280.0,1000.0,266.1524013079788,22.16299238653879,280000,140000.0,9326.358568191528
13.53584119796753,-7.918324502944946,-17.477546772003173,0.5707851530313491,140500.0,3.4739430055618286,17.4592735748291,17.45928279876709,17.461264472961425,281.0,1000.0,28.344816266317157,10.71022675302852,281000,140500.0,9419.727274656296
13.521385467529297,-7.90346586227417,-17.459425243377687,0.5703042216300964,141000.0,2.9813998453617097,17.437899948120116,17.437908683776854,17.43919909286499,282.0,1000.0,31.089368355961614,22.87873355478386,282000,141000.0,9463.43598818779
13.506912162780761,-7.890358276367188,-17.559743324279786,0.5698209475278855,141500.0,3.3401497609615327,17.53657899093628,17.536469207763673,17.537160110473632,283.0,1000.0,26.64180783682541,22.520375247522274,283000,141500.0,9507.840223550797
13.49242144393921,-7.876297889709472,-17.35972378540039,0.5612066398859024,142000.0,3.2667644925117494,17.34196056365967,17.342148654937745,17.342249893188477,284.0,1000.0,81.05101475577713,20.99315995921756,284000,142000.0,9555.47478723526
13.477913097381592,-7.862970348358155,-17.505393970489504,0.5708072515726089,142500.0,2.994943398237228,17.494868019104004,17.494836608886718,17.497734127044676,285.0,1000.0,78.99534344747786,22.86114248067692,285000,142500.0,9599.217133760452
13.463387218475342,-7.84907904624939,-17.402291744232176,0.5636306010484695,143000.0,3.0607765548229215,17.377523681640625,17.377999706268312,17.379364849090575,286.0,1000.0,241.83954564816025,24.12471354338546,286000,143000.0,9640.668404340744
13.448843761444092,-7.834651592254638,-17.42361502838135,0.5623889718055725,143500.0,3.0442921051979064,17.419962760925294,17.419638137817383,17.420368118286135,287.0,1000.0,256.7739177591553,23.62642544358835,287000,143500.0,9682.993894338608
13.434282634735107,-7.821686319351196,-17.401689796447755,0.5683942990303039,144000.0,3.815190724134445,17.399692283630372,17.399641937255858,17.400681064605713,288.0,1000.0,278.4700869522427,23.270363876396075,288000,144000.0,9725.967009067535
13.41970392227173,-7.807409069061279,-17.691796451568603,0.5742756208181381,144500.0,3.0442391085624694,17.682715400695802,17.682641277313234,17.68358936691284,289.0,1000.0,29.04534917497132,23.232503268571858,289000,144500.0,9769.01015496254
13.405107349395752,-7.793615243911743,-17.768211799621582,0.5776246333122254,145000.0,3.727047855615616,17.745446384429933,17.7457706451416,17.747529598236085,290.0,1000.0,29.39055179330021,21.39357697929877,290000,145000.0,9815.75315785408
13.390493003845215,-7.779214143753052,-17.684540687561036,0.5804865194559097,145500.0,3.1419942927360536,17.682825691223144,17.6825877494812,17.683144298553465,291.0,1000.0,33.75282403248364,10.69972141975451,291000,145500.0,9909.213535785675
13.375860866546631,-7.767305442810058,-17.523820320129396,0.5783743185997009,146000.0,3.5930001928806306,17.512594718933105,17.513184688568114,17.51381974029541,292.0,1000.0,31.8733769354099,23.466559854001805,292000,146000.0,9951.827368021011
13.361210918426513,-7.752703430175782,-17.46601544570923,0.5691436258554459,146500.0,3.281753700733185,17.457405857086183,17.45700631713867,17.458972679138185,293.0,1000.0,288.70863691166466,21.88944466861146,293000,146500.0,9997.511488199234
13.346543022155762,-7.738599662780762,-17.48656267929077,0.568078722834587,147000.0,3.4428488714694976,17.472400718688966,17.47297673034668,17.473041194915773,294.0,1000.0,249.55157742028877,22.5932803490899,294000,147000.0,10041.77243733406
13.33185712814331,-7.724773155212402,-17.548805397033693,0.5728996785879135,147500.0,3.261644477367401,17.531860050201416,17.531555950164794,17.53381246948242,295.0,1000.0,250.33713126867687,23.229212198216306,295000,147500.0,10084.821682453156
13.317153255462646,-7.710831666946411,-17.83349733734131,0.5788801696300506,148000.0,3.3707316324710845,17.800016670227052,17.800289421081544,17.801468185424806,296.0,1000.0,272.14641397752246,22.871971183754063,296000,148000.0,10128.543319702148
13.302431411743164,-7.697057138442993,-17.973765003204345,0.5871639695167542,148500.0,3.6756846318244936,17.961455039978027,17.96114977645874,17.962817569732668,297.0,1000.0,28.698426235930313,23.40202768280421,297000,148500.0,10171.27466058731
13.287691413879395,-7.684051038742066,-18.133475036621093,0.5842391083240509,149000.0,3.4836524891853333,18.104246936798095,18.1041736907959,18.10429479598999,298.0,1000.0,180.27598012385172,20.058413288101974,298000,149000.0,10221.129054546356
13.272933334350586,-7.669118537902832,-17.962851974487304,0.5806344300508499,149500.0,3.166363452196121,17.92926041793823,17.92918927001953,17.93234282684326,299.0,1000.0,27.859024463057537,21.858622806764878,299000,149500.0,10266.877591371536
13.258157070159912,-7.654886571884155,-17.99946671295166,0.5842994810342789,150000.0,3.3723468875885008,17.985492683410644,17.985335418701172,17.986959308624268,300.0,1000.0,31.42454227887215,23.339202637599488,300000,150000.0,10309.723957538605
13.243362525939942,-7.642237386703491,-17.866950214385987,0.5802718305587768,150500.0,3.9398234939575194,17.8526025390625,17.852793209075926,17.85277627182007,301.0,1000.0,34.408847641231375,10.66365520158001,301000,150500.0,10403.500434160233
13.22854981994629,-7.62745050239563,-17.736213081359864,0.5765212812423706,151000.0,3.063914354324341,17.71682593154907,17.717079975128176,17.717753383636474,302.0,1000.0,28.930747842042216,21.42662165828826,302000,151000.0,10450.171349287033
13.213718811035156,-7.614332500457763,-17.819299125671385,0.5837572611570359,151500.0,3.131080118894577,17.80529605484009,17.804965023040772,17.806217418670656,303.0,1000.0,28.297531377612408,20.184704669750527,303000,151500.0,10499.713813781738
13.198869342803954,-7.600155153274536,-17.925796104431154,0.5818503082990646,152000.0,3.337873188495636,17.914013515472412,17.914173858642577,17.915975284576415,304.0,1000.0,29.869780399309033,19.49755785453044,304000,152000.0,10551.002289533615
13.184001663208008,-7.585884037017823,-17.80808116149902,0.5791272109746933,152500.0,3.5726159946918488,17.78589031600952,17.78582594680786,17.786376689910888,305.0,1000.0,29.333812141770913,22.642667632035987,305000,152500.0,10595.166697978973
13.169115287780762,-7.5713112354278564,-17.610270126342773,0.5701150230169296,153000.0,3.0700395154953,17.596092792510987,17.59589432525635,17.596998237609863,306.0,1000.0,27.17773527653378,23.03709884972799,306000,153000.0,10638.574942827225
13.154210540771484,-7.5572432346344,-17.571618434906007,0.5748721929788589,153500.0,2.9316542794704437,17.569625988006592,17.569550884246826,17.570431827545168,307.0,1000.0,71.45608981283804,20.375523409330196,307000,153500.0,10687.653439044952
13.139287265777588,-7.543518930435181,-17.49384386444092,0.5715349265336991,154000.0,3.284561485528946,17.481970809936524,17.482309303283692,17.484553981781005,308.0,1000.0,28.570206813310286,21.551743473135247,308000,154000.0,10734.053398370743
13.124345428466796,-7.529477886199951,-17.67798513793945,0.5779262720346451,154500.0,3.11832528591156,17.656734394073485,17.65705489730835,17.65781644439697,309.0,1000.0,247.127149921566,19.49602133359036,309000,154500.0,10785.345916748047
13.109384876251221,-7.515428197860718,-17.760317558288573,0.5750891041755676,155000.0,3.3107793836593626,17.745231922149657,17.74486545944214,17.74533246612549,310.0,1000.0,92.97393501991588,21.966672886789283,310000,155000.0,10830.86942577362
13.094405796051026,-7.50115580368042,-17.68382865524292,0.5766080545186997,155500.0,3.4632253518104554,17.67223125076294,17.672618091583253,17.674567687988283,311.0,1000.0,29.048509897203527,10.985597432693236,311000,155500.0,10921.897702932358
13.079407859802247,-7.487299772262573,-17.543951148986817,0.5698295700550079,156000.0,3.1854677815437316,17.516634658813476,17.516684707641602,17.517410537719726,312.0,1000.0,38.66825701505398,20.520373032364105,312000,156000.0,10970.629761695862
13.064391315460204,-7.473258323669434,-17.675756355285646,0.5761055057048797,156500.0,3.177304954767227,17.66613962173462,17.666116931915283,17.66788709640503,313.0,1000.0,30.809192306755254,22.08204003634354,313000,156500.0,11015.915433168411
13.049355751037597,-7.45810737991333,-17.423435234069824,0.5709628614187241,157000.0,3.7137934846878053,17.39876170349121,17.398572368621828,17.39872850418091,314.0,1000.0,36.15325509959328,21.810858318207675,314000,157000.0,11061.764157056808
13.034301429748535,-7.4444931011199955,-17.482771438598633,0.5696867030858993,157500.0,3.1523646938800813,17.467607769012453,17.467868381500246,17.46904468154907,315.0,1000.0,30.10683252933387,23.527340526833886,315000,157500.0,11104.267899513245
13.019228210449219,-7.431286489486694,-17.378627967834472,0.5664736535549164,158000.0,3.2097951815128325,17.357524436950683,17.357269435882568,17.35747957992554,316.0,1000.0,28.868096177445654,23.110666137220615,316000,158000.0,11147.53796505928
13.0041360206604,-7.4163773021698,-17.483925407409668,0.5676642682552338,158500.0,3.1791174325942992,17.472464790344237,17.472646884918213,17.473433513641357,317.0,1000.0,30.734247975004248,21.42105169454642,317000,158500.0,11194.221015930176
12.989024787902832,-7.402856033325195,-17.399506546020508,0.5660526378154754,159000.0,2.7433497517108916,17.38768378829956,17.387763542175293,17.39026089859009,318.0,1000.0,27.85245486601012,22.641818864596164,318000,159000.0,11238.387080192566
12.973894538879394,-7.387259532928467,-17.310852462768555,0.5677530773878098,159500.0,2.961611693739891,17.298043979644774,17.298138275146485,17.297381286621093,319.0,1000.0,31.712457533402947,19.491791669207913,319000,159500.0,11289.690728187561
12.958745124816895,-7.373941040039062,-17.261961776733397,0.5641325138807297,160000.0,3.0564776833057405,17.243451644897462,17.243490234375,17.244239044189452,320.0,1000.0,40.50226573431167,22.689798593945742,320000,160000.0,11333.763399839401
12.943576683044434,-7.359912437438965,-17.3152654838562,0.5671497174501419,160500.0,3.014099506378174,17.306316131591796,17.306339294433595,17.308260887145995,321.0,1000.0,277.427245181138,11.035588469372074,321000,160500.0,11424.379320144653
12.928388961791992,-7.344019418716431,-17.35658332824707,0.5639049090147018,161000.0,3.7903932726383207,17.33466887283325,17.33449906539917,17.333587268829344,322.0,1000.0,265.9481488190154,18.7592291043417,322000,161000.0,11477.686415195465
12.913182018280029,-7.331814283370972,-17.432317726135253,0.5676449836492539,161500.0,3.4795329357385634,17.422780681610107,17.4226916847229,17.425489490509033,323.0,1000.0,27.844683308277986,22.929931765053528,323000,161500.0,11521.29753780365
12.897955783843994,-7.316025003433228,-17.537169925689696,0.5698155096769333,162000.0,2.976833966732025,17.534321296691896,17.53422470474243,17.534787719726562,324.0,1000.0,300.28407431760473,22.809662793258646,324000,162000.0,11565.138608455658
12.88271021270752,-7.302169044494629,-17.55575489425659,0.5737209498882294,162500.0,3.5236026861667633,17.54484655380249,17.545105781555176,17.545470287323,325.0,1000.0,266.99855577955327,21.10453396337089,325000,162500.0,11612.521792411804
12.867445140838623,-7.288234172821045,-17.571892154693604,0.5724708169698716,163000.0,3.006712990283966,17.56764489364624,17.56753463745117,17.56879712295532,326.0,1000.0,36.78607523110134,21.60458277767419,326000,163000.0,11658.80826997757
12.852160758972168,-7.273005159378052,-17.497499225616455,0.5731389589309692,163500.0,3.0873219472169877,17.469055404663084,17.468654411315917,17.47030959701538,327.0,1000.0,30.86155603102114,22.548220678396895,327000,163500.0,11703.157667636871
12.836856815338134,-7.259022287368774,-17.605418231964112,0.575083120584488,164000.0,3.3369149923324586,17.581681114196776,17.581785621643068,17.584581081390382,328.0,1000.0,33.97834892290935,22.07577336318873,328000,164000.0,11748.456195116043
12.821533363342285,-7.244531946182251,-17.511461212158203,0.5689640772342682,164500.0,3.250595977783203,17.50279132461548,17.502808811187744,17.503684783935547,329.0,1000.0,261.8113502013893,20.116782359438044,329000,164500.0,11798.165934801102
12.806190246582032,-7.231161405563355,-17.682507774353027,0.571396011352539,165000.0,3.589222316145897,17.673110786437988,17.67309204864502,17.673503242492675,330.0,1000.0,256.255858827207,21.515329969610338,330000,165000.0,11844.644423484802
12.790827625274659,-7.215733581542969,-17.741067764282228,0.5755078485012054,165500.0,3.4671654088497164,17.7222140045166,17.72185961151123,17.723938278198244,331.0,1000.0,253.82455825967023,11.324702512258506,331000,165500.0,11932.946965456009
12.775445205688477,-7.201054315567017,-17.83835906600952,0.579547466635704,166000.0,3.317332901239395,17.834212368011475,17.83422381210327,17.834509811401368,332.0,1000.0,281.9862551614496,22.065544711359614,332000,166000.0,11978.26649069786
12.760043113708496,-7.187778387069702,-18.055986358642578,0.5861820672750473,166500.0,3.3532499566078187,18.041822849273682,18.0419178314209,18.043379192352294,333.0,1000.0,28.01436956641647,21.86164781574133,333000,166500.0,12024.008697986603
12.744621196746825,-7.172753015518189,-18.084706424713136,0.5885307129621505,167000.0,3.1255467035770415,18.062682655334473,18.063070331573485,18.06385803604126,334.0,1000.0,260.38906359169636,22.441290556977393,334000,167000.0,12068.569416046143
12.729179405212403,-7.15828364944458,-18.056172397613526,0.5878066971302033,167500.0,3.3131122102737427,18.049308712005615,18.04953988647461,18.050739013671876,335.0,1000.0,281.8060188055298,20.884811275937015,335000,167500.0,12116.451105356216
12.713717742919922,-7.143989265441895,-18.08895218658447,0.5927905975580215,168000.0,3.0652826788425447,18.084823055267336,18.08470071029663,18.085086124420165,336.0,1000.0,275.6756416004456,20.1257558403383,336000,168000.0,12166.138680934906
12.698236122131348,-7.1289546566009525,-18.198867683410644,0.586565263748169,168500.0,3.2207579572200773,18.16949697113037,18.16951894378662,18.172096546173094,337.0,1000.0,27.018028309744093,19.2003696164903,337000,168500.0,12218.221013307571
12.682734508514404,-7.114519666671753,-18.314747665405275,0.590417955994606,169000.0,3.1967583792209626,18.301121330261232,18.30097318649292,18.302113079071045,338.0,1000.0,29.305283359850307,19.908080791123012,338000,169000.0,12268.451873779297
12.66721284866333,-7.100018329620362,-18.18562152862549,0.5884851285219193,169500.0,3.140140106201172,18.16881632232666,18.16885460662842,18.171453048706056,339.0,1000.0,262.2679816375274,20.000225546519363,339000,169500.0,12318.45131111145
12.65167105102539,-7.0858640995025635,-18.205112155914307,0.5879381846189499,170000.0,2.946256227493286,18.17969762802124,18.179693908691405,18.17903266143799,340.0,1000.0,34.27573459765803,20.9152059126562,340000,170000.0,12366.263416051865
12.636109134674072,-7.070952587127685,-18.278652950286865,0.584639807343483,170500.0,3.020265673995018,18.258460090637207,18.258387950897216,18.260868766784668,341.0,1000.0,263.61737904094605,11.118958884701755,341000,170500.0,12456.19989490509
12.620527046203613,-7.056445638656617,-18.470439666748046,0.5966667498350143,171000.0,3.0410856618881223,18.466302322387694,18.46637269592285,18.46789041900635,342.0,1000.0,30.342990549923474,20.248051843150744,342000,171000.0,12505.587364196777
12.604924648284912,-7.040798103332519,-18.476397075653075,0.5993919583559036,171500.0,3.2654898636341096,18.467236640930174,18.467032627105713,18.467958251953124,343.0,1000.0,30.309333084809772,20.784322466371805,343000,171500.0,12553.70055270195
12.589301887512207,-7.027475091934204,-18.22939434814453,0.586274747133255,172000.0,2.9745068331956865,18.217265907287597,18.217478328704836,18.217634227752686,344.0,1000.0,26.243399734993794,22.17378553425968,344000,172000.0,12598.79885315895
12.57365888595581,-7.012518573760986,-18.349370464324952,0.5961903246641159,172500.0,3.2613777551651,18.32831537628174,18.328393272399904,18.329212787628173,345.0,1000.0,37.97037404829155,20.605750617705212,345000,172500.0,12647.328995466232
12.557995349884033,-6.997266262054444,-18.207191947937012,0.58521242249012,173000.0,3.2606629178524016,18.177863651275636,18.178118888854982,18.18012000274658,346.0,1000.0,27.11264237001797,18.66471311035424,346000,173000.0,12700.906032085419
12.542311393737792,-6.98277261352539,-18.20279846572876,0.5872312939167023,173500.0,3.5539234380722045,18.181077934265137,18.181010749816895,18.181286403656006,347.0,1000.0,278.90353854389906,20.617446691590896,347000,173500.0,12749.408644676208
12.526606861114502,-6.9677732391357425,-18.449657455444335,0.5967038385868072,174000.0,2.8594285850524903,18.41875054168701,18.418991832733155,18.420400608062746,348.0,1000.0,30.131507332249257,20.124279482222448,348000,174000.0,12799.099866390228
12.510881664276123,-6.953656686782837,-18.336182559967042,0.5887373136281967,174500.0,3.125244556427002,18.30127615356445,18.30111612701416,18.302838344573974,349.0,1000.0,27.6812616659847,19.672409549543104,349000,174500.0,12849.932480573654
12.495136150360107,-6.938993350982666,-18.195587768554688,0.579792865395546,175000.0,2.9869386944770815,18.167857273101806,18.16775604248047,18.168474922180177,350.0,1000.0,262.17246822147774,21.484352129870576,350000,175000.0,12896.477986574173
12.479369739532471,-6.924183919906616,-18.474585353851317,0.5865341324806214,175500.0,2.746683074951172,18.43465260696411,18.434658493041994,18.43664515686035,351.0,1000.0,25.62647219958883,10.945849748395231,351000,175500.0,12987.836814641953
12.46358263015747,-6.908213579177857,-18.415458877563477,0.5886724123954773,176000.0,2.764721218824387,18.38682656478882,18.386932842254637,18.388445056915284,352.0,1000.0,292.428213000851,21.521088432511945,352000,176000.0,13034.302867412567
12.447774696350098,-6.89471947479248,-18.526878143310547,0.5895034725666046,176500.0,3.1794697213172913,18.48977415084839,18.489882621765137,18.490646133422853,353.0,1000.0,31.62561045918084,19.679682470833743,353000,176500.0,13085.11669588089
12.431945896148681,-6.88033702468872,-18.540596458435058,0.5912365473508835,177000.0,3.102449343800545,18.509920204162597,18.509725444793702,18.511339431762696,354.0,1000.0,27.954742189576734,19.131045332492807,354000,177000.0,13137.387756347656
12.416096248626708,-6.864222606658935,-18.540207424163818,0.5877823456525803,177500.0,3.202996624946594,18.51064870071411,18.510823917388915,18.512674518585204,355.0,1000.0,26.08771338783432,20.495069380041283,355000,177500.0,13186.179980754852
12.400225639343262,-6.850601654052735,-18.389788467407225,0.586581447839737,178000.0,3.046147149562836,18.371469234466552,18.37130625152588,18.371857837677002,356.0,1000.0,40.879349727316345,19.931723540533927,356000,178000.0,13236.351258993149
12.384333930969238,-6.834787675857544,-18.498965866088867,0.5896913495063781,178500.0,3.03755456161499,18.488766761779786,18.4889854927063,18.489840538024904,357.0,1000.0,25.749877346111948,17.590123136196482,357000,178500.0,13293.201345920563
12.368421211242676,-6.819949178695679,-18.489431587219237,0.5911483186483383,179000.0,2.772106964826584,18.47188399887085,18.471231079101564,18.47210525894165,358.0,1000.0,28.925308315115448,21.742475908125403,358000,179000.0,13339.194269657135
12.352487335205078,-6.804613901138306,-18.21978606414795,0.5812519170045852,179500.0,2.7194019845724107,18.20072646331787,18.200816688537596,18.202080097198486,359.0,1000.0,30.359702493198377,20.67112137293886,359000,179500.0,13387.570940732956
12.33653229522705,-6.789346788406372,-18.141992126464842,0.5823973505496979,180000.0,3.148011542201042,18.133048194885255,18.132632114410402,18.13264214706421,360.0,1000.0,29.86052414375186,20.652175004856407,360000,180000.0,13435.991991519928
12.320555976867675,-6.774460275650024,-18.330819355010988,0.5842092208862305,180500.0,2.518305895447731,18.30235785675049,18.302686504364015,18.305118843078613,361.0,1000.0,273.4794504539019,10.666165876377335,361000,180500.0,13529.74639415741
12.304558372497558,-6.760377725601196,-18.213902130126954,0.5806194971799851,181000.0,2.6870996549129487,18.195069107055666,18.19543537902832,18.19599375152588,362.0,1000.0,29.501243481366913,21.266800055038182,362000,181000.0,13576.76804471016
12.288539390563965,-6.745261257171631,-18.32159340286255,0.5861151231527328,181500.0,3.0002661552429197,18.311687564849855,18.311296543121337,18.31335618209839,363.0,1000.0,33.6867517810215,19.699654829668273,363000,181500.0,13627.53035569191
12.272499073028564,-6.730725757598877,-18.31022854232788,0.5881922466754913,182000.0,3.361974512577057,18.28862378311157,18.28861834335327,18.288573013305665,364.0,1000.0,275.65660570698884,19.282929838844183,364000,182000.0,13679.38969707489
12.256437313079834,-6.715481611251831,-18.28546061325073,0.5830033988952636,182500.0,3.141113717675209,18.26905095291138,18.26906759262085,18.272285495758055,365.0,1000.0,31.05280109291975,20.338833006464682,365000,182500.0,13728.556727409363
12.240353923797608,-6.699868993759155,-18.3344013671875,0.5853348833322525,183000.0,3.3440090405941008,18.319018363952637,18.318886623382568,18.318178035736086,366.0,1000.0,267.2253352983353,21.243272115562036,366000,183000.0,13775.630456447601
12.224248962402344,-6.685263973236084,-18.51288631439209,0.5890365015268326,183500.0,2.664433410644531,18.487370716094972,18.48744046020508,18.489489448547364,367.0,1000.0,28.816438249939527,20.265798720711985,367000,183500.0,13824.974675416946
12.20812240600586,-6.668927089691162,-18.483856533050538,0.5927116695642471,184000.0,3.108819658994675,18.456324447631836,18.456755992889406,18.455676231384277,368.0,1000.0,31.293513395824082,20.552347877245303,368000,184000.0,13873.630917787552
12.191974132537842,-6.654111963272094,-18.32778176498413,0.5843721479177475,184500.0,3.0534376990795136,18.31537855911255,18.315836975097657,18.316889892578125,369.0,1000.0,27.164856908745353,21.37601055231771,369000,184500.0,13920.412333250046
12.175804042816162,-6.638547288894653,-18.432033912658692,0.5864088615179062,185000.0,3.228636881828308,18.404045188903808,18.403847736358642,18.4061612739563,370.0,1000.0,259.66760189791694,19.074232596781457,370000,185000.0,13972.839082717896
12.15961217880249,-6.624752893447876,-18.505671535491942,0.5869986369609833,185500.0,2.9370288635492323,18.489364582061768,18.490027378082274,18.49023958206177,371.0,1000.0,29.19183641317093,10.647572003543612,371000,185500.0,14066.75720858574
12.14339845275879,-6.609470024108886,-18.393329204559326,0.5843958994150161,186000.0,2.4824797041416167,18.380364364624022,18.380112136840822,18.381460594177245,372.0,1000.0,251.70375364789624,19.656297203005256,372000,186000.0,14117.631491661072
12.12716279220581,-6.593960039138794,-18.457972316741944,0.5823908177614212,186500.0,2.6953497796058654,18.436056438446045,18.436040000915526,18.438831954956054,373.0,1000.0,30.404833835018493,21.172737225496228,373000,186500.0,14164.862042188644
12.110905097961426,-6.578658992767334,-18.39799314880371,0.5833141976594924,187000.0,2.844204121351242,18.375272071838378,18.375055221557616,18.37516208267212,374.0,1000.0,24.674475569065816,20.602361630698923,374000,187000.0,14213.40016746521
12.094625343322754,-6.5650911674499515,-18.539906330108643,0.5930630061626434,187500.0,3.192005543470383,18.521798637390138,18.522133365631102,18.523045055389403,375.0,1000.0,27.586098427398632,19.637735510327083,375000,187500.0,14264.322537660599
12.078323429107666,-6.548858251571655,-18.50632190322876,0.5893237254619599,188000.0,2.6339670456647872,18.48091877746582,18.48078023147583,18.481837913513182,376.0,1000.0,285.99661707024256,18.82253406336675,376000,188000.0,14317.450348377228
12.061999507904053,-6.5337888011932375,-18.47879141998291,0.5813272047042847,188500.0,2.8468389141559602,18.4559977684021,18.45620732879639,18.455594100952148,377.0,1000.0,262.4106905703391,19.833960266141293,377000,188500.0,14367.868923664093
12.045653240203858,-6.5180643405914305,-18.608612651824952,0.5867550718784332,189000.0,2.597283077955246,18.578800163269044,18.57885507965088,18.581088718414307,378.0,1000.0,28.00905598725058,21.43820901519812,378000,189000.0,14414.514611721039
12.029284729003907,-6.5029503517150875,-18.53912236404419,0.5889814312458038,189500.0,2.4639478209018706,18.514186401367187,18.51395018386841,18.514392307281494,379.0,1000.0,27.761077294505373,19.87619751393139,379000,189500.0,14464.826046943665
12.012893711090088,-6.4884943065643315,-18.52813775253296,0.5875828368663788,190000.0,2.7656698809862137,18.509547130584718,18.509611164093016,18.511543617248535,380.0,1000.0,262.4519282233819,20.955897169101462,380000,190000.0,14512.545313119888
11.996480430603027,-6.47274066734314,-18.601885971069336,0.5870883156061173,190500.0,3.006998635649681,18.56505019378662,18.56546472930908,18.56620919418335,381.0,1000.0,27.159173120908044,10.25797843453283,381000,190500.0,14610.030409097672
11.980044605255127,-6.457316541671753,-18.590373260498048,0.5925220836400986,191000.0,2.725019772052765,18.56382721710205,18.563565734863282,18.564330615997314,382.0,1000.0,272.67790766288516,18.209506750548552,382000,191000.0,14664.946779966354
11.963586273193359,-6.4415866432189945,-18.665203189849855,0.5871933150291443,191500.0,2.5154174176454545,18.631458316802977,18.631221935272215,18.632770767211912,383.0,1000.0,39.11333737555897,18.47285698062892,383000,191500.0,14719.080259084702
11.94710530090332,-6.427133598327637,-18.580733798980713,0.589722640633583,192000.0,2.846861432790756,18.553828495025634,18.5537215423584,18.55494985961914,384.0,1000.0,33.50799281255424,19.5343706838236,384000,192000.0,14770.272081136703
11.930601676940919,-6.409027486801148,-18.67321909713745,0.5904891794919968,192500.0,2.7386332873106003,18.635594509124754,18.63585639190674,18.638079135894774,385.0,1000.0,30.16250631135411,20.25454349184008,385000,192500.0,14819.643721342087
11.914075313568116,-6.395758598327637,-18.80912083053589,0.5910146930217743,193000.0,2.7870311603546143,18.787979412078858,18.788030101776123,18.78850005722046,386.0,1000.0,28.156265863017342,19.697129138769434,386000,193000.0,14870.412542104721
11.897526191711426,-6.379691421508789,-18.702134742736817,0.5918270864486694,193500.0,3.2847847732305526,18.68891904449463,18.688528030395506,18.689916805267334,387.0,1000.0,29.5289454243196,20.715222361399153,387000,193500.0,14918.686222553253
11.880954223632813,-6.3641373043060305,-18.548710338592528,0.5851167294979095,194000.0,2.7891143360137938,18.52755480194092,18.527355587005616,18.52760966491699,388.0,1000.0,28.19369719238152,18.21167433687748,388000,194000.0,14973.596056938171
11.864359268188476,-6.350531538009643,-18.68315267944336,0.5926172223091125,194500.0,2.968632327079773,18.665971164703368,18.666016262054445,18.667683444976806,389.0,1000.0,34.563306599327234,19.43786749255952,389000,194500.0,15025.042030572891
11.847741374969482,-6.333627052307129,-18.45318407058716,0.581361829161644,195000.0,2.7401458142995834,18.419783668518065,18.419502853393556,18.420831394195556,390.0,1000.0,28.910484162834244,18.43917384701881,390000,195000.0,15079.274396419525
11.831100399017334,-6.318453607559204,-18.560237148284912,0.5884148069620132,195500.0,2.779621922016144,18.53187523651123,18.531807609558104,18.531947467803956,391.0,1000.0,28.358135406070367,9.454447755420263,391000,195500.0,15185.044721603394
11.814436367034912,-6.304003658294678,-18.507064365386963,0.5857391241788864,196000.0,2.91576557803154,18.494892127990724,18.495344165802003,18.496199699401856,392.0,1000.0,27.739027966357387,19.25665790289011,392000,196000.0,15236.974813461304
11.797749099731446,-6.287606550216675,-18.41617223739624,0.5843483717441559,196500.0,2.5978083688020708,18.39422702026367,18.394227672576903,18.39573163986206,393.0,1000.0,26.253651295959607,18.080284914981725,393000,196500.0,15292.283677577972
11.781038692474365,-6.27149891090393,-18.463680732727052,0.5842955223321915,197000.0,2.779539862394333,18.44363953399658,18.443673206329347,18.44352878189087,394.0,1000.0,27.95217620539834,20.23433121059515,394000,197000.0,15341.704635620117
11.76430487060547,-6.255892116546631,-18.43207354736328,0.5821811978816986,197500.0,2.704380128860474,18.40458885192871,18.40449313735962,18.40572635650635,395.0,1000.0,28.417127454373677,18.100262351062124,395000,197500.0,15396.952455043793
11.747547760009766,-6.239345880508423,-18.36437663269043,0.5776730971336365,198000.0,3.1051277158260344,18.348204948425295,18.348208656311034,18.349078899383546,396.0,1000.0,261.7989527184328,19.386373314876476,396000,198000.0,15448.535080194473
11.73076721572876,-6.225294507980347,-18.316220596313478,0.5807139593362808,198500.0,2.7100638659000396,18.28647043991089,18.28619087600708,18.287493980407714,397.0,1000.0,29.447883356234943,19.449572476611312,397000,198500.0,15499.950092554092
11.713963138580322,-6.2088982791900635,-18.35501544189453,0.578335434794426,199000.0,2.549781007409096,18.342929920196532,18.343307834625243,18.343480072021485,398.0,1000.0,29.431096524759017,20.36866762763485,398000,199000.0,15549.045106172562
11.697135471343994,-6.194035146713257,-18.30790816116333,0.5788201409578323,199500.0,2.552018497824669,18.293056648254396,18.292808391571047,18.29348305130005,399.0,1000.0,265.8212977111352,18.234629324875698,399000,199500.0,15603.88581609726
11.680284210205079,-6.1784553565979,-18.36323525619507,0.5828089872598649,200000.0,2.422334042787552,18.352935344696046,18.352878147125246,18.352912296295166,400.0,1000.0,27.63724086500371,19.315629875213958,400000,200000.0,15655.657361984253
11.66340923690796,-6.162003852844238,-18.413659412384032,0.5820452136993408,200500.0,2.930543948173523,18.38728056335449,18.387215503692627,18.38964808654785,401.0,1000.0,29.134839496862526,10.137467632788349,401000,200500.0,15754.30132818222
11.646510559082031,-6.146360902786255,-18.382987464904787,0.5818191982507706,201000.0,2.740852103114128,18.36833702468872,18.368591564178466,18.36913235473633,402.0,1000.0,27.014267943073808,20.71996726897413,402000,201000.0,15802.563954114914
11.629587997436523,-6.1316353149414065,-18.242234649658204,0.5762320846319199,201500.0,2.697213515043259,18.218463611602782,18.218536571502685,18.219405326843262,403.0,1000.0,260.3845543395868,18.46316385527045,403000,201500.0,15856.725853443146
11.612641544342042,-6.115376958847046,-18.369898593902587,0.5841691963672638,202000.0,2.6769501872062684,18.3409275932312,18.340845809936525,18.342369625091553,404.0,1000.0,40.456700317317356,19.58869670088982,404000,202000.0,15907.775702953339
11.595671127319337,-6.100337148666382,-18.399406097412108,0.5829653539657593,202500.0,2.832353289961815,18.374674690246582,18.374543949127197,18.375627143859862,405.0,1000.0,287.6876619669705,19.947287145616222,405000,202500.0,15957.90783405304
11.578676700592041,-6.0837203178405765,-18.51999753189087,0.5851496728658676,203000.0,2.7710858092308044,18.495462741851806,18.495363513946533,18.495652534484865,406.0,1000.0,31.987033956867723,19.3674395174091,406000,203000.0,16009.540886640549
11.561658096313476,-6.0665737171173095,-18.261619407653807,0.5754515974521637,203500.0,2.6054785043001174,18.23107099533081,18.231317962646486,18.231705142974853,407.0,1000.0,254.7706788283055,20.310877039327686,407000,203500.0,16058.775591373444
11.544615406036376,-6.052597148895264,-18.595462291717528,0.5893630430698394,204000.0,2.9888759100437166,18.564842761993408,18.565026412963867,18.56717496871948,408.0,1000.0,32.50602908894506,19.837166638383174,408000,204000.0,16109.1860165596
11.527548427581786,-6.037772966384888,-18.474193576812745,0.5818444269895554,204500.0,3.0210188388824464,18.445060932159425,18.444561588287353,18.445983264923097,409.0,1000.0,23.85056792324029,19.70099254898961,409000,204500.0,16159.94488120079
11.510457164764404,-6.019003265380859,-18.522643325805664,0.5828866987228394,205000.0,2.742877699494362,18.490552124023438,18.4908837890625,18.49136483001709,410.0,1000.0,77.89779142714832,18.662157176904497,410000,205000.0,16213.529255628586
11.493341567993165,-6.003928827285766,-18.542870361328124,0.5832118508815766,205500.0,2.6814281792640684,18.52354098510742,18.52406185913086,18.524710662841798,411.0,1000.0,29.08417068012138,10.784054939836533,411000,205500.0,16306.258754730225
11.476201484680177,-5.988620725631714,-18.41123171234131,0.5843822727203369,206000.0,2.686085855484009,18.396274913787842,18.396050815582274,18.397032344818115,412.0,1000.0,273.43577829749495,19.689926323514058,412000,206000.0,16357.046147108078
11.45903689956665,-5.972118185043335,-18.324228260040282,0.5813830306529999,206500.0,2.794489061117172,18.29719036102295,18.297055587768554,18.296539611816407,413.0,1000.0,271.84870945993214,20.572697682722737,413000,206500.0,16405.654260635376
11.441847637176513,-5.9564102745056156,-18.508575752258302,0.5861204153299332,207000.0,2.9197736299037933,18.494306484222413,18.494328426361083,18.494565269470215,414.0,1000.0,294.040647111103,20.308798514313278,414000,207000.0,16454.894003868103
11.424633819580079,-5.941792970657349,-18.64714178466797,0.5857012363672256,207500.0,2.6550178183317183,18.610027702331543,18.60983935546875,18.61204677581787,415.0,1000.0,27.29781480910073,20.092134682389656,415000,207500.0,16504.664724826813
