cmpe-260-team-4/drqv2/src/main/tex/others/walker_run_3090_train_R.csv
actor_ent,actor_logprob,actor_loss,batch_reward,buffer_size,critic_loss,critic_q1,critic_q2,critic_target_q,episode,episode_length,episode_reward,fps,frame,step,total_time
8.489292400360107,-5.605513387680054,-0.16862638530135154,0.0499467945098877,2500.0,0.010924013599171303,0.18074719235301018,0.1820301856547594,0.18047009742259978,5.0,1000.0,25.70937364037335,5.830725056106791,5000,2500.0,171.5052614212036
8.483867996215821,-5.598630397796631,-0.2712050290107727,0.04977725315093994,3000.0,0.0007687239586375654,0.2766387236714363,0.2766287948489189,0.2767052186727524,6.0,1000.0,23.54257195013401,20.343311423095802,6000,3000.0,220.6614682674408
8.47843869781494,-5.593200836181641,-0.3771206080913544,0.04962693059444428,3500.0,0.0012683908212929964,0.3826104462146759,0.38260119915008545,0.38287971329689025,7.0,1000.0,19.238415621883874,20.307205315705982,7000,3500.0,269.9050748348236
8.473004383087158,-5.58810143661499,-0.4672533921003342,0.0482931991815567,4000.0,0.001698522754246369,0.4753780864477158,0.47534383356571197,0.4753757048845291,8.0,1000.0,22.93583543043063,20.3784125190489,8000,4000.0,318.9766118526459
8.46756530380249,-5.582585737228394,-0.5615088646411895,0.04777986419200897,4500.0,0.0014382084894459695,0.566395423412323,0.5664366623163223,0.5667198173999787,9.0,1000.0,27.448144387439765,20.411622062751018,9000,4500.0,367.96831011772156
8.46212124633789,-5.577506540298462,-0.648384701013565,0.04794211976230144,5000.0,0.002616110529284924,0.6530054361820221,0.653028510093689,0.653346758365631,10.0,1000.0,26.476811705480465,20.52297729903892,10000,5000.0,416.694185256958
8.456672191619873,-5.5720454044342045,-0.7378083834648133,0.04848588164150715,5500.0,0.00272511406801641,0.7427427048683166,0.7427410385608673,0.7433270406723023,11.0,1000.0,26.001800164282233,7.598662353357239,11000,5500.0,548.2962965965271
8.451218204498291,-5.566996387481689,-0.831660113811493,0.04906802499294281,6000.0,0.0019242037669755518,0.837600442647934,0.8376394147872925,0.8377428271770477,12.0,1000.0,18.79693593333646,20.613380650964466,12000,6000.0,596.8084762096405
8.445759254455567,-5.561857503890991,-0.9052407910823822,0.04837377685308456,6500.0,0.002286691496614367,0.9122006137371064,0.912186311006546,0.9124403042793274,13.0,1000.0,22.28020197154882,20.561180923532678,13000,6500.0,645.443815946579
8.440295337677002,-5.556425037384034,-0.9738679242134094,0.04799345391988754,7000.0,0.002126447843387723,0.9808494737148284,0.9808559172153473,0.9808417263031006,14.0,1000.0,26.291093316402588,20.547152166592817,14000,7000.0,694.1123623847961
8.43482646560669,-5.551185401916504,-1.0599836225509645,0.04802653183043003,7500.0,0.0020423253444023432,1.0656855452060698,1.065693169116974,1.0658266723155976,15.0,1000.0,25.813539217688874,20.525032502586008,15000,7500.0,742.8333578109741
8.429352561950683,-5.54600977897644,-1.1551286029815673,0.048167852193117144,8000.0,0.002416743753477931,1.1589250767230987,1.1589164633750915,1.1591449761390686,16.0,1000.0,37.78378712009681,20.72148144672312,16000,8000.0,791.0924570560455
8.423873683929443,-5.540745859146118,-1.2508950757980346,0.05027516511082649,8500.0,0.002953010114375502,1.256286741733551,1.2562875971794127,1.2566061692237853,17.0,1000.0,26.671930640379156,20.604304116782508,17000,8500.0,839.6260070800781
8.4183897895813,-5.535372587203979,-1.3324101824760437,0.05047562855482102,9000.0,0.0029871708201244474,1.3382261309623718,1.338231083869934,1.3383991780281066,18.0,1000.0,26.515222916735063,20.82450410303607,18000,9000.0,887.6463589668274
8.41290087890625,-5.530102088928222,-1.4087602972984314,0.050529124051332475,9500.0,0.0037896797321736813,1.4138018889427184,1.4138174982070923,1.41412805891037,19.0,1000.0,27.417218538321627,20.630716246944818,19000,9500.0,936.1177747249603
8.407406944274902,-5.5248883514404294,-1.490529857158661,0.05086526463925838,10000.0,0.004369874792173505,1.4955226302146911,1.4954802007675172,1.4957063841819762,20.0,1000.0,25.99741417722569,20.55978451260551,20000,10000.0,984.7564175128937
8.401907958984374,-5.519325183868408,-1.5805463933944701,0.0509338056743145,10500.0,0.00387972641736269,1.5845664777755737,1.5845992383956908,1.5848908996582032,21.0,1000.0,26.839955814905448,7.610582655785179,21000,10500.0,1116.1524047851562
8.396403945922852,-5.51400754737854,-1.6567530989646913,0.050990945145487784,11000.0,0.0035390706807374955,1.661550552368164,1.6615487112998963,1.6617478790283202,22.0,1000.0,27.68903059154202,20.330601547380127,22000,11000.0,1165.3393411636353
8.390894874572753,-5.508958229064941,-1.7365479888916016,0.0512113514393568,11500.0,0.003835443876683712,1.740959619998932,1.7410016422271728,1.741088113307953,23.0,1000.0,25.093259801989497,20.45825950309953,23000,11500.0,1214.219356060028
8.385380722045898,-5.503893846511841,-1.8035387268066407,0.051308531627058986,12000.0,0.00409245211398229,1.807507561683655,1.8074746208190917,1.8077119121551513,24.0,1000.0,19.851219747482872,20.268376573832406,24000,12000.0,1263.5572996139526
8.37986151123047,-5.498086639404297,-1.8525589227676391,0.05077711936831474,12500.0,0.004444129727780819,1.8569440689086913,1.8569285168647767,1.857156844139099,25.0,1000.0,27.83738228299038,20.34303732262584,25000,12500.0,1312.714168548584
8.374337253570557,-5.492908349990845,-1.9164761428833008,0.050764536052942275,13000.0,0.004672264202497899,1.921362105846405,1.9213618688583374,1.9215442638397218,26.0,1000.0,26.487418031575764,20.52085132365554,26000,13000.0,1361.4450917243958
8.368807857513428,-5.487945795059204,-1.9849782996177674,0.050820649564266206,13500.0,0.004229203067719936,1.9892938809394836,1.989297643661499,1.9894545221328734,27.0,1000.0,26.363789307749173,20.392935310109916,27000,13500.0,1410.4816823005676
8.36327338027954,-5.48199977684021,-2.059554973125458,0.05097593133151531,14000.0,0.003901348521001637,2.0640569338798525,2.0640428252220153,2.0642430362701414,28.0,1000.0,26.415347984310728,20.356918373868215,28000,14000.0,1459.6050322055817
8.357733833312988,-5.477106367111206,-2.134004356384277,0.051173574268817905,14500.0,0.004654223176650703,2.1392365560531617,2.139288212299347,2.139486372947693,29.0,1000.0,26.404617076188956,20.521807270269086,29000,14500.0,1508.3336853981018
8.352189083099365,-5.471648950576782,-2.1944528965950014,0.05109278260171413,15000.0,0.004538046547211707,2.1999984517097473,2.1999790019989014,2.2001173696517946,30.0,1000.0,28.132529169911386,20.593078120351365,30000,15000.0,1556.8936924934387
8.34663924407959,-5.466141471862793,-2.2618761625289916,0.05134249909222126,15500.0,0.004502583844587207,2.2666419582366943,2.266636438369751,2.266703224182129,31.0,1000.0,23.144257668049114,7.547303022520223,31000,15500.0,1689.3913555145264
8.34108427810669,-5.460980655670166,-2.3096321601867675,0.051092854276299476,16000.0,0.004868179789744318,2.313566647529602,2.3135720043182375,2.3138187551498413,32.0,1000.0,25.399344949981224,20.38209637156996,32000,16000.0,1738.454022884369
8.335524158477783,-5.455423307418823,-2.3700830583572388,0.05108153653144836,16500.0,0.005381499835290015,2.373855544090271,2.37385333442688,2.374005312919617,33.0,1000.0,19.184023502880272,20.529405095968794,33000,16500.0,1787.1646418571472
8.329958869934082,-5.45003231048584,-2.407294719696045,0.0509309189915657,17000.0,0.004691231787204742,2.4113615245819093,2.4113778829574586,2.411465039253235,34.0,1000.0,29.587307023103165,20.141239787087088,34000,17000.0,1836.8140196800232
8.324388427734375,-5.444595531463623,-2.466432340621948,0.051043737679719925,17500.0,0.0059523767195641996,2.4695523881912234,2.4695484476089478,2.4698593339920043,35.0,1000.0,24.282177111137123,20.27904202096051,35000,17500.0,1886.1260147094727
8.31881280899048,-5.439587985992431,-2.5167639112472533,0.05082745707035065,18000.0,0.005567628801800311,2.5200998058319093,2.520073579788208,2.520074650764465,36.0,1000.0,28.643143390067912,20.45997549829661,36000,18000.0,1935.0019295215607
8.313231998443603,-5.433534337997436,-2.7005826930999755,0.05120530152320862,18500.0,0.006961905854521319,2.703544981956482,2.7035296421051025,2.703936716079712,37.0,1000.0,25.026133318448494,20.657757786659126,37000,18500.0,1983.4098947048187
8.307646003723145,-5.428483631134033,-2.81827129650116,0.051079208046197894,19000.0,0.0014942241916432977,2.8188689918518066,2.8188814516067504,2.8189022216796875,38.0,1000.0,16.229962384345175,20.710720255186562,38000,19000.0,2031.6940686702728
8.302054790496825,-5.4231674861907955,-2.898479250907898,0.05058984899520874,19500.0,0.002918392521794885,2.9012023630142214,2.9012131690979004,2.9012165298461916,39.0,1000.0,26.572222886665948,20.269524053249505,39000,19500.0,2081.029219865799
8.29645837020874,-5.417896158218384,-2.9133803844451904,0.050713206827640536,20000.0,0.004415223175659776,2.9183489599227905,2.9183009386062624,2.918553990364075,40.0,1000.0,21.67829173087383,20.506139219719536,40000,20000.0,2129.7951061725616
8.29085671234131,-5.412087511062622,-2.88660005569458,0.05052381384372711,20500.0,0.006338228674605489,2.8927835521697998,2.8927807884216308,2.892731328010559,41.0,1000.0,26.387592124974972,7.544296275439899,41000,20500.0,2262.345573425293
8.285249820709229,-5.407129119873047,-2.890386116027832,0.05045278456807137,21000.0,0.006081211951561272,2.8947646236419677,2.894752339363098,2.8948263235092164,42.0,1000.0,26.937449547665214,20.731014832450406,42000,21000.0,2310.582479953766
8.279637683868408,-5.401634191513062,-2.9298800554275513,0.050691291853785514,21500.0,0.005728395991958677,2.9331816120147707,2.93315811252594,2.9334261226654053,43.0,1000.0,25.199238345959333,20.96913035790441,43000,21500.0,2358.271630525589
8.274020317077637,-5.396247812271119,-2.964085886955261,0.050569993466138836,22000.0,0.005174046223983169,2.968316562652588,2.96830881690979,2.9682740068435667,44.0,1000.0,26.11983833185161,20.819331726049167,44000,22000.0,2406.3039133548737
8.268397636413575,-5.390798215866089,-3.0113986263275145,0.05069680722057819,22500.0,0.005691160144284367,3.0144602127075197,3.014461046218872,3.0147086839675903,45.0,1000.0,27.15016391069315,20.53223609392818,45000,22500.0,2455.00781583786
8.26276974105835,-5.385432750701904,-3.0495033683776858,0.050890873476862906,23000.0,0.005413369318470359,3.052886191368103,3.05286830329895,3.053039885520935,46.0,1000.0,25.146877783617104,20.729572821504394,46000,23000.0,2503.248078107834
8.25713653564453,-5.380110664367676,-3.0811905031204225,0.05059630097448826,23500.0,0.006227549532428384,3.0846465129852296,3.0846392250061037,3.084677185058594,47.0,1000.0,24.98833366818107,20.69945607805441,47000,23500.0,2551.5585272312164
8.251498027801514,-5.37471040725708,-3.1155620279312135,0.05072544518113136,24000.0,0.006555651232600212,3.119348918914795,3.1193481149673463,3.1194312028884887,48.0,1000.0,27.610777172559562,20.419896407938538,48000,24000.0,2600.5303728580475
8.245854225158691,-5.3685255661010745,-3.161800759315491,0.05087029309570789,24500.0,0.0060958299869671466,3.1664006986618043,3.166355068206787,3.166647481918335,49.0,1000.0,19.47611228395626,21.720399518463505,49000,24500.0,2646.570042848587
8.240205131530761,-5.363644123077393,-3.180714054107666,0.050594544157385825,25000.0,0.007717057882808149,3.1846040382385254,3.184592138290405,3.1846109580993653,50.0,1000.0,26.684829137912743,22.002943973574713,50000,25000.0,2692.0185067653656
8.234550682067871,-5.358259683609009,-3.2133469171524047,0.05056957633793354,25500.0,0.006599367978051305,3.216699535369873,3.2167448711395266,3.216816499710083,51.0,1000.0,26.889053082286527,11.832293520130172,51000,25500.0,2776.5329761505127
8.228890895843506,-5.352828266143799,-3.2560390186309816,0.05073230713605881,26000.0,0.007204555246047676,3.2606192293167116,3.260580235481262,3.2607285680770874,52.0,1000.0,33.755507724422394,27.681320179459895,52000,26000.0,2812.6584215164185
8.22322582244873,-5.347329500198364,-3.2990891265869142,0.051160299479961396,26500.0,0.008350951621308923,3.3048018159866333,3.304748169898987,3.304889430999756,53.0,1000.0,26.425979749081623,27.76893077834432,53000,26500.0,2848.6698925495148
8.217555297851563,-5.341926940917968,-3.3319434661865235,0.05099424378573895,27000.0,0.007529619630426168,3.337458776473999,3.3374826583862305,3.337523490905762,54.0,1000.0,25.47757724469601,27.771297652653878,54000,27000.0,2884.678292989731
8.211879489898681,-5.336289772033691,-3.367706983566284,0.05098561885952949,27500.0,0.007658032052218914,3.3719886255264284,3.3719859714508056,3.3722569704055787,55.0,1000.0,28.73035904232831,27.66288940164046,55000,27500.0,2920.827808380127
8.20619826889038,-5.330931535720826,-3.403015995979309,0.05114388257265091,28000.0,0.007507274143397808,3.407677711486816,3.4076376152038574,3.407679810523987,56.0,1000.0,24.59450611686019,27.769303075108237,56000,28000.0,2956.8387956619263
8.200511646270751,-5.325164144515991,-3.428922339439392,0.051167916104197506,28500.0,0.007973586108535529,3.4341785745620728,3.434213474273682,3.4342952270507814,57.0,1000.0,24.849243010811104,27.667389990484402,57000,28500.0,2992.9824306964874
8.194819683074952,-5.319969295501709,-3.4533393688201905,0.051357406705617906,29000.0,0.008247066419571639,3.4569492349624635,3.4569398555755617,3.457065049171448,58.0,1000.0,35.22300777639064,27.924914641274512,58000,29000.0,3028.7927465438843
8.189122310638428,-5.314514427185059,-3.4863937721252443,0.05139599776268006,29500.0,0.007533149870112539,3.489473934173584,3.48949027633667,3.4895838584899903,59.0,1000.0,24.106489667315532,27.70462667418702,59000,29500.0,3064.8878016471863
8.183419479370118,-5.309047945022583,-3.5129092559814454,0.051396872758865356,30000.0,0.009279491988942026,3.5162571020126343,3.516226544380188,3.5164339628219605,60.0,1000.0,27.82313243110535,27.808137914548244,60000,30000.0,3100.8484988212585
8.177711238861084,-5.303565721511841,-3.552580159187317,0.05145962265133858,30500.0,0.009957235557958483,3.555483232498169,3.5555019540786743,3.5554844331741333,61.0,1000.0,17.379588723880424,10.60109522506406,61000,30500.0,3195.178375482559
8.17199758529663,-5.29802984046936,-3.5702674140930175,0.05133800818026066,31000.0,0.010089293815195561,3.5735491914749145,3.573542736053467,3.5736310329437257,62.0,1000.0,26.70108838542175,21.85223283440966,62000,31000.0,3240.94029045105
8.166278625488282,-5.292617572784424,-3.5936298446655273,0.051120201885700225,31500.0,0.010020586328580976,3.5984780492782593,3.5984701280593874,3.5986108093261717,63.0,1000.0,26.496214575989704,24.4411945437572,63000,31500.0,3281.8548214435577
8.160553882598878,-5.287153106689453,-3.630719079017639,0.05147539687156677,32000.0,0.008840964088216424,3.633757152557373,3.6337407121658325,3.63383184337616,64.0,1000.0,26.787467667892802,21.833250448647544,64000,32000.0,3327.656522512436
8.15482384109497,-5.281530818939209,-3.6618539848327636,0.05122180768847465,32500.0,0.009399895410984755,3.665279730796814,3.6652927837371827,3.665344042778015,65.0,1000.0,25.969367231843513,24.421246045743594,65000,32500.0,3368.6044747829437
8.149088340759278,-5.276313398361206,-3.6959107818603516,0.05148134957253933,33000.0,0.009140810942277313,3.6997735357284545,3.6997721309661866,3.6999692659378054,66.0,1000.0,26.582826118183,24.453185737279522,66000,33000.0,3409.4989428520203
8.143347312927245,-5.270694694519043,-3.7170818662643432,0.05132775655388832,33500.0,0.00865838629193604,3.7214894771575926,3.7215115671157837,3.7215198621749876,67.0,1000.0,26.09336073153151,21.77740518303203,67000,33500.0,3455.4180960655212
8.137600788116455,-5.265224451065063,-3.7390065441131592,0.05133711902797222,34000.0,0.009022529376670719,3.744813374519348,3.7446949243545533,3.7448350734710694,68.0,1000.0,23.921242834009746,24.33892475441417,68000,34000.0,3496.504546403885
8.131848793029786,-5.259472423553467,-3.758653363227844,0.05115404799580574,34500.0,0.01001384730823338,3.764114064216614,3.7641549491882325,3.7642376976013185,69.0,1000.0,26.94628745656671,21.76672089356448,69000,34500.0,3542.4462406635284
8.126091270446777,-5.253978977203369,-3.7868732805252074,0.05116442896425724,35000.0,0.00968087325617671,3.7928299436569213,3.792845763206482,3.7929364967346193,70.0,1000.0,26.920870018899326,24.39441403289728,70000,35000.0,3583.4392325878143
8.120328189849854,-5.247928350448609,-3.8083169250488282,0.05111915192008019,35500.0,0.008658914415165782,3.8135194311141967,3.8134818696975707,3.813508913040161,71.0,1000.0,20.91969227927154,10.60155790152999,71000,35500.0,3677.764992952347
8.114559574127197,-5.242328161239624,-3.8177619466781616,0.05123193022608757,36000.0,0.011831110943108797,3.8216042804718016,3.8216169567108156,3.8217700967788697,72.0,1000.0,25.92828177960431,24.49905688387854,72000,36000.0,3718.582892179489
8.108785442352294,-5.237435548782349,-3.8517578229904177,0.05105220529437065,36500.0,0.010393969682976604,3.8553981885910034,3.855440116882324,3.855601957321167,73.0,1000.0,27.522416059124357,21.81917861574171,73000,36500.0,3764.4141323566437
8.1030057182312,-5.231519540786743,-3.8709049520492553,0.05125019982457161,37000.0,0.010419278360903263,3.8782449054718016,3.878217597961426,3.8781868581771852,74.0,1000.0,20.251146763892674,24.40718380425484,74000,37000.0,3805.3856768608093
8.097220439910888,-5.226174201965332,-3.8705501670837403,0.051100031077861784,37500.0,0.011550246465951205,3.8769585332870484,3.8769725599288942,3.877084650993347,75.0,1000.0,33.32953293543903,21.86163596517824,75000,37500.0,3851.1279089450836
8.091429496765137,-5.220637437820435,-3.90259613609314,0.051123556688427926,38000.0,0.011636836659163237,3.9080232124328615,3.9080512599945068,3.908138568878174,76.0,1000.0,25.798965759206542,23.980815320299897,76000,38000.0,3892.8279106616974
8.085633083343506,-5.214956485748291,-3.9221528806686403,0.05119802622497082,38500.0,0.011709934880025684,3.9283914003372193,3.9284046573638918,3.9285457849502565,77.0,1000.0,25.21665934492371,23.611000206060567,77000,38500.0,3935.181051969528
8.079831024169922,-5.209294322967529,-3.9438838005065917,0.05131161122024059,39000.0,0.011839636085554958,3.9487874841690065,3.9487803287506105,3.9488916025161744,78.0,1000.0,21.90101816173915,21.723138304402816,78000,39000.0,3981.214916706085
8.07402332687378,-5.203888851165772,-3.952462055206299,0.0511383580416441,39500.0,0.011437550622969866,3.9571642045974733,3.9571935377120973,3.957210075378418,79.0,1000.0,27.150144340664433,23.974448542624653,79000,39500.0,4022.9259927272797
8.068209991455078,-5.198095500946045,-3.9674400062561035,0.05127524094283581,40000.0,0.011211930572986603,3.9724088010787963,3.972368769645691,3.9725135707855226,80.0,1000.0,26.641541501878063,21.586774370378627,80000,40000.0,4069.250654220581
8.062391048431396,-5.192674667358398,-3.9805196456909178,0.05130927211046219,40500.0,0.011955186108127236,3.985513111114502,3.985525171279907,3.9855370178222658,81.0,1000.0,26.609458141262646,10.074547013076323,81000,40500.0,4168.510701179504
8.056566444396973,-5.187080312728882,-4.004906643867493,0.05129863978922367,41000.0,0.010816784931346773,4.010658773422241,4.010620458602905,4.0107232313156125,82.0,1000.0,26.911200267859485,24.23975880125107,82000,41000.0,4209.765238046646
8.050736190795899,-5.1813297996521,-4.02758740901947,0.05129433637857437,41500.0,0.011046771820634604,4.03323718547821,4.03322802734375,4.033341090202332,83.0,1000.0,26.784029575274033,21.709030808973946,83000,41500.0,4255.829017877579
8.044900241851806,-5.175774431228637,-4.0485384616851805,0.05136446346342564,42000.0,0.010209145797416568,4.0535900087356564,4.053557010650635,4.053671387672424,84.0,1000.0,17.694362354072986,24.123454777957594,84000,42000.0,4297.282450675964
8.039058628082275,-5.17053098487854,-4.0480609121322635,0.05130821426212788,42500.0,0.011515195587649941,4.05267333984375,4.0526990938186644,4.052809401512146,85.0,1000.0,25.042457515267103,24.212550930922138,85000,42500.0,4338.583347082138
8.033211318969727,-5.164837045669556,-4.063972069740295,0.05123650766909123,43000.0,0.012074302963912487,4.068071100234985,4.068061617851257,4.068076406478882,86.0,1000.0,25.846890856294216,21.59294698409142,86000,43000.0,4384.8947660923
8.027358306884766,-5.158917062759399,-4.06945112991333,0.05111032952368259,43500.0,0.011926737532019616,4.075447829246521,4.075409851074219,4.075530323028564,87.0,1000.0,25.444796125018403,24.32858437901155,87000,43500.0,4425.99867939949
8.021499576568603,-5.153089204788208,-4.09591254901886,0.05127815283834934,44000.0,0.011003154823556542,4.099903842926025,4.0999463844299315,4.100064083099365,88.0,1000.0,26.685707351545023,21.74291773586869,88000,44000.0,4471.990667819977
8.01563514328003,-5.147786703109741,-4.12114339351654,0.05129479157924652,44500.0,0.010140443999320268,4.125331365585327,4.125300925254821,4.125364616394043,89.0,1000.0,25.749171946688403,24.47167105279172,89000,44500.0,4512.8542449474335
8.0097649269104,-5.142210195541382,-4.129576188087463,0.051188229620456695,45000.0,0.010467649130150676,4.133437911987305,4.133439785003662,4.13358473777771,90.0,1000.0,28.199848924772883,24.362923489015458,90000,45000.0,4553.900223493576
8.003889003753661,-5.136405488967895,-4.14335593032837,0.05128781951963902,45500.0,0.011089071901515125,4.149720025062561,4.149698751449585,4.14968115234375,91.0,1000.0,26.026378220126738,10.629380037609971,91000,45500.0,4647.979089260101
7.99800729560852,-5.130482564926147,-4.150720895767212,0.05130069954693318,46000.0,0.011185451647266746,4.156348377227784,4.156326688766479,4.156488903999328,92.0,1000.0,22.353613338691478,21.81754278368048,92000,46000.0,4693.813766002655
7.992119817733765,-5.125057849884033,-4.156557627677918,0.051068901538848875,46500.0,0.011384595123119652,4.160870217323303,4.160881154060363,4.160974660873413,93.0,1000.0,34.381363252942236,24.528169016473115,93000,46500.0,4734.583218574524
7.986226564407349,-5.119598369598389,-4.183422163009643,0.05140601076185703,47000.0,0.011993138551712036,4.188173797607422,4.188184488296509,4.188205257415771,94.0,1000.0,25.42054118985966,21.82489840814256,94000,47000.0,4780.402447462082
7.980327486038208,-5.114016178131103,-4.192560817718506,0.05144550739228725,47500.0,0.010893237773329019,4.197931084632874,4.197956691741943,4.198108430862427,95.0,1000.0,27.00683431938553,24.44724994288332,95000,47500.0,4821.306844949722
7.974422647476196,-5.108243192672729,-4.2096930027008055,0.05136345863342285,48000.0,0.01081997207738459,4.214768796920777,4.214766401290894,4.214754808425903,96.0,1000.0,26.602154580211362,24.45563409769726,96000,48000.0,4862.1972188949585
7.968511985778808,-5.102461170196533,-4.225370634078979,0.051363591730594634,48500.0,0.010002807734534144,4.23020581817627,4.230181783676147,4.230269361495972,97.0,1000.0,22.823597370706292,21.79683718699537,97000,48500.0,4908.075435400009
7.962595483779907,-5.0971844787597655,-4.230206384658813,0.051260995730757715,49000.0,0.01129442769754678,4.234806362152099,4.234782108306884,4.234949542999267,98.0,1000.0,26.548880891027068,24.313306828880435,98000,49000.0,4949.205176115036
7.956673133850098,-5.09122442817688,-4.245458892822265,0.05141574001312256,49500.0,0.010676516398787498,4.250066579818726,4.250149856567383,4.250125989913941,99.0,1000.0,26.69484195141798,24.422354626353673,99000,49500.0,4990.15126991272
7.950744972229004,-5.085524740219117,-4.255065868377685,0.05133513607084751,50000.0,0.010413157988339663,4.259883804321289,4.259834964752197,4.259978881835938,100.0,1000.0,33.48580817944408,21.9921308064665,100000,50000.0,5035.622080564499
7.944810894012451,-5.079754320144653,-4.281825826644898,0.05159260348975658,50500.0,0.010384438084438443,4.285738327026367,4.285722316741944,4.28584630203247,101.0,1000.0,22.10086046053177,10.619390131105302,101000,50500.0,5129.789447784424
7.938870977401733,-5.074035497665405,-4.28066153717041,0.05155469685792923,51000.0,0.010151325415819883,4.285425491333008,4.28543006515503,4.28551413154602,102.0,1000.0,25.59882150625199,24.395272152723063,102000,51000.0,5170.7809982299805
7.932925138473511,-5.068512416839599,-4.287035446166993,0.05145970180630684,51500.0,0.011985405743122101,4.29273991394043,4.292750751495361,4.292813497543335,103.0,1000.0,26.262620068503704,21.822495409933858,103000,51500.0,5216.605272293091
7.926973432540893,-5.062524864196777,-4.295989902496338,0.05150767633318901,52000.0,0.011461394788697362,4.301627498626709,4.301623414993286,4.301719863891601,104.0,1000.0,27.051898224820444,24.466699321567887,104000,52000.0,5257.47715306282
7.921015825271606,-5.05672406578064,-4.309262363433838,0.051515149250626564,52500.0,0.010801121359691024,4.314613626480103,4.314567407608032,4.314558784484864,105.0,1000.0,34.394420381319485,24.519888724954143,105000,52500.0,5298.260373592377
7.915052270889282,-5.051008676528931,-4.3309106903076175,0.05168836815655232,53000.0,0.011927680660039186,4.335716445922851,4.335674295425415,4.335917789459229,106.0,1000.0,24.84023153353187,21.901410869235377,106000,53000.0,5343.919533252716
7.909082818984985,-5.045489030838013,-4.339316492080688,0.05173635856807232,53500.0,0.012217134239152074,4.343121671676636,4.343137866973877,4.343173387527465,107.0,1000.0,23.776732559048273,24.415297036634932,107000,53500.0,5384.877463340759
7.90310735321045,-5.03947479057312,-4.344807807922363,0.0516927505582571,54000.0,0.012908684074878692,4.3482518444061276,4.348242874145508,4.3482990779876705,108.0,1000.0,27.129292003813372,24.414011034077056,108000,54000.0,5425.837551116943
7.897125984191894,-5.033838226318359,-4.361551528930664,0.051552003473043444,54500.0,0.012563928673043847,4.365425346374511,4.365400650024414,4.365476886749268,109.0,1000.0,17.60646210135086,21.814686539199734,109000,54500.0,5471.678229808807
7.891138631820679,-5.028030061721802,-4.3534162158966065,0.05152464544773102,55000.0,0.014275271963328123,4.357713457107544,4.357716100692749,4.3578640060424805,110.0,1000.0,24.500062260384475,24.437943707856597,110000,55000.0,5512.598204612732
7.885145311355591,-5.022335554122924,-4.3683906898498535,0.05155593240261078,55500.0,0.013404679857194424,4.37222525024414,4.372262920379638,4.37237624168396,111.0,1000.0,26.46965886658059,10.615376748948593,111000,55500.0,5606.801173686981
7.879145978927612,-5.016252922058105,-4.3805141906738285,0.051661635339260104,56000.0,0.012603792291134596,4.384266695022583,4.384226846694946,4.3842580699920655,112.0,1000.0,21.017943639145344,21.673874585148365,112000,56000.0,5652.939671993256
7.873140642166137,-5.010731842041015,-4.379386415481568,0.051365384265780446,56500.0,0.013604780009016394,4.382771533966064,4.382762357711792,4.382958471298218,113.0,1000.0,27.14182931009748,24.395223200811692,113000,56500.0,5693.931303977966
7.867129318237304,-5.005486391067505,-4.392101972579956,0.05142566159367561,57000.0,0.012509905042126774,4.395086992263794,4.3950882968902585,4.395076082229615,114.0,1000.0,26.01043819937898,24.57280875044484,114000,57000.0,5734.626693248749
7.861111942291259,-4.999534845352173,-4.402982610702515,0.05150152052938938,57500.0,0.013158133452758193,4.406748107910156,4.406774351119995,4.40692396736145,115.0,1000.0,33.112053242965814,21.892021604053298,115000,57500.0,5780.305436134338
7.8550885372161865,-4.993658004760742,-4.4191307334899905,0.05143988288938999,58000.0,0.011880847780033945,4.422858039855957,4.422855335235596,4.422927263259887,116.0,1000.0,26.152036801966204,24.471667768852384,116000,58000.0,5821.1690192222595
7.849059061050415,-4.987768751144409,-4.433275842666626,0.05156645703315735,58500.0,0.012099345553666353,4.437369607925415,4.437345233917236,4.437460523605346,117.0,1000.0,25.79194557579176,21.82661507833878,117000,58500.0,5866.984644651413
7.8430235385894775,-4.981985445022583,-4.437943227767945,0.05162064203619957,59000.0,0.011728594668209552,4.443664842605591,4.443662185668945,4.4437502593994145,118.0,1000.0,27.177288110369158,24.326875311864875,118000,59000.0,5908.091445207596
7.836981889724732,-4.976276672363281,-4.447127550125122,0.05162864065170288,59500.0,0.011375716971233487,4.4510579051971435,4.451080896377563,4.451109226226807,119.0,1000.0,26.49260877351925,24.455140878747244,119000,59500.0,5948.982643842697
7.830934213638305,-4.970640798568725,-4.452066541671753,0.051690272957086565,60000.0,0.011109774701297283,4.4565287113189695,4.456531007766723,4.45659468460083,120.0,1000.0,17.276000682134637,21.745389935588022,120000,60000.0,5994.969403505325
7.824880424499511,-4.964706150054932,-4.438657810211182,0.05144179075956345,60500.0,0.012177940636873245,4.44292812538147,4.442887117385864,4.443030620574951,121.0,1000.0,16.250892471007802,10.601182976951387,121000,60500.0,6089.298499584198
7.818820503234863,-4.958727468490601,-4.434444320678711,0.051178854674100875,61000.0,0.01252667759731412,4.438213838577271,4.438185914993286,4.438269443511963,122.0,1000.0,19.6467786712203,24.36521283190331,122000,61000.0,6130.340620756149
7.812754474639893,-4.952840951919556,-4.432999359130859,0.051246757894754406,61500.0,0.012540493415668607,4.436917766571045,4.436951807022095,4.43704319190979,123.0,1000.0,19.455489992777526,21.89029874323929,123000,61500.0,6176.022958755493
7.806682285308838,-4.947114503860473,-4.4181406173706055,0.05101004494726658,62000.0,0.013221775325015186,4.421728437423706,4.421675010681152,4.421809223175049,124.0,1000.0,25.676424596536936,24.37291124137761,124000,62000.0,6217.052116155624
7.800603916168213,-4.940953409194946,-4.428469303131103,0.051106358245015145,62500.0,0.014084684336557985,4.432553092956543,4.432566862106324,4.432631538391114,125.0,1000.0,25.37989935040385,24.39304723851608,125000,62500.0,6258.047405004501
7.794519449234008,-4.935572957992553,-4.435897172927857,0.0510663872808218,63000.0,0.012480747015215456,4.441203071594238,4.44116533088684,4.441178182601929,126.0,1000.0,24.662088839073288,21.842606192939286,126000,63000.0,6303.829488277435
7.788428787231445,-4.929600715637207,-4.436867593765259,0.05111594648659229,63500.0,0.012283473489806056,4.442924423217773,4.442902605056763,4.443064908981324,127.0,1000.0,26.60835101376746,24.396077546287053,127000,63500.0,6344.819685220718
7.782331926345825,-4.923697484970093,-4.445383819580078,0.05121832849085331,64000.0,0.012061605468392371,4.450174802780151,4.450190172195435,4.450217407226562,128.0,1000.0,20.707516062466805,24.41261774516528,128000,64000.0,6385.782110452652
7.7762288475036625,-4.918206575393676,-4.439757219314576,0.051117082491517064,64500.0,0.012419101558625698,4.4437096977233885,4.443713327407837,4.443852758407592,129.0,1000.0,27.695773470216345,21.76205617826147,129000,64500.0,6431.733651399612
7.770119585037231,-4.91257769203186,-4.447773582458496,0.05093919549882412,65000.0,0.010256407524459063,4.451610469818116,4.451558610916138,4.451626853942871,130.0,1000.0,25.14646144423007,24.383997404065706,130000,65000.0,6472.744155406952
7.764004072189331,-4.906169012069702,-4.453054006576538,0.05114990447461605,65500.0,0.011528324399143457,4.457633972167969,4.457618268966675,4.457752546310425,131.0,1000.0,18.47732572929949,10.628695844298935,131000,65500.0,6566.829076766968
7.757882326126099,-4.900052820205689,-4.43563290977478,0.05115170855820179,66000.0,0.011834112735465169,4.440732532501221,4.440724718093872,4.44076522064209,132.0,1000.0,26.64028844122621,21.728069995079732,132000,66000.0,6612.852493047714
7.751754350662232,-4.894673446655274,-4.446834892272949,0.05096861615777016,66500.0,0.011787642378360033,4.452649221420288,4.4527102584838865,4.452778091430664,133.0,1000.0,33.907274398629724,24.493945283300942,133000,66500.0,6653.678910017014
7.745620077133179,-4.888747396469117,-4.464060943603515,0.051106972262263295,67000.0,0.011272089175879955,4.468872425079346,4.468800016403199,4.468914783477783,134.0,1000.0,26.509933295905185,24.342871081245775,134000,67000.0,6694.758699417114
7.7394795455932615,-4.8829338779449465,-4.474054626464843,0.05125807693600654,67500.0,0.0118565405420959,4.4780492649078365,4.478041528701782,4.478082954406738,135.0,1000.0,21.84229876263915,21.84075996919895,135000,67500.0,6740.54465341568
7.733332662582398,-4.877020639419555,-4.472444641113281,0.051239123091101645,68000.0,0.012297570627182721,4.476458986282348,4.4764794235229495,4.476655704498291,136.0,1000.0,26.39491990845963,24.335270701706335,136000,68000.0,6781.637273311615
7.7271795711517335,-4.8710354270935055,-4.474047700881958,0.051037922471761706,68500.0,0.011619274834170938,4.479404884338379,4.479382801055908,4.479334825515747,137.0,1000.0,25.34521364205815,21.778274057512377,137000,68500.0,6827.554594755173
7.721020133972168,-4.864728607177734,-4.4838087921142575,0.05113935424387455,69000.0,0.012128703201189637,4.488407417297363,4.4883983669281005,4.488500547409058,138.0,1000.0,24.43919322040662,24.342848617590953,138000,69000.0,6868.6344220638275
7.714854337692261,-4.859244096755981,-4.48259665107727,0.05102695946395397,69500.0,0.012457383777946234,4.486748764038086,4.486765533447266,4.486836744308472,139.0,1000.0,15.729042562212651,24.380273261547448,139000,69500.0,6909.651190519333
7.708682233810425,-4.853437662124634,-4.479809143066406,0.05115461684763432,70000.0,0.012070165379904211,4.484422243118286,4.484377138137817,4.484551090240479,140.0,1000.0,26.466777650026806,21.7919542818193,140000,70000.0,6955.539687156677
7.702503761291504,-4.847902721405029,-4.486366918563843,0.05101827403903007,70500.0,0.012030583627521992,4.489963521957398,4.489973329544068,4.48996720123291,141.0,1000.0,25.8157195160714,10.625061300564324,141000,70500.0,7049.6567924022675
7.696318922042846,-4.842032831192016,-4.492120571136475,0.050858408063650135,71000.0,0.0108174743745476,4.495248805999756,4.495256437301636,4.495353445053101,142.0,1000.0,20.669188602279593,24.388104847085717,142000,71000.0,7090.660389184952
7.690127681732178,-4.835858888626099,-4.495622339248658,0.05105098450183868,71500.0,0.012723371431231499,4.49981037902832,4.4997675971984865,4.499961017608642,143.0,1000.0,28.317401376830258,24.3281312665665,143000,71500.0,7131.765067815781
7.683930034637451,-4.829926090240479,-4.495220149993896,0.05087742237746715,72000.0,0.011639737447723746,4.499231298446655,4.499234628677368,4.4992215614318845,144.0,1000.0,26.189717144004945,21.813006684645508,144000,72000.0,7177.60927605629
7.67772603225708,-4.8237775001525875,-4.498981090545654,0.05097840742766857,72500.0,0.01108044848125428,4.503137453079224,4.503161853790283,4.503335594177246,145.0,1000.0,25.58537751124615,24.328928422716988,145000,72500.0,7218.712607860565
7.671515556335449,-4.817842380523682,-4.511577465057373,0.05080469201505184,73000.0,0.0110867740791291,4.516305456161499,4.516294725418091,4.516320613861084,146.0,1000.0,25.568820096187494,21.797251774684263,146000,73000.0,7264.589951753616
7.665298692703247,-4.811918619155883,-4.5160557117462155,0.05088005740940571,73500.0,0.010794901836663484,4.520407253265381,4.5203836708068845,4.520443696975708,147.0,1000.0,26.099672861961015,24.448830173876523,147000,73500.0,7305.491704940796
7.65907533454895,-4.805682308197022,-4.523351684570312,0.05093046340346336,74000.0,0.010166240902617574,4.527194044113159,4.527206884384155,4.5272528877258305,148.0,1000.0,26.261605389681325,24.419155572980095,148000,74000.0,7346.443162679672
7.6528455371856685,-4.800156190872192,-4.531468244552612,0.050934923887252806,74500.0,0.010236389655619859,4.535365093231201,4.535354001998901,4.535430812835694,149.0,1000.0,28.79935280267444,21.792954987565484,149000,74500.0,7392.329552412033
7.646609262466431,-4.794012336730957,-4.533524726867676,0.05099113249778747,75000.0,0.011275478694587946,4.537083993911743,4.537073303222656,4.537152099609375,150.0,1000.0,26.42669852939684,24.385790358915493,150000,75000.0,7433.337041139603
7.640366500854492,-4.7875221214294434,-4.536929237365722,0.05100303676724434,75500.0,0.00988891108892858,4.541678522109986,4.541683298110962,4.541807321548462,151.0,1000.0,25.62295506341379,10.610085050894918,151000,75500.0,7527.586993217468
7.634117233276367,-4.782244310379029,-4.546038232803345,0.05086853118240833,76000.0,0.009841463167220354,4.550209196090698,4.550158302307129,4.550298843383789,152.0,1000.0,26.556777829146505,21.794751687667866,152000,76000.0,7573.469599723816
7.627861427307129,-4.776407363891601,-4.5512636909484865,0.0509601204842329,76500.0,0.00996087016351521,4.555396528244018,4.5554496231079105,4.5554292755126955,153.0,1000.0,30.936463613827453,24.3248564047269,153000,76500.0,7614.579812288284
7.621599145889283,-4.770386005401611,-4.5597754554748535,0.05109387834370136,77000.0,0.009753260495141148,4.5643709354400634,4.564325574874878,4.564431154251099,154.0,1000.0,26.63863832055223,24.33039332804786,154000,77000.0,7655.680669784546
7.615330308914184,-4.764182880401611,-4.569233856201172,0.05109693263471127,77500.0,0.010036472897976637,4.5773432865142825,4.577400672912598,4.577459501266479,155.0,1000.0,26.95684082981475,21.72803937892171,155000,77500.0,7701.704151153564
7.609054878234863,-4.758309650421142,-4.569748846054077,0.05118127380311489,78000.0,0.01058079382032156,4.577600704193115,4.577563753128052,4.577721530914307,156.0,1000.0,27.02514389838359,24.389764096260432,156000,78000.0,7742.704958677292
7.602772920608521,-4.752175146102905,-4.573043148040772,0.051062409937381745,78500.0,0.009730285121127964,4.5802168331146245,4.580190616607666,4.580214233398437,157.0,1000.0,26.446920380407597,24.49099472302278,157000,78500.0,7783.5362939834595
7.596484352111816,-4.74604930305481,-4.5797814292907715,0.0511121579259634,79000.0,0.009958515673875809,4.583754650115967,4.583779651641846,4.583875898361206,158.0,1000.0,29.439877546036954,21.892628366074526,158000,79000.0,7829.2137706279755
7.590189182281494,-4.740137428283691,-4.586833070755005,0.0512292902469635,79500.0,0.010914895357564092,4.59198600769043,4.592056318283081,4.592108961105347,159.0,1000.0,26.321220423351047,24.49614901316263,159000,79500.0,7870.036514520645
7.583887392044067,-4.734026203155517,-4.591664278030396,0.051187578588724136,80000.0,0.011184021443128586,4.597866369247437,4.59780732345581,4.597930166244507,160.0,1000.0,28.192399563615545,21.848042035378178,160000,80000.0,7915.807207107544
7.57757900428772,-4.728029945373535,-4.58902081489563,0.05129567582905292,80500.0,0.010048381962813437,4.595343843460083,4.595322673797607,4.595401191711426,161.0,1000.0,19.545697284078635,10.606299426286812,161000,80500.0,8010.090799331665
7.571263954162598,-4.722417091369629,-4.585190803527832,0.05124565881490707,81000.0,0.0109659533649683,4.590256593704224,4.590274053573609,4.590332796096802,162.0,1000.0,29.21535168224787,24.39757822318092,162000,81000.0,8051.0784747600555
7.564942260742187,-4.715657571792603,-4.58756784248352,0.05112989790737629,81500.0,0.010931838114745915,4.593679256439209,4.593667705535888,4.593694635391236,163.0,1000.0,28.444773018507018,21.781622993644547,163000,81500.0,8096.988737344742
7.558613937377929,-4.710332447052002,-4.597219549179077,0.05131909188628197,82000.0,0.00943187001813203,4.602684597015381,4.602625289916992,4.602788722991943,164.0,1000.0,19.563201216701092,24.265656237905837,164000,82000.0,8138.199245691299
7.552278881072998,-4.703942451477051,-4.585783422470093,0.051078393831849096,82500.0,0.009903454934246839,4.59112483215332,4.591119707107544,4.5911819381713865,165.0,1000.0,28.124714211908675,24.368109093357663,165000,82500.0,8179.236489057541
7.545937120437622,-4.6976992244720455,-4.593288896560669,0.051178032338619235,83000.0,0.00964945226162672,4.597357187271118,4.597345058441162,4.597361827850341,166.0,1000.0,25.211993913855164,21.884610624268895,166000,83000.0,8224.930700302124
7.539588691711426,-4.692111890792846,-4.59540266418457,0.05106145842373371,83500.0,0.010462414372712375,4.6020963077545165,4.602076662063599,4.602194742202759,167.0,1000.0,24.791709721246196,24.398784149066906,167000,83500.0,8265.916349887848
7.533233512878418,-4.6857888298034664,-4.592070825576783,0.051088943302631376,84000.0,0.01065736142732203,4.598271984100342,4.598328847885131,4.598270923614502,168.0,1000.0,25.76764516530519,24.365062941508878,168000,84000.0,8306.958723545074
7.5268716144561765,-4.679950828552246,-4.606223037719727,0.05126521629095077,84500.0,0.010195068345405161,4.609873102188111,4.609851871490479,4.610084857940674,169.0,1000.0,25.59673853694276,21.822916651491283,169000,84500.0,8352.782113313675
7.520502935409546,-4.673569906234741,-4.609816608428955,0.05119416525959969,85000.0,0.009871982550248504,4.613272039413452,4.613276096343994,4.61330104637146,170.0,1000.0,17.499295971175243,24.46057265969934,170000,85000.0,8393.664231538773
7.514127508163452,-4.667149127960205,-4.598921634674072,0.05107627555727959,85500.0,0.010127583597786725,4.602466943740844,4.6024433002471925,4.602519981384277,171.0,1000.0,27.035478269114833,10.617073961456663,171000,85500.0,8487.852142333984
7.507745286941528,-4.661157302856445,-4.605033893585205,0.05118944150209427,86000.0,0.00993466288037598,4.608737945556641,4.608725191116333,4.608826778411865,172.0,1000.0,25.41746072111017,21.751702337590363,172000,86000.0,8533.82555603981
7.5013562793731685,-4.655519372940064,-4.599453258514404,0.051057516068220135,86500.0,0.010286586015485226,4.6038531303405765,4.603869031906128,4.603879768371582,173.0,1000.0,25.878346400696508,24.34352339300208,173000,86500.0,8574.90424489975
7.494960487365723,-4.649028169631958,-4.608935960769653,0.051073064640164374,87000.0,0.009492943772114813,4.612506423950196,4.612462366104126,4.612615858078003,174.0,1000.0,25.53501339045539,24.504922515021644,174000,87000.0,8615.712372541428
7.488557830810547,-4.643057554244995,-4.60998952293396,0.05098506847023964,87500.0,0.009283427156507968,4.615171621322632,4.615211498260498,4.615233610153198,175.0,1000.0,26.858504825231297,21.833900102519234,175000,87500.0,8661.512711048126
7.482148330688476,-4.636977237701416,-4.6258277759552,0.05120313495397568,88000.0,0.009031643101014198,4.629331483840942,4.6292991523742675,4.629366647720337,176.0,1000.0,23.96892002746593,24.44307455040299,176000,88000.0,8702.424095869064
7.475732004165649,-4.630460208892822,-4.619945180892945,0.051083991676568984,88500.0,0.008748781949281692,4.625030599594116,4.625054656982422,4.625148609161377,177.0,1000.0,25.919371275715957,21.7872442281623,177000,88500.0,8748.322512865067
7.469308801651001,-4.6243152446746825,-4.622166250228882,0.05101563324034214,89000.0,0.009732607007957994,4.626034803390503,4.626021234512329,4.626044466018676,178.0,1000.0,26.544288734957725,24.379300282024925,178000,89000.0,8789.340918540955
7.462878667831421,-4.618796884536743,-4.627294233322144,0.05118652109801769,89500.0,0.009159714958630502,4.63210733795166,4.63216612815857,4.632253156661987,179.0,1000.0,24.90279039769372,24.398302161797567,179000,89500.0,8830.327377796173
7.456441711425781,-4.612294866561889,-4.629413793563843,0.050971448719501496,90000.0,0.008180918028578163,4.633245027542114,4.633201839447022,4.633329216003418,180.0,1000.0,34.068369912502185,21.902520472058995,180000,90000.0,8875.984224796295
7.449997804641724,-4.6060607089996335,-4.64506676864624,0.05119778509438038,90500.0,0.00964629205968231,4.649049503326416,4.649057985305786,4.649147947311401,181.0,1000.0,16.29936678366721,10.07756953252652,181000,90500.0,8975.214500904083
7.443546991348267,-4.600186407089233,-4.635353040695191,0.05123420433700085,91000.0,0.00897167472075671,4.63973233795166,4.639709083557129,4.639695644378662,182.0,1000.0,25.92109331489629,24.18852738138919,182000,91000.0,9016.556415319443
7.437089223861694,-4.5939719791412355,-4.629884366989136,0.05096321940422058,91500.0,0.008683028809726238,4.6359684391021725,4.635967632293701,4.636089767456054,183.0,1000.0,33.31987682202293,21.738007581837486,183000,91500.0,9062.558792591095
7.43062448310852,-4.587362155914307,-4.641157402038575,0.051286810651421544,92000.0,0.008615976036526262,4.646338117599488,4.646344064712524,4.646381343841552,184.0,1000.0,27.314900913911448,24.22203428245891,184000,92000.0,9103.843517780304
7.424152791976929,-4.581369325637818,-4.640778503417969,0.05115725640952587,92500.0,0.009030720204114913,4.6450195941925045,4.645007734298706,4.645087142944336,185.0,1000.0,25.56229250052126,24.213125828145497,185000,92500.0,9145.143432378769
7.417674076080322,-4.575464658737182,-4.647265258789062,0.05098640562593937,93000.0,0.008477387618273496,4.651402620315552,4.651436985015869,4.6515041465759275,186.0,1000.0,27.056129621165837,21.64508473379714,186000,93000.0,9191.34329867363
7.4111884059906,-4.569112934112549,-4.655241687774658,0.05130279628932476,93500.0,0.008452731534838677,4.658603044509888,4.658556671142578,4.6586323127746585,187.0,1000.0,28.77991970048621,24.105285589315624,187000,93500.0,9232.827977180481
7.404695671081543,-4.56303936958313,-4.664399448394775,0.05131421904265881,94000.0,0.008686871032230556,4.667632194519043,4.667623838424682,4.6677048358917235,188.0,1000.0,26.710577512123173,21.622942384484336,188000,94000.0,9279.075152873993
7.39819595336914,-4.557044891357422,-4.663057733535767,0.05111778055131436,94500.0,0.00837580048944801,4.667769653320312,4.667794525146484,4.66778957939148,189.0,1000.0,28.217281580532134,24.134789231183895,189000,94500.0,9320.509118556976
7.391689126968384,-4.550846391677856,-4.662412328720093,0.051232558146119114,95000.0,0.008886938413605093,4.666935209274292,4.6669844741821285,4.667100728988648,190.0,1000.0,23.0946872876095,21.65172686204583,190000,95000.0,9366.694812059402
7.385175279617309,-4.544171756744385,-4.671175008773804,0.05120983050763607,95500.0,0.007717705711722374,4.676076782226563,4.676001539230347,4.676066211700439,191.0,1000.0,17.214925456018527,10.134089878595178,191000,95500.0,9465.371656179428
7.37865432548523,-4.538006813049316,-4.655847982406616,0.05114402562379837,96000.0,0.00816857187729329,4.660634811401367,4.66063904953003,4.660692264556885,192.0,1000.0,26.680963496276462,24.575786257858972,192000,96000.0,9506.062114953995
7.372126314163208,-4.531738885879516,-4.66193872833252,0.05117925637960434,96500.0,0.007711589985527098,4.664896734237671,4.664898649215698,4.6649514598846435,193.0,1000.0,28.193009319509663,24.431392828573188,193000,96500.0,9546.993060827255
7.365591150283813,-4.525377546310425,-4.668724252700805,0.05136479546129703,97000.0,0.008784145246259869,4.672495927810669,4.672479848861695,4.672523151397705,194.0,1000.0,26.91442344877102,21.79673354253736,194000,97000.0,9592.871495485306
7.3590488986969,-4.519227821350098,-4.668799180984497,0.051373437985777856,97500.0,0.009339075448922813,4.672525533676147,4.672540941238403,4.6726347408294675,195.0,1000.0,29.77989211363905,24.40818585631854,195000,97500.0,9633.841358184814
7.35249948310852,-4.513520900726318,-4.67690834236145,0.05119269451498985,98000.0,0.00856209240667522,4.6798312282562256,4.679828203201294,4.679890520095825,196.0,1000.0,32.57558111764552,21.74617891231029,196000,98000.0,9679.826449155807
7.34594289970398,-4.5068145198822025,-4.674276578903198,0.051330798104405405,98500.0,0.00805914010014385,4.677339813232422,4.67733881187439,4.6773820438385005,197.0,1000.0,18.2766067597758,24.4528448706308,197000,98500.0,9720.721487045288
7.339379173278808,-4.500849708557129,-4.666138402938842,0.051302664533257485,99000.0,0.007997969280928373,4.669758840560913,4.669785451889038,4.669840101242065,198.0,1000.0,23.25480444586709,24.41463945159823,198000,99000.0,9761.680520057678
7.332808238983154,-4.494305021286011,-4.667789098739624,0.05147224035859108,99500.0,0.008089376942254603,4.671894199371338,4.6718386383056645,4.671859010696411,199.0,1000.0,26.19660587009286,21.884337948432123,199000,99500.0,9807.375300645828
7.326230108261108,-4.488187919616699,-4.6623360023498535,0.051085679426789286,100000.0,0.008344110822305083,4.665911756515503,4.665937801361084,4.665999935150147,200.0,1000.0,25.707697043493567,24.46969913447601,200000,100000.0,9848.242171525955
7.319644752502441,-4.482038175582885,-4.66680767250061,0.05110267129540443,100500.0,0.00893256702553481,4.6702002429962155,4.6701978454589845,4.670216760635376,201.0,1000.0,19.231156680690297,10.648997740941043,201000,100500.0,9942.147722244263
7.313052169799804,-4.47540625,-4.661270858764649,0.05116956572234631,101000.0,0.008664852365851402,4.664612277984619,4.664584772109985,4.664686073303223,202.0,1000.0,24.832045204615696,21.87413507534371,202000,101000.0,9987.86381649971
7.306452320098877,-4.469618595123291,-4.6648687057495115,0.051267648071050644,101500.0,0.008267785330303014,4.668603590011597,4.668630172729492,4.668684965133667,203.0,1000.0,16.674881155649096,24.330276608987884,203000,101500.0,10028.964871406555
7.299845218658447,-4.46318327331543,-4.658747518539429,0.051071261778473855,102000.0,0.008752057430334389,4.661773672103882,4.661747051239014,4.66181481552124,204.0,1000.0,17.287997529097414,24.36063386886195,204000,102000.0,10070.014707326889
7.293230850219727,-4.456870954513549,-4.652856750488281,0.051111694037914275,102500.0,0.00814725471381098,4.655847368240356,4.655823431015015,4.655912776947021,205.0,1000.0,25.501355248000948,21.87505104590943,205000,102500.0,10115.728887796402
7.286609146118164,-4.4506559009552005,-4.650763984680176,0.050957256719470025,103000.0,0.009338529297150672,4.655554267883301,4.655531118392944,4.655638240814209,206.0,1000.0,26.223620845472023,24.465194838962322,206000,103000.0,10156.603281974792
7.2799801368713375,-4.444306053161621,-4.659583969116211,0.051150216683745385,103500.0,0.008946803032420576,4.662327064514161,4.662324562072754,4.662381353378296,207.0,1000.0,26.59841208788271,24.40263576374231,207000,103500.0,10197.582462787628
7.273343818664551,-4.437983049392701,-4.656379314422607,0.050952576890587804,104000.0,0.007895479999482632,4.660137411117554,4.660156799316407,4.660220041275024,208.0,1000.0,25.970210940489622,21.854502776980237,208000,104000.0,10243.339624166489
7.266700094223022,-4.431964393615723,-4.662978258132934,0.051000630587339404,104500.0,0.007739828509278596,4.666049394607544,4.666053379058838,4.666083511352539,209.0,1000.0,27.11230190642563,24.4328356563107,209000,104500.0,10284.268153429031
7.260049053192139,-4.4255169563293455,-4.659115257263184,0.05103388866782189,105000.0,0.007829353365115822,4.662477098464966,4.662468481063843,4.662516277313232,210.0,1000.0,20.450397408476956,21.817115961868588,210000,105000.0,10330.10372710228
7.253390625,-4.418581146240235,-4.6597045822143555,0.050971572056412694,105500.0,0.007249111111275851,4.662844951629639,4.662903110504151,4.662946001052856,211.0,1000.0,25.123066287077464,10.103248194448678,211000,105500.0,10429.08179807663
7.24672479057312,-4.4125960884094235,-4.658443153381348,0.05093837685883045,106000.0,0.007905810644850134,4.662440286636352,4.662445177078247,4.662464029312134,212.0,1000.0,34.299362337915504,24.6690565960188,212000,106000.0,10469.618411302567
7.240051555633545,-4.40660717010498,-4.664836908340454,0.05113492113351822,106500.0,0.00809480959083885,4.669045900344849,4.6689912128448485,4.66909581565857,213.0,1000.0,26.616077239588286,21.969705783005292,213000,106500.0,10515.135635137558
7.233370901107788,-4.399981019973755,-4.6703768138885495,0.05106524455547333,107000.0,0.007054225916042924,4.673333023071289,4.67331044960022,4.673389556884765,214.0,1000.0,24.451649047058588,24.602930935222368,214000,107000.0,10555.78119969368
7.2266827583312985,-4.393427864074707,-4.671212030410767,0.0511606275588274,107500.0,0.008228164410218597,4.675718364715576,4.6757702655792235,4.675805906295777,215.0,1000.0,20.704713042061343,24.49189969569064,215000,107500.0,10596.611026763916
7.219987161636353,-4.386886003494262,-4.663590080261231,0.05110017350316048,108000.0,0.008666045473888516,4.667673877716064,4.667701583862304,4.6677016792297366,216.0,1000.0,28.971990929003976,21.856573645512142,216000,108000.0,10642.363852739334
7.213284093856812,-4.380502326965332,-4.665931056976318,0.051071071669459345,108500.0,0.008702734032645822,4.6696642265319825,4.66958777809143,4.669693796157837,217.0,1000.0,25.479758971659322,24.529966021324423,217000,108500.0,10683.130319833755
7.2065735492706295,-4.374494462966919,-4.6730458278656,0.051047635659575465,109000.0,0.007538037090562284,4.676065681457519,4.676076997756958,4.676152709960937,218.0,1000.0,26.881896495509356,24.496062458679763,218000,109000.0,10723.95320725441
7.19985544013977,-4.368097139358521,-4.669579339981079,0.051229196593165396,109500.0,0.008470640023238957,4.672839530944824,4.6728349208831785,4.672870059967041,219.0,1000.0,25.0134819837553,21.976335758772443,219000,109500.0,10769.456699848175
7.193129877090454,-4.361283267974853,-4.679370267868042,0.051106394916772845,110000.0,0.007456367461010814,4.682096395492554,4.682093837738037,4.682164205551148,220.0,1000.0,26.71875920580676,24.549498720235025,220000,110000.0,10810.190729856491
7.18639670753479,-4.355316669464111,-4.676857847213745,0.05110256326198578,110500.0,0.007188763909973204,4.680296346664429,4.680323970794678,4.680337448120117,221.0,1000.0,25.737407534184165,10.643873895203335,221000,110500.0,10904.141486644745
7.179655982971191,-4.348212524414063,-4.682661594390869,0.051162177294492725,111000.0,0.008295548892579973,4.686222192764283,4.686141176223755,4.686295196533203,222.0,1000.0,24.69979760391413,22.005124807835706,222000,111000.0,10949.585447788239
7.172907695770264,-4.342092998504639,-4.679370964050293,0.0511870614439249,111500.0,0.007404813562519848,4.682723867416382,4.682772382736206,4.682782051086426,223.0,1000.0,27.18364748745243,24.523621233168676,223000,111500.0,10990.362460374832
7.166151777267456,-4.335934286117554,-4.685310667037964,0.05103911055624485,112000.0,0.007604740895330906,4.688098569869995,4.688097082138062,4.688106922149658,224.0,1000.0,27.12986297714922,24.54123590138265,224000,112000.0,11031.110205173492
7.159388277053833,-4.329967651367188,-4.6786325054168705,0.05127242425084114,112500.0,0.007427668372169137,4.682544054031372,4.6825501861572265,4.68256022644043,225.0,1000.0,25.639491514817433,21.974475609735844,225000,112500.0,11076.617549180984
7.152617126464844,-4.323262826919556,-4.678944818496704,0.051186060577631,113000.0,0.0069041144782677295,4.681913179397583,4.681925916671753,4.68196835899353,226.0,1000.0,27.034595876109876,24.44377953842731,226000,113000.0,11117.527754545212
7.145838346481323,-4.317030075073242,-4.68104238319397,0.05108643750846386,113500.0,0.006991458208300173,4.684172513961792,4.6841172561645505,4.684212070465088,227.0,1000.0,26.756389814635643,24.580448052915138,227000,113500.0,11158.210496664047
7.139051866531372,-4.310353044509887,-4.686779951095581,0.051053342759609224,114000.0,0.006890752320177853,4.689583406448365,4.689585521697998,4.689579013824463,228.0,1000.0,27.187381402852818,21.828349172337475,228000,114000.0,11204.022482156754
7.1322577209472655,-4.303911247253418,-4.691932052612304,0.051218222200870515,114500.0,0.0071881250366568564,4.695249063491821,4.695253519058228,4.6953368072509765,229.0,1000.0,26.809263842465903,24.536741118363974,229000,114500.0,11244.77769112587
7.125455867767334,-4.297196159362793,-4.6938278770446775,0.051193057611584665,115000.0,0.007332449411042035,4.697015909194946,4.696992937088012,4.697068746566773,230.0,1000.0,26.94637254559953,21.916580369201355,230000,115000.0,11290.405248880386
7.118646291732788,-4.290922866821289,-4.695283336639404,0.05118535414338112,115500.0,0.006931697885505855,4.69873300743103,4.698772960662842,4.698850618362426,231.0,1000.0,25.156659200621704,10.124229460832735,231000,115500.0,11389.178198337555
7.111828985214234,-4.284445550918579,-4.697157299041748,0.051276944562792776,116000.0,0.008124584399163724,4.700969966888428,4.7009437446594236,4.700977325439453,232.0,1000.0,25.29022225632408,24.589501749620847,232000,116000.0,11429.845961093903
7.105003932952881,-4.277663845062256,-4.698394847869873,0.05112184801697731,116500.0,0.00819574566371739,4.701941993713379,4.7019611186981205,4.702012256622314,233.0,1000.0,22.688560302326408,24.486508316332575,233000,116500.0,11470.684777736664
7.098171104431152,-4.271418004989624,-4.6913248176574704,0.051040376901626584,117000.0,0.007264982560649514,4.694255477905274,4.694235095977783,4.694215839385986,234.0,1000.0,25.622434822460196,21.89403776064636,234000,117000.0,11516.359313726425
7.091330471038819,-4.265003707885742,-4.698210382461548,0.051039994567632675,117500.0,0.006703552891500294,4.702102499008179,4.702081392288208,4.702176713943482,235.0,1000.0,19.11673191411362,24.515433854555013,235000,117500.0,11557.149944782257
7.084482036590576,-4.258512741088867,-4.693234188079834,0.05108879904448986,118000.0,0.0070620756717398765,4.696551393508911,4.6965287399291995,4.696580911636352,236.0,1000.0,26.328077085033925,21.790531734912967,236000,118000.0,11603.041437149048
7.077625772476196,-4.252159482955933,-4.691402648925782,0.051095594197511675,118500.0,0.006921517400071025,4.694240716934204,4.694237947463989,4.694249053955078,237.0,1000.0,15.770508333419226,24.45996769383873,237000,118500.0,11643.92456626892
7.070761770248413,-4.245462890625,-4.680416070938111,0.05085711081326008,119000.0,0.00713401052635163,4.68321297454834,4.683237892150879,4.683223749160766,238.0,1000.0,25.10883228706266,24.554829468678033,238000,119000.0,11684.649753570557
7.063889713287353,-4.238878734588623,-4.689622671127319,0.05106129950284958,119500.0,0.006785825260914862,4.6920504379272465,4.692034551620483,4.692150884628296,239.0,1000.0,25.100028420958516,21.964188880763437,239000,119500.0,11730.178410053253
7.057009860992432,-4.232253913879394,-4.6842748718261715,0.05101895235478878,120000.0,0.006628597064875066,4.687497722625732,4.687496644973755,4.687475605010986,240.0,1000.0,31.906678752386373,24.614001759227804,240000,120000.0,11770.805692911148
7.050122144699096,-4.2260464134216305,-4.68744895362854,0.05096826407313347,120500.0,0.007466266869567335,4.690714244842529,4.690723352432251,4.690797880172729,241.0,1000.0,25.594096662733445,10.645291617616596,241000,120500.0,11864.74393749237
7.043226488113404,-4.219378921508789,-4.698235610961914,0.05110370473563671,121000.0,0.007248428146354854,4.7010135765075685,4.70099231338501,4.7010787601470945,242.0,1000.0,17.5058248750337,27.893724419429784,242000,121000.0,11900.594296693802
7.036322883605957,-4.212638349533081,-4.685215250015259,0.051012087240815164,121500.0,0.007209681772626936,4.688146091461181,4.688135313034057,4.688178527832031,243.0,1000.0,32.82758301619235,27.981139090451936,243000,121500.0,11936.332655906677
7.029411354064941,-4.20624655342102,-4.688185306549072,0.05100259806215763,122000.0,0.006955590760335326,4.6907816429138185,4.690782999038697,4.690818458557129,244.0,1000.0,27.43482760605341,24.56370792715012,244000,122000.0,11977.043122768402
7.022491828918457,-4.199863752365112,-4.697705432891846,0.051020006418228146,122500.0,0.006726356848608703,4.700254476547241,4.7002619972229,4.70032998085022,245.0,1000.0,25.35195486584234,27.974111296252573,245000,122500.0,12012.790461301804
7.015564323425293,-4.1931235942840575,-4.699324527740479,0.05117123518884182,123000.0,0.006862559475004673,4.70235009765625,4.7023278312683106,4.702368091583252,246.0,1000.0,27.14115959125149,27.906878767259535,246000,123000.0,12048.623921632767
7.008628841400147,-4.186658050537109,-4.705255102157593,0.05113054473698139,123500.0,0.006479423073120415,4.708170318603516,4.708179410934449,4.708248514175415,247.0,1000.0,26.744962488907827,27.87167524284311,247000,123500.0,12084.5026409626
7.001685276031494,-4.180146978378296,-4.703304361343384,0.05101177382469177,124000.0,0.006824964336119592,4.706193193435669,4.706163480758667,4.706202545166016,248.0,1000.0,20.259834865156364,27.93937993660272,248000,124000.0,12120.29441666603
6.994733688354493,-4.173311220169067,-4.693595848083496,0.05094738529622555,124500.0,0.006350184537470341,4.696135583877563,4.696139131546021,4.696144008636475,249.0,1000.0,26.515458367450254,27.796292385171775,249000,124500.0,12156.270438671112
6.987774080276489,-4.166957103729248,-4.698468091964721,0.0511637392938137,125000.0,0.006645279141142964,4.702686115264893,4.70270818901062,4.702742448806763,250.0,1000.0,34.487661295434236,28.017705318522655,250000,125000.0,12191.962156057358
6.980806343078613,-4.159892492294311,-4.703896268844605,0.051169431015849115,125500.0,0.007317208067514003,4.707298042297364,4.707285978317261,4.707364437103272,251.0,1000.0,24.321599422327527,11.87340999769326,251000,125500.0,12276.183960437775
6.973830501556397,-4.1533000354766845,-4.708472259521485,0.05114700178802013,126000.0,0.006520830503664911,4.711113798141479,4.711110912322998,4.711097631454468,252.0,1000.0,24.07237665273358,27.788052708300018,252000,126000.0,12312.17065024376
6.9668465557098385,-4.147395765304565,-4.700941963195801,0.05103080531954765,126500.0,0.006715946342796087,4.703970571517944,4.703947254180909,4.704058612823486,253.0,1000.0,27.90937968557099,27.72797079838842,253000,126500.0,12348.235316991806
6.959854467391968,-4.140110389709473,-4.706272104263306,0.05127794647216797,127000.0,0.007044151207432151,4.7091817283630375,4.7091797294616695,4.709200481414795,254.0,1000.0,17.76926517001362,27.74974500236289,254000,127000.0,12384.271684646606
6.952854221343994,-4.133508928298951,-4.703531293869019,0.05111072787642479,127500.0,0.007157803383655846,4.7063791370391845,4.706382511138916,4.706471378326416,255.0,1000.0,25.467588451642634,27.947688943284984,255000,127500.0,12420.052819252014
6.945845792770386,-4.127067840576172,-4.7059645824432375,0.05111311051249504,128000.0,0.006591147503815591,4.70870090675354,4.708707220077515,4.7087232227325435,256.0,1000.0,27.44716200685601,27.880385463260783,256000,128000.0,12455.920330286026
6.93882918548584,-4.120071773529053,-4.699757097244262,0.050892964482307436,128500.0,0.006476726946420968,4.702426250457764,4.702436870574951,4.702426475524902,257.0,1000.0,27.39004644383297,27.96427890969005,257000,128500.0,12491.680237531662
6.9318043403625484,-4.113644323348999,-4.70477812576294,0.05112352705001831,129000.0,0.006655098972842098,4.70723084640503,4.7072126636505125,4.707277696609497,258.0,1000.0,25.307818316846056,28.05293800989492,258000,129000.0,12527.327128648758
6.924771284103394,-4.106977210998535,-4.703036106109619,0.051018093928694726,129500.0,0.0064574675522744655,4.706514505386353,4.706504161834717,4.706510108947754,259.0,1000.0,26.50591454494512,27.709980013660015,259000,129500.0,12563.41521024704
6.917729961395263,-4.100324752807617,-4.704349515914917,0.050969603806734085,130000.0,0.006456141415983438,4.707294851303101,4.707329975128173,4.707380439758301,260.0,1000.0,25.53686109804974,27.922993486378637,260000,130000.0,12599.22799038887
6.910680360794068,-4.093378776550293,-4.705586496353149,0.051028023332357404,130500.0,0.006230463400483131,4.7083223476409914,4.708332342147827,4.708391479492187,261.0,1000.0,25.419137146530023,11.215410763486,261000,130500.0,12688.391020298004
6.903622482299805,-4.087307683944702,-4.71300576210022,0.05101274281740189,131000.0,0.006172958240844309,4.716174880981446,4.7161707572937015,4.7162333011627195,262.0,1000.0,27.281485297195644,27.834078972446125,262000,131000.0,12724.318202733994
6.896556285858154,-4.080225830078125,-4.708615070343018,0.051176293224096295,131500.0,0.0063691095570102335,4.711232101440429,4.711233764648438,4.711263374328613,263.0,1000.0,17.107859199066798,24.494691402806595,263000,131500.0,12765.143375873566
6.8894817276000975,-4.073679857254028,-4.703266059875488,0.05110766704380512,132000.0,0.006711235576309264,4.706338373184204,4.706337265014648,4.706330396652222,264.0,1000.0,30.290870265142544,27.635035477842237,264000,132000.0,12801.329326152802
6.882398866653443,-4.067305650711059,-4.703401922225952,0.05102318225800991,132500.0,0.006669424905441702,4.706592218399048,4.7065957736968995,4.70663265991211,265.0,1000.0,27.396850486170738,27.74997651611766,265000,132500.0,12837.365393400192
6.875307611465454,-4.060273641586304,-4.711217006683349,0.051251267269253734,133000.0,0.006913865475915372,4.714536741256714,4.71453828048706,4.7145667667388915,266.0,1000.0,27.986962450838707,27.734002138524065,266000,133000.0,12873.42221736908
6.868207983016967,-4.053486503601074,-4.709327213287353,0.05108364886045456,133500.0,0.006896354138385505,4.712123844146729,4.712112241744995,4.712186759948731,267.0,1000.0,25.65756310571906,27.779700712573845,267000,133500.0,12909.419725894928
6.861099908828735,-4.0472960300445555,-4.708826118469238,0.05105811002850533,134000.0,0.00633358092373237,4.712713172912598,4.712737382888794,4.712816551208496,268.0,1000.0,27.190813819486007,27.833283442990666,268000,134000.0,12945.347934484482
6.853983438491821,-4.040242111206054,-4.707870527267456,0.05106438945233822,134500.0,0.006198738886974752,4.711250936508178,4.7112000408172605,4.71122945022583,269.0,1000.0,28.347556153653002,27.80372320288059,269000,134500.0,12981.314341306686
6.846858509063721,-4.032772607803345,-4.710265293121338,0.05107335165143013,135000.0,0.006152330634649843,4.713771835327148,4.713803129196167,4.713811954498291,270.0,1000.0,27.24229240734047,27.72866297847087,270000,135000.0,13017.378108263016
6.8397251262664795,-4.026836275100708,-4.709222379684448,0.05110783046483994,135500.0,0.006912839590571821,4.712247596740722,4.712252435684204,4.712255483627319,271.0,1000.0,26.98125283233722,11.820664743915898,271000,135500.0,13101.975720405579
6.832583164215088,-4.01964130973816,-4.715018970489502,0.05108656361699104,136000.0,0.0065170441642403605,4.7178813724517825,4.717864601135254,4.71791757774353,272.0,1000.0,27.311866320861224,27.84282337258046,272000,136000.0,13137.891619205475
6.825432779312134,-4.013952867507935,-4.719741886138916,0.05115665391087532,136500.0,0.0070273850727826355,4.7221719207763675,4.72214598274231,4.722189552307129,273.0,1000.0,33.044374893607575,27.99211613876065,273000,136500.0,13173.61596441269
6.81827384185791,-4.005942895889282,-4.723506620407105,0.0510546318590641,137000.0,0.00622589404694736,4.725554277420044,4.725585441589356,4.725631517410278,274.0,1000.0,25.7162276720499,27.838652070783425,274000,137000.0,13209.53724527359
6.811106363296509,-3.999468607902527,-4.729935869216919,0.05115914909541607,137500.0,0.0072361938916146755,4.7331485939025875,4.7331489505767825,4.733203239440918,275.0,1000.0,25.623609437901067,27.87414932271823,275000,137500.0,13245.412780284882
6.803930301666259,-3.9927785978317263,-4.727039924621582,0.051205859869718554,138000.0,0.006527806867845356,4.729747894287109,4.729720375061035,4.729726455688477,276.0,1000.0,27.141538322512456,27.87490291427735,276000,138000.0,13281.287345647812
6.796745635986328,-3.9860614099502563,-4.725445667266846,0.051100242152810095,138500.0,0.006152945093810558,4.728258321762085,4.728295825958252,4.728345607757569,277.0,1000.0,25.313725306849747,27.896630270122234,277000,138500.0,13317.13397026062
6.789552400588989,-3.9792999792099,-4.727536437988281,0.05125720293819904,139000.0,0.006078702370636165,4.730258741378784,4.73022953414917,4.73025989151001,278.0,1000.0,26.562089434513393,27.838482820527105,278000,139000.0,13353.055468559265
6.78235046005249,-3.97235359954834,-4.734099517822266,0.05135577489435673,139500.0,0.006125482364092022,4.73617967414856,4.736181131362915,4.73627686882019,279.0,1000.0,24.760125412116746,27.941702989580165,279000,139500.0,13388.84426856041
6.775139909744262,-3.9658060626983644,-4.730763589859008,0.0513059583902359,140000.0,0.0066872640792280435,4.734338777542114,4.73433416557312,4.7343495750427245,280.0,1000.0,28.04386569100258,27.821487535241893,280000,140000.0,13424.787710428238
6.767920598983765,-3.9590257997512817,-4.732987251281738,0.05136173294484615,140500.0,0.0059521957207471134,4.7353493709564205,4.735344404220581,4.735391485214233,281.0,1000.0,27.815745134177124,11.808283434658273,281000,140500.0,13509.4740254879
6.760692733764649,-3.9522335119247436,-4.7354676704406735,0.05127313007414341,141000.0,0.0064956985022872685,4.738242296218872,4.738235845565796,4.738211095809937,282.0,1000.0,28.16216036756044,27.71380794580011,282000,141000.0,13545.557122707367
6.753456081390381,-3.9449020919799804,-4.737442058563232,0.051301709488034246,141500.0,0.00596942214621231,4.740210161209107,4.74021551322937,4.740328994750977,283.0,1000.0,24.432282854811945,27.90081562528267,283000,141500.0,13581.39837026596
6.746210721969605,-3.9382134103775024,-4.736436866760254,0.051301843717694286,142000.0,0.005932215473614633,4.739732818603516,4.739771497726441,4.739765233993531,284.0,1000.0,29.920025442199567,27.84710445130657,284000,142000.0,13617.308747053146
6.738956548690796,-3.9315460233688353,-4.741876708984375,0.051487136721611024,142500.0,0.006681346608325839,4.746428159713745,4.746371936798096,4.746430183410644,285.0,1000.0,24.93442685609763,27.988347094863656,285000,142500.0,13653.037903547287
6.731693609237671,-3.9246944398880004,-4.741691074371338,0.051312827304005625,143000.0,0.006508312477730214,4.744280572891236,4.744279647827148,4.744326400756836,286.0,1000.0,15.862863907269876,27.726251129776063,286000,143000.0,13689.104806661606
6.724421880722046,-3.9180413274765016,-4.737091770172119,0.05142020772397518,143500.0,0.006493105270899832,4.740701566696167,4.740735668182373,4.740756216049195,287.0,1000.0,28.52203783003565,27.727590260713537,287000,143500.0,13725.169968128204
6.717141317367553,-3.910902928352356,-4.736984945297241,0.05132246255874634,144000.0,0.0058144074007868765,4.740215038299561,4.740178647994995,4.740216173171997,288.0,1000.0,25.658243832589584,27.912150816534613,288000,144000.0,13760.996659755707
6.709851961135865,-3.9038212957382203,-4.734689260482788,0.051164939627051355,144500.0,0.006002406246960163,4.7376950721740725,4.737703689575195,4.737738159179687,289.0,1000.0,25.337075767271664,27.844840911162947,289000,144500.0,13796.909955978394
6.702553674697876,-3.8972029066085816,-4.738577173233033,0.05130109642446041,145000.0,0.005983833024278283,4.741352994918823,4.741341890335083,4.741354940414428,290.0,1000.0,26.56548115156587,27.86114387931215,290000,145000.0,13832.802237510681
6.6952465019226075,-3.890274374961853,-4.739854368209839,0.05125936463475227,145500.0,0.005878344500437379,4.742518198013306,4.742542085647583,4.742549551010132,291.0,1000.0,25.68347990731305,10.056702961883579,291000,145500.0,13932.238405942917
6.687930433273316,-3.883376375198364,-4.736836212158203,0.05123894399404526,146000.0,0.006956698310561478,4.739661987304688,4.739657556533813,4.739737411499023,292.0,1000.0,25.690134327950236,27.755028369849672,292000,146000.0,13968.267914295197
6.680605459213257,-3.876521283149719,-4.73623685836792,0.05127933283150196,146500.0,0.006064427368342876,4.73929169845581,4.739305967330933,4.739296714782715,293.0,1000.0,26.659385438571793,27.720174244818956,293000,146500.0,14004.342724084854
6.673271511077881,-3.869231225013733,-4.740582901000977,0.05116809490323067,147000.0,0.00579807853186503,4.742929481506348,4.742920627593994,4.743016635894775,294.0,1000.0,27.536593611726765,24.32905797081778,294000,147000.0,14045.445837020874
6.665928564071655,-3.862516947746277,-4.737675416946411,0.05127314744889736,147500.0,0.006111317628063262,4.7405207748413085,4.740523706436157,4.740555921554566,295.0,1000.0,25.243060557607155,27.789118142067036,295000,147500.0,14081.431146860123
6.658576627731323,-3.855380506515503,-4.743415744781494,0.051356689468026163,148000.0,0.0054569684192538265,4.746319665908813,4.746280040740967,4.746307523727417,296.0,1000.0,24.743930983708122,27.698683464861286,296000,148000.0,14117.533946990967
6.651215705871582,-3.8486302633285523,-4.736155094146729,0.05130560876429081,148500.0,0.006190587294287979,4.7412117462158205,4.741257272720337,4.741249290466309,297.0,1000.0,28.657245270293256,27.779734566853133,297000,148500.0,14153.531412363052
6.643845706939698,-3.8418818864822386,-4.742095062255859,0.05135644437372684,149000.0,0.005515567447990179,4.74719104385376,4.747170030593872,4.747269144058228,298.0,1000.0,15.449884148075535,27.684558365017008,298000,149000.0,14189.652631998062
6.636466667175293,-3.8348730392456054,-4.72931056022644,0.05115991933643818,149500.0,0.005630196245387196,4.734097333908081,4.734087329864502,4.734099296569824,299.0,1000.0,24.948792716563172,27.91306380318822,299000,149500.0,14225.478152036667
6.629078535079956,-3.8274185485839842,-4.7327161903381345,0.05118285971879959,150000.0,0.00558638980332762,4.736406463623047,4.736400997161865,4.736433298110962,300.0,1000.0,26.362726370862585,27.95725883574482,300000,150000.0,14261.247038602829
6.621681262969971,-3.8212341480255128,-4.733459499359131,0.0512238298356533,150500.0,0.005492171162739396,4.736662696838379,4.7366751728057865,4.736644580841064,301.0,1000.0,25.544105543001,11.92117639169462,301000,150500.0,14345.131377696991
6.614274909973145,-3.814022988319397,-4.737208648681641,0.051284843921661376,151000.0,0.006038531992584467,4.740105484008789,4.740103061676026,4.740175521850586,302.0,1000.0,26.945161063583278,27.76567356147909,302000,151000.0,14381.147072315216
6.606859405517578,-3.807019768714905,-4.745666208267212,0.05125370895862579,151500.0,0.005252870663069189,4.748025905609131,4.747996223449707,4.74805624961853,303.0,1000.0,26.93119804916769,21.956703910892355,303000,151500.0,14426.69125032425
6.599434671401977,-3.800164539337158,-4.742214044570923,0.05125081090629101,152000.0,0.005779443704523146,4.745871040344238,4.745862630844116,4.745889215469361,304.0,1000.0,24.883302806689354,28.123081932276428,304000,152000.0,14462.249231338501
6.592000831604004,-3.7931662130355837,-4.740315202713012,0.05120204615592956,152500.0,0.0059128672508522865,4.742851989746094,4.74286481666565,4.742905248641968,305.0,1000.0,27.47544806837856,27.78960973832652,305000,152500.0,14498.233904600143
6.584557643890381,-3.7854689264297487,-4.742284830093384,0.05133022193610668,153000.0,0.0062529516685754065,4.745470109939575,4.745485691070557,4.745511930465698,306.0,1000.0,27.202728424389417,27.849926072570227,306000,153000.0,14534.14064335823
6.577105270385742,-3.778718047142029,-4.740391487121582,0.05128021197021008,153500.0,0.006175741417799145,4.743598501205445,4.743595132827759,4.743646936416626,307.0,1000.0,28.73813869465646,28.027441594249982,307000,153500.0,14569.819962263107
6.569643632888794,-3.771640281677246,-4.74009121131897,0.0513202551305294,154000.0,0.006072284257505089,4.743264646530151,4.743264331817627,4.743287630081177,308.0,1000.0,14.987239708562768,27.73765841203125,308000,154000.0,14605.872033119202
6.562172714233398,-3.7645605840682985,-4.738124450683594,0.05121251145005226,154500.0,0.006028541241772473,4.740757106781006,4.740723272323608,4.740752807617188,309.0,1000.0,24.64855431708175,28.00920873897164,309000,154500.0,14641.574577569962
6.554692438125611,-3.758141019821167,-4.735439630508423,0.05132895851135254,155000.0,0.005746411651838571,4.739943056106568,4.739952907562256,4.740019062042236,310.0,1000.0,28.070286525603013,27.891002971360177,310000,155000.0,14677.42843413353
6.547202898025513,-3.750686597824097,-4.740688787460327,0.05132983012497425,155500.0,0.0063951821913942695,4.744036256790161,4.7440539150238035,4.744061925888062,311.0,1000.0,28.084943751595784,11.214900933719091,311000,155500.0,14766.595518112183
6.5397039299011235,-3.7436191568374633,-4.7407377815246585,0.05112969163060188,156000.0,0.00551429922087118,4.743597423553466,4.743579210281372,4.7436329345703125,312.0,1000.0,26.123924882175302,27.985597629555485,312000,156000.0,14802.328184127808
6.532195657730102,-3.7364892930984497,-4.739197750091552,0.051121088579297064,156500.0,0.006063367201946676,4.7421549091339115,4.742170631408691,4.7422327766418455,313.0,1000.0,31.210796857775282,24.486297891061735,313000,156500.0,14843.16735124588
6.524677875518798,-3.7298808555603027,-4.744210594177246,0.05135171550512314,157000.0,0.006566089611500502,4.7473644962310795,4.74734486579895,4.747382919311524,314.0,1000.0,32.91862170287466,27.966282762019276,314000,157000.0,14878.924696445465
6.517150714874267,-3.7226027088165283,-4.744139278411866,0.05148366305232048,157500.0,0.006298169983550906,4.74660235786438,4.746613332748413,4.746619010925293,315.0,1000.0,25.055335941677228,27.975592404431474,315000,157500.0,14914.670142173767
6.5096141052246095,-3.7152053451538087,-4.743812747955323,0.05149231742322445,158000.0,0.006157205781899392,4.746489009857178,4.746486339569092,4.746510105133057,316.0,1000.0,24.829928229722952,27.936816483471983,316000,158000.0,14950.465202569962
6.5020680103302,-3.708158729553223,-4.748125535964966,0.051372599005699154,158500.0,0.006060280580073595,4.7510395565032955,4.7510375366210935,4.751098621368408,317.0,1000.0,26.40827061768579,28.003993264279227,317000,158500.0,14986.174396038055
6.494512393951416,-3.7008167123794555,-4.748219650268554,0.05138401143252849,159000.0,0.0062512851008214056,4.750674133300781,4.750641876220703,4.750705583572388,318.0,1000.0,16.973012876939105,27.910558851862262,318000,159000.0,15022.0031311512
6.486947269439697,-3.6939279289245603,-4.739123819351196,0.05120282144844532,159500.0,0.006062846473418176,4.741436504364014,4.741454702377319,4.7414766082763675,319.0,1000.0,24.64311574980805,27.87656510932348,319000,159500.0,15057.87555718422
6.4793725624084475,-3.6867529067993163,-4.7375093269348145,0.05122254331409931,160000.0,0.006110790119506418,4.739869626998901,4.739867420196533,4.739934103012085,320.0,1000.0,27.988779871931033,27.74666867798896,320000,160000.0,15093.915920972824
6.471788341522217,-3.679888995170593,-4.743480457305909,0.0512668002396822,160500.0,0.006133443010039628,4.746230184555054,4.746251714706421,4.7463004322052,321.0,1000.0,26.99626153916065,10.594484011648632,321000,160500.0,15188.304661989212
6.464194480895996,-3.6723927001953127,-4.7429105548858645,0.05148682217299938,161000.0,0.005801183484494686,4.746072240829468,4.746048273086548,4.746073268890381,322.0,1000.0,26.651685023222736,27.809375258601317,322000,161000.0,15224.2637591362
6.4565910091400145,-3.665599242210388,-4.742889204025269,0.05137633565068245,161500.0,0.005970376658253371,4.745653232574463,4.745634073257446,4.745699502944946,323.0,1000.0,14.982407685232321,27.624903213642636,323000,161500.0,15260.462981939316
6.448977891921997,-3.657929609298706,-4.737367206573486,0.05121948999166489,162000.0,0.0060290591446682815,4.739852670669555,4.7398807888031005,4.739852312088012,324.0,1000.0,27.47396107098177,27.77161466389383,324000,162000.0,15296.470972061157
6.44135510635376,-3.6509489078521726,-4.735173974990845,0.051314202591776846,162500.0,0.005817120730876923,4.737757633209228,4.73775114440918,4.737770090103149,325.0,1000.0,15.050811652014131,27.630517559027954,325000,162500.0,15332.66283941269
6.433722570419311,-3.64399686050415,-4.727662908554077,0.05111217038333416,163000.0,0.006364219119306654,4.730817733764648,4.730798818588257,4.730832214355469,326.0,1000.0,28.203687358187008,27.79266649484702,326000,163000.0,15368.643554925919
6.426080379486084,-3.636410111427307,-4.72740478515625,0.05122469234466553,163500.0,0.006345064864493906,4.730738670349121,4.730743362426757,4.730809495925904,327.0,1000.0,28.2326425205235,27.738731908973108,327000,163500.0,15404.694230556488
6.418428407669067,-3.6296493949890136,-4.725073049545288,0.05118536987900734,164000.0,0.006333546795882284,4.728737716674805,4.728721214294434,4.728732276916504,328.0,1000.0,27.478105139590657,27.736893513609015,328000,164000.0,15440.747295856476
6.410766681671142,-3.6224923429489135,-4.734650997161865,0.05127674800157547,164500.0,0.005934385481290519,4.737958765029907,4.737971422195435,4.737976146697998,329.0,1000.0,27.543667941072016,27.71520356306312,329000,164500.0,15476.828575849533
6.403095123291016,-3.615341565132141,-4.731749235153198,0.051307971745729444,165000.0,0.006252722058445215,4.735900606155395,4.735911224365235,4.735930507659912,330.0,1000.0,34.771724043809364,27.863059494141964,330000,165000.0,15512.718389749527
6.395413812637329,-3.607776369094849,-4.732548917770385,0.051204299062490466,165500.0,0.0064441266674548385,4.735517547607422,4.735486494064331,4.73554592514038,331.0,1000.0,30.607739795958178,11.838720900234865,331000,165500.0,15597.186975240707
6.387722602844239,-3.6006105756759643,-4.7323789825439455,0.051347516492009165,166000.0,0.006022839515469968,4.735576656341553,4.735597585678101,4.735649772644043,332.0,1000.0,15.418076878847268,24.314753784671613,332000,166000.0,15638.314269065857
6.380021556854248,-3.5936870069503786,-4.729272384643554,0.05118592773377895,166500.0,0.005949906025081873,4.7321885986328125,4.732188320159912,4.732183048248291,333.0,1000.0,25.25156399291343,27.9457892315968,333000,166500.0,15674.097836256027
6.372310598373413,-3.5862914371490477,-4.727365621566772,0.05113891950249672,167000.0,0.006076116702053696,4.72979478263855,4.729814571380615,4.729801593780517,334.0,1000.0,30.977674901698883,27.688493150373848,334000,167000.0,15710.213923454285
6.364589702606201,-3.5789921827316284,-4.72643204498291,0.05122418826818466,167500.0,0.0063891343772411345,4.729717746734619,4.7297014713287355,4.729791996002198,335.0,1000.0,24.376590529979683,27.7414031710438,335000,167500.0,15746.261127710342
6.356858871459961,-3.571776093482971,-4.72713353729248,0.05123506306111813,168000.0,0.006166924005374313,4.729806121826172,4.72980717086792,4.729821304321289,336.0,1000.0,27.581942997763466,27.72308271052848,336000,168000.0,15782.332153081894
6.349118061065674,-3.5645489435195925,-4.727946115493775,0.051233006343245506,168500.0,0.006112632662057876,4.731026693344116,4.731036123275757,4.731051170349121,337.0,1000.0,25.65036813073695,27.87092478900269,337000,168500.0,15818.21183848381
6.341367254257202,-3.5569172716140747,-4.72958611869812,0.051297542437911035,169000.0,0.006282654993236065,4.731970628738403,4.731918926239014,4.732024360656738,338.0,1000.0,24.28096819022696,27.880273155823357,338000,169000.0,15854.0794942379
6.333606424331665,-3.549804210662842,-4.722578872680664,0.051230862855911254,169500.0,0.0059124746927991505,4.725716314315796,4.725752544403076,4.72576056098938,339.0,1000.0,25.273761496751142,27.910224174190404,339000,169500.0,15889.908659219742
6.325835525512695,-3.5426320114135743,-4.723696514129639,0.051405988588929176,170000.0,0.006701581814792007,4.72685726928711,4.726836450576783,4.726857400894165,340.0,1000.0,26.01524656514192,27.678433437664356,340000,170000.0,15926.037888288498
6.318054567337036,-3.5354124336242676,-4.7262458305358885,0.05135209661722183,170500.0,0.00583372286055237,4.730330718994141,4.730322149276733,4.730377321243286,341.0,1000.0,16.54767769556495,11.814574193904523,341000,170500.0,16010.679111719131
6.310263523101806,-3.5284002628326414,-4.721763830184937,0.05132266050577164,171000.0,0.0063737405193969605,4.726177946090698,4.7261751289367675,4.726218414306641,342.0,1000.0,26.61405591484699,27.741222624484887,342000,171000.0,16046.726550340652
6.302462324142456,-3.520524429321289,-4.718188377380371,0.05121123817563057,171500.0,0.006449496780522168,4.723259408950805,4.723249597549438,4.723293762207032,343.0,1000.0,25.182631905284893,27.54678351365821,343000,171500.0,16083.028431415558
6.294650943756103,-3.513681926727295,-4.724630350112915,0.05121810030937195,172000.0,0.00610917094629258,4.726886684417725,4.726910257339478,4.726902332305908,344.0,1000.0,25.251443891340436,27.704414398936713,344000,172000.0,16119.123762369156
6.286829442977905,-3.506295372962952,-4.728093622207641,0.05118735533952713,172500.0,0.005788144432939589,4.730943042755127,4.730953462600708,4.731008737564087,345.0,1000.0,25.214146848330692,27.950995899304992,345000,172500.0,16154.900663852692
6.278997674942016,-3.4985968542098997,-4.719354539871216,0.05116675445437431,173000.0,0.005726229614112526,4.721835014343262,4.721859926223755,4.721859119415283,346.0,1000.0,25.251792280007294,27.901265522712546,346000,173000.0,16190.741332769394
6.271155696868896,-3.4916752023696898,-4.7254147033691405,0.05125850406289101,173500.0,0.006089445952326059,4.728492952346802,4.728469808578491,4.728558427810669,347.0,1000.0,23.505524333335615,27.826034897899852,347000,173500.0,16226.67890048027
6.263303430557251,-3.4839154434204103,-4.717124454498291,0.05113434126973152,174000.0,0.006198484437540173,4.719420803070069,4.719427364349365,4.719438034057617,348.0,1000.0,24.73570928352601,27.877945667415915,348000,174000.0,16262.549550056458
6.255440832138062,-3.4767934436798096,-4.718151817321777,0.05128766684234142,174500.0,0.006405473689548671,4.721357791900635,4.721346410751343,4.7212974662780764,349.0,1000.0,31.356344330815794,27.725283245561144,349000,174500.0,16298.617713212967
6.2475680751800535,-3.469207325935364,-4.715372018814087,0.05113033725321293,175000.0,0.0066137117156758905,4.717962299346924,4.7179275951385495,4.71806374168396,350.0,1000.0,27.50609353898148,27.742745784565795,350000,175000.0,16334.663172483444
6.2396848697662355,-3.462069578170776,-4.720355037689209,0.05128235599398613,175500.0,0.00635902780201286,4.723420030593872,4.723435777664185,4.723463249206543,351.0,1000.0,24.659585740786227,11.859450599224727,351000,175500.0,16418.98411154747
6.231791315078735,-3.4550252017974854,-4.715963260650635,0.051029552891850474,176000.0,0.005846470434218645,4.719194580078125,4.719202899932862,4.719185167312622,352.0,1000.0,27.15018550447619,27.808555144024517,352000,176000.0,16454.944269418716
6.223887348175049,-3.447318380355835,-4.719623836517334,0.051255139485001565,176500.0,0.00586188542842865,4.722327001571656,4.722307630538941,4.722368148803711,353.0,1000.0,26.621393186478514,27.77633611926657,353000,176500.0,16490.946138620377
6.215972948074341,-3.4396695280075074,-4.721428344726562,0.05118881204724312,177000.0,0.006322307113092392,4.723382135391235,4.7233773021698,4.7233764228820805,354.0,1000.0,27.359101847182476,27.683683835906923,354000,177000.0,16527.068499565125
6.208048124313354,-3.4322014846801756,-4.721549167633056,0.051361652597784996,177500.0,0.00599115751683712,4.724452257156372,4.724498649597168,4.724524932861328,355.0,1000.0,25.716404839190897,27.973546919249266,355000,177500.0,16562.816559314728
6.200112819671631,-3.424750400543213,-4.7215613212585446,0.05137284392118454,178000.0,0.005393072091974318,4.72424870300293,4.724241739273071,4.7242507629394535,356.0,1000.0,25.38814908058159,27.95883115865744,356000,178000.0,16598.583434343338
6.192166965484619,-3.4177779550552367,-4.723875978469849,0.051347166195511815,178500.0,0.006247459810227156,4.726685319900513,4.726708471298218,4.726744764328003,357.0,1000.0,25.528458104302572,27.867252741037987,357000,178500.0,16634.467848300934
6.184210605621338,-3.4103158102035525,-4.7182729530334475,0.0512172484844923,179000.0,0.0061606086129322645,4.721295679092408,4.721273899078369,4.721399854660034,358.0,1000.0,25.314635269752376,27.74962217863232,358000,179000.0,16670.5043759346
6.176243667602539,-3.4026947917938233,-4.717343513488769,0.05116338823735714,179500.0,0.0063011112082749605,4.720921859741211,4.720911239624024,4.720914098739624,359.0,1000.0,25.152365590711764,27.828992579486457,359000,179500.0,16706.438124895096
6.168266147613525,-3.3953726406097413,-4.725797666549683,0.05127085027098656,180000.0,0.005968863401561975,4.728295774459839,4.72831231880188,4.728306118011474,360.0,1000.0,15.735498207947886,27.78166329307969,360000,180000.0,16742.433090925217
6.160277988433838,-3.3875648574829103,-4.717775022506713,0.051094500973820685,180500.0,0.006094419646076858,4.720598075866699,4.720573263168335,4.7206138935089115,361.0,1000.0,28.507085902581313,10.638721435654356,361000,180500.0,16836.429349660873
6.152279186248779,-3.37951624584198,-4.718838438034058,0.05113407108187675,181000.0,0.006365561975166202,4.721390449523926,4.721387546539306,4.721421981811523,362.0,1000.0,16.015227452253125,27.6558022649278,362000,181000.0,16872.588128328323
6.144269695281983,-3.3725701274871827,-4.714455158233642,0.05119245900213718,181500.0,0.006287412282079458,4.716980047225952,4.716963630676269,4.716986631393433,363.0,1000.0,27.066141194139696,27.6670941518766,363000,181500.0,16908.732149124146
6.136249536514282,-3.36501140499115,-4.716641916275025,0.051127414107322695,182000.0,0.006289090589620173,4.719494520187378,4.719515792846679,4.719553363800049,364.0,1000.0,27.17554648374805,24.462282160254887,364000,182000.0,16949.61141037941
6.128218656539917,-3.357979859352112,-4.714478546142578,0.05110566768050194,182500.0,0.0071020462196320295,4.717750804901123,4.7177309246063235,4.717754936218261,365.0,1000.0,25.68953168389733,27.91569424451054,365000,182500.0,16985.433554172516
6.120176961898804,-3.3501806144714354,-4.7148017444610595,0.0510080838650465,183000.0,0.005758171905763447,4.717409393310547,4.71740962600708,4.717446231842041,366.0,1000.0,15.818083098456032,27.68389086005892,366000,183000.0,17021.555645227432
6.112124481201172,-3.3421800012588503,-4.712387245178222,0.051195411175489425,183500.0,0.006157771703321486,4.715182189941406,4.715192476272583,4.715203964233399,367.0,1000.0,28.141461203324287,27.406181437647597,367000,183500.0,17058.043764829636
6.10406120300293,-3.3350979709625244,-4.711774642944336,0.051127681568264964,184000.0,0.005562706012278795,4.7149034767150875,4.714915002822876,4.714991941452026,368.0,1000.0,25.00397813091341,27.60320142602782,368000,184000.0,17094.27144765854
6.095987066268921,-3.327295174598694,-4.7051807956695555,0.05103835092484951,184500.0,0.0059168334444984795,4.708297018051147,4.708283620834351,4.7082561550140385,369.0,1000.0,24.949427913649988,27.654482640131505,369000,184500.0,17130.431951522827
6.087902021408081,-3.3193752794265747,-4.705583221435547,0.05111285284161568,185000.0,0.006316301746293902,4.708979602813721,4.7089520282745365,4.709041595458984,370.0,1000.0,25.62773274646449,27.703420225477476,370000,185000.0,17166.528578042984
6.079806089401245,-3.3121119747161867,-4.713031171798706,0.05129672795534134,185500.0,0.00620955999661237,4.716185913085938,4.716199443817139,4.7161722660064695,371.0,1000.0,28.316356460919078,11.691740203051351,371000,185500.0,17252.05904650688
6.071699226379395,-3.3044227590560915,-4.714043531417847,0.05107088828086853,186000.0,0.006144848617725075,4.716890888214111,4.71688818359375,4.716938680648804,372.0,1000.0,25.81040552102125,27.682851202516552,372000,186000.0,17288.182493925095
6.063581396102905,-3.2968524646759034,-4.713689901351929,0.051125003695487975,186500.0,0.006457345111761242,4.716883586883545,4.716853044509888,4.716925762176514,373.0,1000.0,32.85026086937698,27.794219253220145,373000,186500.0,17324.161199331284
6.055452548980713,-3.289871403694153,-4.716512153625488,0.05126585701107979,187000.0,0.006525292135775089,4.719409421920776,4.719460140228271,4.719475379943848,374.0,1000.0,24.252251065120234,27.66942124575317,374000,187000.0,17360.302180290222
6.047312671661377,-3.282323916435242,-4.714674253463745,0.05111599476635456,187500.0,0.006258787696715444,4.71809529876709,4.718089054107666,4.718072931289673,375.0,1000.0,28.28427217021527,27.485097377904026,375000,187500.0,17396.685534000397
6.039161714553833,-3.274415774345398,-4.714960432052612,0.05115886175632477,188000.0,0.00571252887416631,4.717766452789307,4.717752422332763,4.717843606948852,376.0,1000.0,18.39327539655158,27.26855424633651,376000,188000.0,17433.35781264305
6.030999753952027,-3.2659512786865235,-4.709953298568726,0.051296836361289025,188500.0,0.0061980378106236455,4.713265201568603,4.713267475128174,4.713243692398072,377.0,1000.0,16.19662698625955,27.487297401467558,377000,188500.0,17469.7382543087
6.022826620101929,-3.2590984878540037,-4.700737606048584,0.05118201538920403,189000.0,0.005515902733895928,4.703560171127319,4.703562314987183,4.703565567016602,378.0,1000.0,33.21050974735153,27.677972798391696,378000,189000.0,17505.86806869507
6.014642364501953,-3.25145938873291,-4.700037996292115,0.051018032029271125,189500.0,0.005918254284188152,4.70359401512146,4.703554426193238,4.703575172424316,379.0,1000.0,24.766532976347243,27.76859121563041,379000,189500.0,17541.879979372025
6.006446855545044,-3.2444023370742796,-4.706571950912475,0.051142753630876545,190000.0,0.006309380965307355,4.709286516189575,4.709292158126831,4.709361135482788,380.0,1000.0,27.453461157865537,27.551285490269215,380000,190000.0,17578.175927639008
5.9982402153015135,-3.236366976737976,-4.70130454826355,0.05098706641793251,190500.0,0.006299275123048574,4.70363881111145,4.703638534545899,4.7036762580871585,381.0,1000.0,14.93770294401498,10.477648361803018,381000,190500.0,17673.61719226837
5.990022302627564,-3.228619987487793,-4.70213277053833,0.05103339584171772,191000.0,0.005991445468273014,4.704817930221558,4.704831306457519,4.704844770431518,382.0,1000.0,16.386053250599275,27.51036479864627,382000,191000.0,17709.96712899208
5.981793136596679,-3.220303936958313,-4.696120267868042,0.050997308030724525,191500.0,0.006225045482628047,4.698930700302124,4.6989231758117675,4.69895221710205,383.0,1000.0,24.97518599975406,27.686032362137578,383000,191500.0,17746.08642554283
5.97355265045166,-3.2132671031951903,-4.6938033771514895,0.05108180972933769,192000.0,0.006244328993372619,4.696200681686402,4.696165082931518,4.696216823577881,384.0,1000.0,24.446521646882204,27.731183421884207,384000,192000.0,17782.14691376686
5.965300838470459,-3.2047914457321167,-4.694554922103882,0.05118539637327194,192500.0,0.006185173816978931,4.697739744186402,4.697760269165039,4.697780157089233,385.0,1000.0,27.60361677617491,27.56069607857922,385000,192500.0,17818.430469751358
5.957037656784058,-3.197901361465454,-4.699507822036743,0.051200779750943184,193000.0,0.0061046492224559185,4.703263486862182,4.703239452362061,4.7033052768707275,386.0,1000.0,27.600880846282696,27.540614866310314,386000,193000.0,17854.7404794693
5.948763095855713,-3.1892963333129885,-4.7008271999359135,0.051077567189931866,193500.0,0.006769619945436716,4.7050280838012695,4.705049253463745,4.705090902328491,387.0,1000.0,25.13182132447574,27.626387423872885,387000,193500.0,17890.937757253647
5.940477111816406,-3.182464725494385,-4.695899005889893,0.050890824213624,194000.0,0.0062958410857245324,4.699993505477905,4.700013681411743,4.699966016769409,388.0,1000.0,25.03167975019101,27.631014845501713,388000,194000.0,17927.12897324562
5.932179634094238,-3.17507559299469,-4.69894958114624,0.051110595509409905,194500.0,0.005848140561021864,4.702650314331055,4.702660743713379,4.702672996520996,389.0,1000.0,29.38672122591135,27.481217304005064,389000,194500.0,17963.517464399338
5.923870687484741,-3.166979164123535,-4.700321723937988,0.051144491851329806,195000.0,0.005599503338336945,4.703496156692505,4.703452480316162,4.703470949172973,390.0,1000.0,25.17923040162394,27.74687279056979,390000,195000.0,17999.557562589645
5.915550199508667,-3.1593658027648925,-4.6975989952087405,0.05125188992917538,195500.0,0.0059266655053943395,4.7019800834655765,4.70197801399231,4.702062919616699,391.0,1000.0,27.163387561849888,11.05094933856075,391000,195500.0,18090.047527074814
5.907218183517456,-3.151468987464905,-4.703787366867066,0.0511176048219204,196000.0,0.006064356196671724,4.707071657180786,4.70707769203186,4.707087347030639,392.0,1000.0,21.20350995201377,24.376456611471305,392000,196000.0,18131.070717811584
5.898874549865723,-3.1438512535095215,-4.697272113800048,0.05098759478330612,196500.0,0.006485928856767714,4.700583456039428,4.700602188110351,4.700620021820068,393.0,1000.0,26.734630514342825,27.540782864933526,393000,196500.0,18167.38050675392
5.890519346237182,-3.136115116119385,-4.697401725769043,0.05106584016978741,197000.0,0.005945520930923522,4.701010545730591,4.7009948558807375,4.70105669593811,394.0,1000.0,27.482887952099407,27.376567634661917,394000,197000.0,18203.908096313477
5.882152435302735,-3.128432336807251,-4.6960323066711425,0.05099614481627941,197500.0,0.006255760979838669,4.698644847869873,4.698642040252685,4.698657409667969,395.0,1000.0,14.983010435313384,27.486004255054567,395000,197500.0,18240.290249586105
5.873773880004883,-3.1206176300048827,-4.6992008514404295,0.05103892286121845,198000.0,0.005792918878607452,4.702368370056153,4.702369956970215,4.702372577667236,396.0,1000.0,26.77772037876863,27.524491297611746,396000,198000.0,18276.62153029442
5.86538360786438,-3.1128912057876588,-4.6986768970489505,0.05104815536737442,198500.0,0.006460781781934202,4.7015702991485595,4.701600109100342,4.7016197853088375,397.0,1000.0,27.167064095605028,27.62331237268405,397000,198500.0,18312.82283806801
5.856981569290161,-3.1046846160888673,-4.6947126331329345,0.051167591601610184,199000.0,0.006015752634033561,4.698180540084839,4.698151685714722,4.698196969985962,398.0,1000.0,24.976853051882387,27.59516876643838,398000,199000.0,18349.06106686592
5.848567735671997,-3.097160343170166,-4.695860479354859,0.05096092912554741,199500.0,0.006043632410466671,4.698239933013916,4.698231964111328,4.698279249191284,399.0,1000.0,25.060398391156124,27.63931937105877,399000,199500.0,18385.241408348083
5.840142105102539,-3.0886443996429445,-4.701364685058594,0.0512008131891489,200000.0,0.005736148396506905,4.70385772895813,4.70387188911438,4.7039008102416995,400.0,1000.0,27.222527236912658,27.514895851629756,400000,200000.0,18421.585359096527
5.83170461845398,-3.0816010808944703,-4.694342329025268,0.05096963007748127,200500.0,0.006248630640562624,4.6970075988769535,4.697001258850098,4.697046728134155,401.0,1000.0,24.7663081766034,9.983729010371132,401000,200500.0,18521.748334884644
5.823255279541016,-3.072932744026184,-4.701574743270874,0.051135795250535014,201000.0,0.006419480176176876,4.704194849014282,4.7042162799835205,4.70420572090149,402.0,1000.0,26.359129051306628,27.580162765086385,402000,201000.0,18558.006279468536
5.814793998718262,-3.0653850469589234,-4.699360107421875,0.05101177169382572,201500.0,0.006279881842900068,4.701933471679688,4.701928123474121,4.701977111816406,403.0,1000.0,27.931260650523843,27.49229370302077,403000,201500.0,18594.380110263824
5.806320772171021,-3.0580424642562867,-4.7053982963562015,0.051112306162714956,202000.0,0.0060408012485131625,4.708302906036377,4.708293336868286,4.708325891494751,404.0,1000.0,28.36502333384091,27.462145858197,404000,202000.0,18630.79387140274
5.797835563659668,-3.0496422786712647,-4.698578701019287,0.05103299513459206,202500.0,0.00607381145004183,4.702223884582519,4.702213821411132,4.7022130546569825,405.0,1000.0,18.035387786400122,27.447126083553663,405000,202500.0,18667.22755932808
5.7893383502960205,-3.0420636072158813,-4.696925577163697,0.051084014385938646,203000.0,0.006117917970754206,4.700658294677734,4.700690666198731,4.700693058013916,406.0,1000.0,35.08752687112915,27.740209112022026,406000,203000.0,18703.276314735413
5.780829048156738,-3.0340638637542723,-4.698102140426636,0.051179551899433136,203500.0,0.005918302949517965,4.701071788787842,4.701036613464355,4.701131780624389,407.0,1000.0,29.82284520991654,27.55675787927525,407000,203500.0,18739.565054655075
5.772307703018188,-3.0260911083221433,-4.698715015411377,0.051141355887055394,204000.0,0.0057939087683334944,4.701308158874512,4.7013215236663815,4.70126167678833,408.0,1000.0,33.768676791334336,27.774949788530343,408000,204000.0,18775.56872153282
5.763774213790893,-3.018475866317749,-4.708583499908447,0.05123190723359585,204500.0,0.006559177876450121,4.711146347045898,4.711132583618164,4.711172618865967,409.0,1000.0,24.959230946907986,27.658033532374535,409000,204500.0,18811.7245824337
5.755228582382202,-3.0106422386169434,-4.708022430419922,0.05122654128074646,205000.0,0.0060973627837374806,4.710827083587646,4.710827556610107,4.710840065002442,410.0,1000.0,24.956013853224732,27.628481091924908,410000,205000.0,18847.919117212296
5.746670783996582,-3.001945638656616,-4.704947261810303,0.05122729480266571,205500.0,0.006408855492249131,4.707521663665771,4.707506637573243,4.707587491989136,411.0,1000.0,27.238715998670305,10.472465100829845,411000,205500.0,18943.40761947632
5.738100742340088,-2.9940557584762573,-4.704484077453613,0.05106150655448437,206000.0,0.005819959399290383,4.7073396244049075,4.7073300724029545,4.707293272018433,412.0,1000.0,27.516821319122396,27.44695940520507,412000,206000.0,18979.8415286541
5.729518449783325,-2.986396842002869,-4.707376976013183,0.05123035219311714,206500.0,0.006391472813207656,4.709921665191651,4.709945413589478,4.71004508972168,413.0,1000.0,33.373911665476285,27.796693416714366,413000,206500.0,19015.817031145096
