cmpe-260-team-4/drqv2/src/main/tex/experiments/184403-walker-run-train-stepliner.csv
actor_ent,actor_logprob,actor_loss,batch_reward,buffer_size,critic_loss,critic_q1,critic_q2,critic_target_q,episode,episode_length,episode_reward,fps,frame,step,total_time
8.464854156494141,-5.598080825805664,-0.18339990948140622,0.0499467945098877,2500.0,0.002166342510608956,0.1820528290681541,0.1823628276195377,0.18216932502388955,5.0,1000.0,21.44658845656339,4.019171353370898,5000,2500.0,248.8075122833252
8.453956134796142,-5.579275945663452,-0.3744117319583893,0.04878912602365017,3000.0,0.001534531939541921,0.3388313790559769,0.33879257798194884,0.3389057193994522,6.0,1000.0,42.16004310167522,9.637287542823398,6000,3000.0,352.5711500644684
8.443038223266601,-5.562066188812256,-0.617656513929367,0.05292446540296078,3500.0,0.00398477412480861,0.5720289990901947,0.5720239944458008,0.5722646462917328,7.0,1000.0,45.77449296797175,9.88543505127,7000,3500.0,453.730078458786
8.432100456237793,-5.551785659790039,-0.8589083313941955,0.058301681384444234,4000.0,0.005089565831236541,0.8148700640201568,0.8148721520900726,0.8153788809776306,8.0,1000.0,34.07574169160819,9.829279385358824,8000,4000.0,555.4669377803802
8.421142742156983,-5.540135089874267,-1.1098653383255004,0.06070686429738999,4500.0,0.013351674122735859,1.0635304012298583,1.0635360643863678,1.0639531559944153,9.0,1000.0,5.424591223695904,7.6156376405099735,9000,4500.0,686.7757077217102
8.410164882659911,-5.529403024673462,-1.3181123003959656,0.05795232431590557,5000.0,0.006638776447623968,1.2858059058189393,1.2857801809310914,1.286107662677765,10.0,1000.0,46.05452999985451,6.607270132617078,10000,5000.0,838.1241443157196
8.399166961669922,-5.519660943984985,-1.5135643830299377,0.05974373012781143,5500.0,0.005724589596502483,1.480065239906311,1.480085816860199,1.4803056206703187,11.0,1000.0,45.16163318551653,4.273155034242617,11000,5500.0,1072.1432702541351
8.388148830413819,-5.508387172698975,-1.7098408579826354,0.061496337831020355,6000.0,0.005294786191545427,1.6758747186660767,1.6758583974838257,1.6760924582481385,12.0,1000.0,46.61473486435316,7.74824465100811,12000,6000.0,1201.2047617435455
8.377110443115235,-5.498064348220825,-1.9072838897705078,0.06415929418802262,6500.0,0.0048980114720761775,1.8727551817893981,1.8727589449882507,1.8730826215744019,13.0,1000.0,46.8542655330932,6.856179181458249,13000,6500.0,1347.0585947036743
8.366051681518554,-5.4869141788482665,-2.11750611782074,0.06805917224287987,7000.0,0.004189781019464135,2.0856809577941893,2.085692859172821,2.0859114322662355,14.0,1000.0,48.209185090525914,9.292316088290606,14000,7000.0,1454.6743927001953
8.354972553253173,-5.476359540939331,-2.313063716888428,0.06923035056889057,7500.0,0.0041618378553539516,2.282055287361145,2.2820304880142213,2.2823589096069337,15.0,1000.0,19.750736519292843,10.428008930512176,15000,7500.0,1550.5699770450592
8.343872875213624,-5.464870840072632,-2.473180280685425,0.06702821643650532,8000.0,0.005403589050285518,2.4446331825256347,2.444659686088562,2.4448081855773927,16.0,1000.0,23.12232645053838,10.702044165543521,16000,8000.0,1644.0100722312927
8.3327526512146,-5.455072416305542,-2.616297865867615,0.0655198395550251,8500.0,0.006321664559654891,2.5887950325012206,2.5887658176422117,2.588862407684326,17.0,1000.0,23.303601800556095,10.534520000264324,17000,8500.0,1738.9360890388489
8.321611785888672,-5.444006757736206,-2.7590508832931517,0.06556039693951607,9000.0,0.00588238331489265,2.7352514638900756,2.7352307653427124,2.7354597253799438,18.0,1000.0,48.779403748931216,10.402765049981923,18000,9000.0,1835.0643784999847
8.310450164794922,-5.433494779586792,-2.9135097942352295,0.06623045484721661,9500.0,0.005383040857501328,2.8923227434158325,2.8923266410827635,2.892487717628479,19.0,1000.0,49.82687640571484,9.984299482061179,19000,9500.0,1935.2216320037842
8.299267765045165,-5.4226967735290525,-3.0682887964248655,0.06764044412970543,10000.0,0.00610749561432749,3.0482257184982298,3.048229651451111,3.0483806390762327,20.0,1000.0,47.059309638553124,10.080699281985856,20000,10000.0,2034.4211008548737
8.288064476013183,-5.412055484771728,-3.2232868556976317,0.06919450087845326,10500.0,0.005996271508745849,3.2030305128097534,3.203006760597229,3.2032832136154177,21.0,1000.0,41.49297096028542,5.22869605086412,21000,10500.0,2225.6733741760254
8.27684023666382,-5.401585063934326,-3.356917790412903,0.07066317535936832,11000.0,0.006078696169890463,3.34055295753479,3.3405412254333497,3.3408215656280515,22.0,1000.0,48.96694859274452,10.38499352510149,22000,11000.0,2321.9661655426025
8.26559495162964,-5.3902501811981205,-3.5048223543167114,0.07135493218898774,11500.0,0.007614723237231374,3.484108319282532,3.4841170234680177,3.4842833709716796,23.0,1000.0,47.161782531805194,10.108981479355176,23000,11500.0,2420.8881006240845
8.254328575134277,-5.378850999832153,-3.6584502725601196,0.07214671383798123,12000.0,0.006485552958212793,3.637921094894409,3.6379147329330443,3.638133153915405,24.0,1000.0,41.224588751664115,9.52033824721958,24000,12000.0,2525.9263863563538
8.243040969848632,-5.368128244400024,-3.7731550579071045,0.07272487604618072,12500.0,0.007149830113165081,3.7534761838912964,3.7534904947280885,3.753604552268982,25.0,1000.0,36.942688154740665,9.175270798202385,25000,12500.0,2634.914996623993
8.231732109069824,-5.356933429718017,-3.8858481302261354,0.07314703230559826,13000.0,0.009030791962519288,3.866964256286621,3.866940635681152,3.867262891769409,26.0,1000.0,42.84667891022775,10.259583104489746,26000,13000.0,2732.3848457336426
8.220401878356933,-5.346796995162964,-3.9928169784545897,0.0732686500698328,13500.0,0.0070184778384864335,3.973566131591797,3.9735903577804566,3.973696018218994,27.0,1000.0,38.94776260410866,10.06184945286314,27000,13500.0,2831.7701544761658
8.20905025100708,-5.335105190277099,-4.093658583641052,0.07339893612265587,14000.0,0.007229853163473308,4.076560483932495,4.076547258377075,4.076767508506775,28.0,1000.0,42.61366517009863,9.924743690834054,28000,14000.0,2932.5284254550934
8.197677043914794,-5.324491413116455,-4.2019144172668454,0.07372632466256618,14500.0,0.008055263856425882,4.183834067344666,4.183854318618774,4.183907741546631,29.0,1000.0,48.60565804428015,9.929649084528444,29000,14500.0,3033.2369203567505
8.186282333374024,-5.313630104064941,-4.355347874641418,0.07496699532866478,15000.0,0.006676892230287194,4.336775503158569,4.336741490364075,4.336996308326722,30.0,1000.0,47.17526594819852,9.923510328213043,30000,15000.0,3134.007714509964
8.174865833282471,-5.302870843887329,-4.4553429279327394,0.07535382243990899,15500.0,0.0070089171808213,4.437393440246582,4.437419538497925,4.437558681488037,31.0,1000.0,49.77167091587157,5.190224465628119,31000,15500.0,3326.6776099205017
8.163427707672119,-5.2918384037017825,-4.58835556602478,0.07595344643294812,16000.0,0.006976311664097011,4.571129516601562,4.571077362060547,4.57125136756897,32.0,1000.0,49.73182230363187,9.86752827110144,32000,16000.0,3428.020112514496
8.15196755218506,-5.28142681312561,-4.72584425163269,0.07667831309139729,16500.0,0.007104886679910123,4.708357538223266,4.708375825881958,4.708320676803589,33.0,1000.0,50.638228061910574,9.873297882602516,33000,16500.0,3529.3033945560455
8.140485557556152,-5.270455776214599,-4.863048282623291,0.07796426916122437,17000.0,0.007636018915101885,4.845849449157715,4.8458545169830325,4.846159162521363,34.0,1000.0,44.392861918697925,7.18255179733482,34000,17000.0,3668.5296812057495
8.12898155593872,-5.2592065811157225,-4.959724220275879,0.07779471662640572,17500.0,0.00744399225525558,4.941935213088989,4.941934558868408,4.942019853591919,35.0,1000.0,50.716635936619895,8.300328133666142,35000,17500.0,3789.0068476200104
8.117455406188965,-5.248568815231323,-5.079458694458008,0.07842174743115903,18000.0,0.007573263041675091,5.062327100753784,5.0623324012756346,5.062588933944702,36.0,1000.0,43.31394295104859,7.815946219781887,36000,18000.0,3916.9504113197327
8.105907146453857,-5.238314012527466,-5.170739440917969,0.07874307110905647,18500.0,0.006853959157131612,5.155409965515137,5.155385456085205,5.155437173843384,37.0,1000.0,50.66913441181423,8.657413235589678,37000,18500.0,4032.458355665207
8.094336559295654,-5.228064046859741,-5.297973516464233,0.07963142493367195,19000.0,0.006320610570721329,5.282468900680542,5.28249243927002,5.282460256576538,38.0,1000.0,48.65846131407821,8.411671322311626,38000,19000.0,4151.340795755386
8.082743656158447,-5.217235530853271,-5.415102434158325,0.07988117754459381,19500.0,0.006998011524789035,5.399609647750855,5.399605585098267,5.399747842788696,39.0,1000.0,43.86508250526176,7.804784329533873,39000,19500.0,4279.467335700989
8.071128273010254,-5.206996894836426,-5.491631706237793,0.08007383999228478,20000.0,0.006449918307363987,5.476966846466064,5.476947790145874,5.477180139541626,40.0,1000.0,54.884375610661635,7.9793963101524445,40000,20000.0,4404.790101051331
8.059490409851074,-5.197055419921875,-5.6039821147918705,0.08079083961248398,20500.0,0.006224456921219826,5.589946966171265,5.589979784011841,5.590037817001343,41.0,1000.0,43.22107459941816,4.644041048252482,41000,20500.0,4620.1198098659515
8.047829875946045,-5.1852077312469484,-5.687624450683594,0.08113539835810661,21000.0,0.006209436103701591,5.674303203582764,5.674323154449463,5.674384786605835,42.0,1000.0,43.20960644318653,8.172157729691135,42000,21000.0,4742.4865136146545
8.036146675109864,-5.174239072799683,-5.761690635681152,0.08116655224561692,21500.0,0.00613400817103684,5.747727510452271,5.747693101882935,5.747921001434326,43.0,1000.0,48.934727432308186,8.045504036871872,43000,21500.0,4866.779535770416
8.024440658569336,-5.16495566368103,-5.8743044090271,0.08152932679653167,22000.0,0.006345085873268545,5.858258399963379,5.858219751358032,5.858269254684449,44.0,1000.0,42.2308405700153,8.702471800484819,44000,22000.0,4981.689418315887
8.012711769104003,-5.15496061706543,-5.965146392822265,0.08161388137936593,22500.0,0.005728320272639394,5.947100481033325,5.947141025543213,5.947267471313476,45.0,1000.0,47.47651713718231,8.236530577348804,45000,22500.0,5103.099762201309
8.000959897994996,-5.143368299484253,-6.052084184646606,0.082169662296772,23000.0,0.00645226317923516,6.034380001068115,6.034364803314209,6.034469289779663,46.0,1000.0,50.29442022844481,8.52057052343424,46000,23000.0,5220.46279668808
7.989184978485107,-5.131141851425171,-6.151651653289795,0.08227214452624321,23500.0,0.006228253233246505,6.135740058898926,6.135723690032959,6.135789924621582,47.0,1000.0,50.17274337609258,7.619654171326221,47000,23500.0,5351.702351570129
7.977386882781983,-5.120691654205323,-6.248029335021973,0.08262069803476334,24000.0,0.005777100007981062,6.2321461544036865,6.232161266326904,6.232326168060303,48.0,1000.0,43.15008277410898,8.457432948593663,48000,24000.0,5469.9415402412415
7.9655655670166015,-5.10752603340149,-6.316874954223633,0.08264377164840699,24500.0,0.006187272869050503,6.302514995574951,6.302527734756469,6.3025474433898925,49.0,1000.0,49.928592392599306,8.365774488573985,49000,24500.0,5589.476200580597
7.953720907211304,-5.097720851898194,-6.406969373703003,0.08310434618592262,25000.0,0.005903583243489266,6.3942631874084475,6.3942660713195805,6.394372150421143,50.0,1000.0,44.84123369069904,8.161352876617201,50000,25000.0,5712.0049068927765
7.941852815628052,-5.085800226211548,-6.48053105545044,0.08322157233953476,25500.0,0.007104825412854552,6.462357999801636,6.462329599380493,6.462462076187133,51.0,1000.0,44.9242670774043,5.595423377873762,51000,25500.0,5890.722394704819
7.929961198806763,-5.072306690216064,-6.641775358200073,0.08336402335762978,26000.0,0.010623112220317126,6.594149166107178,6.594152904510498,6.5941927547454835,52.0,1000.0,50.57893802351281,10.984822540024565,52000,26000.0,5981.757093667984
7.918045972824097,-5.060493213653564,-6.829249233245849,0.08373702245950698,26500.0,0.012639083554968239,6.774048488616943,6.774058532714844,6.774405502319336,53.0,1000.0,48.71696941431399,11.2056481221618,53000,26500.0,6070.9978058338165
7.906107038497924,-5.048413595199585,-7.042722005844116,0.08396938234567643,27000.0,0.013506854098290205,6.980847164154053,6.980816520690918,6.981119779586792,54.0,1000.0,50.35485570438325,10.918666084473731,54000,27000.0,6162.584085941315
7.89414426612854,-5.03701053237915,-7.230347553253174,0.08414486625790596,27500.0,0.014239528767764568,7.171764406204224,7.171786489486695,7.171909492492675,55.0,1000.0,34.43145939049173,10.934414071509416,55000,27500.0,6254.038462162018
7.882157655715942,-5.0247298564910885,-7.372324342727661,0.08391942155361176,28000.0,0.016186766609549524,7.3246859912872315,7.324675973892212,7.324777517318726,56.0,1000.0,50.38301313517834,11.390808115729175,56000,28000.0,6341.828547954559
7.8701470031738285,-5.013429298400879,-7.5175221748352055,0.08409869131445885,28500.0,0.014616573203355073,7.470877357482911,7.470892539978028,7.470952280044556,57.0,1000.0,49.70688467178411,9.677403977981214,57000,28500.0,6445.162047147751
7.8581122875213625,-5.001794666290283,-7.66502313041687,0.08477052530646324,29000.0,0.013904903590679168,7.618208925247193,7.6181877365112305,7.61857527923584,58.0,1000.0,50.29175111640028,11.515717037464459,58000,29000.0,6531.999888658524
7.846053365707397,-4.990613317489624,-7.799401693344116,0.08479516217112541,29500.0,0.01383648562990129,7.7523666191101075,7.7523280639648435,7.752433771133423,59.0,1000.0,49.53239754968239,10.039261101704874,59000,29500.0,6631.608814239502
7.833970153808594,-4.978753873825073,-7.9247678279876705,0.08498556518554687,30000.0,0.012748667936772108,7.8791435432434085,7.879170850753784,7.8792231731414795,60.0,1000.0,40.457054997699814,11.93053394002272,60000,30000.0,6715.427361011505
7.821862586975097,-4.967874383926391,-8.029238122940063,0.08493813982605934,30500.0,0.01587459998577833,7.99082663154602,7.990814418792724,7.990918737411499,61.0,1000.0,48.871325942950364,7.110352776672754,61000,30500.0,6856.067359924316
7.8097305068969725,-4.956001333236694,-8.136178874969483,0.08520081073045731,31000.0,0.015025952398777008,8.097280906677247,8.09730881500244,8.097576662063599,62.0,1000.0,52.71174503552122,11.21508454626328,62000,31000.0,6945.232985258102
7.797573846817016,-4.943932905197143,-8.231503562927246,0.0855365237891674,31500.0,0.016033484540879727,8.19568144607544,8.19567533493042,8.195727478027344,63.0,1000.0,58.970001375156954,11.999138676482163,63000,31500.0,7028.572301387787
7.78539254951477,-4.931608108520508,-8.350505699157715,0.08635000747442245,32000.0,0.01750307961180806,8.31339434814453,8.313403881072999,8.313564769744874,64.0,1000.0,56.09305388101171,11.424912732958987,64000,32000.0,7116.100322961807
7.773186431884765,-4.919737033843994,-8.462727844238282,0.08638500881195069,32500.0,0.019751765694469212,8.424907577514649,8.4249084815979,8.425189388275147,65.0,1000.0,58.56446664478001,12.243660015694335,65000,32500.0,7197.775248289108
7.760955442428589,-4.908611904144287,-8.555607540130616,0.0870632511973381,33000.0,0.01964466216787696,8.516944488525391,8.516932708740235,8.516870315551758,66.0,1000.0,52.381882870364464,11.56133549315255,66000,33000.0,7284.270447254181
7.748699476242066,-4.896705280303955,-8.642937023162842,0.08717947435379028,33500.0,0.018875913172960283,8.605367336273194,8.605386425018311,8.605631618499755,67.0,1000.0,50.42974676651224,11.310761698806777,67000,33500.0,7372.681823968887
7.736418392181396,-4.885786027908325,-8.729884250640868,0.08739169991016388,34000.0,0.01881404658779502,8.693288833618164,8.693313667297364,8.693352252960205,68.0,1000.0,51.16301996281958,11.455084715204425,68000,34000.0,7459.979302406311
7.724112161636352,-4.873932750701904,-8.808017024993896,0.08754847952723503,34500.0,0.015570793736726046,8.770925483703614,8.770947998046875,8.771059902191162,69.0,1000.0,60.55179595170343,11.167251102357302,69000,34500.0,7549.526855945587
7.71178064918518,-4.863290042877197,-8.909953670501709,0.08808644086122513,35000.0,0.01944817621819675,8.872262302398681,8.872264663696289,8.87238731765747,70.0,1000.0,73.59870503595445,11.486055631490663,70000,35000.0,7636.58894610405
7.699423717498779,-4.851020359039307,-9.021159042358398,0.08841281861066819,35500.0,0.021876088600605727,8.983823017120361,8.983846939086915,8.983865669250488,71.0,1000.0,50.089506794833675,7.1506161486031194,71000,35500.0,7776.437035560608
7.687041259765625,-4.839124315261841,-9.101191074371338,0.08896724227070808,36000.0,0.021826700549572708,9.063794261932372,9.063774742126466,9.063978275299073,72.0,1000.0,79.14413632692629,11.822003076598463,72000,36000.0,7861.025070905685
7.674633211135864,-4.828112520217895,-9.20191429901123,0.08983586546778678,36500.0,0.026457885667681695,9.163493370056152,9.163535659790039,9.163812088012696,73.0,1000.0,63.7439474999738,12.6006521305176,73000,36500.0,7940.386043548584
7.662199464797974,-4.815787469863891,-9.287502014160156,0.09070299485325814,37000.0,0.026318726424127817,9.245893642425537,9.245844985961915,9.245777515411376,74.0,1000.0,48.40927479708451,11.864402469498497,74000,37000.0,8024.6717891693115
7.649739850997925,-4.8036158084869385,-9.377753192901611,0.09056857672333718,37500.0,0.025744522988796235,9.334045356750488,9.334074081420898,9.334334285736084,75.0,1000.0,51.29567189003167,11.570913569887884,75000,37500.0,8111.095390081406
7.637254356384277,-4.79222215461731,-9.474378673553467,0.09074102568626403,38000.0,0.026484181996434927,9.428611358642579,9.428613220214844,9.428723262786866,76.0,1000.0,50.4504018215201,11.707130866258055,76000,38000.0,8196.513415813446
7.624742805480957,-4.780371187210083,-9.562317222595215,0.09092904156446457,38500.0,0.02988646849989891,9.516521827697755,9.516527362823487,9.516603839874268,77.0,1000.0,56.5153434180853,11.748421974826032,77000,38500.0,8281.631231307983
7.612205141067505,-4.767370328903199,-9.652564571380616,0.09118689784407616,39000.0,0.03242305425554514,9.605226848602294,9.60523282623291,9.605217124938966,78.0,1000.0,52.00065545160392,11.934560236331098,78000,39000.0,8365.421500444412
7.599641206741333,-4.756223230361939,-9.744530994415284,0.0912301166653633,39500.0,0.0331699238345027,9.697366382598878,9.697356716156007,9.697531299591065,79.0,1000.0,56.65544404504393,11.657705457461372,79000,39500.0,8451.20167517662
7.587050874710083,-4.743872903823853,-9.861115978240967,0.09169215846061707,40000.0,0.03657484238594771,9.810079216003418,9.810102909088135,9.810309188842773,80.0,1000.0,51.72354183026637,12.359957997694844,80000,40000.0,8532.10809969902
7.574434112548828,-4.732427225112915,-9.948391593933106,0.09192274388670921,40500.0,0.03668288005143404,9.896412631988525,9.896414943695069,9.896561180114746,81.0,1000.0,49.05335544840812,7.416455471703403,81000,40500.0,8666.943401098251
7.5617907524108885,-4.71991252708435,-10.041370346069336,0.0917895928621292,41000.0,0.03786117548495531,9.98934449005127,9.989393020629883,9.989351863861083,82.0,1000.0,55.66980825469246,11.527675934221627,82000,41000.0,8753.69115614891
7.549120693206787,-4.707858701705932,-10.157835494995117,0.09185124796628952,41500.0,0.039817962124943734,10.105038822174071,10.105045776367188,10.105194835662841,83.0,1000.0,56.80803361202454,11.823244526183103,83000,41500.0,8838.27030992508
7.536423809051514,-4.696002470016479,-10.259756961822509,0.09212977436184883,42000.0,0.04075019889324903,10.20336237335205,10.203351665496827,10.203598766326904,84.0,1000.0,52.23164757593046,11.766529761953088,84000,42000.0,8923.257135391235
7.523700029373169,-4.6841818065643315,-10.355490478515625,0.09244093483686447,42500.0,0.040891834437847135,10.30300415802002,10.303024845123291,10.303010280609131,85.0,1000.0,58.02541020363672,11.680010208602672,85000,42500.0,9008.873500347137
7.510949165344238,-4.672857288360595,-10.428151229858399,0.09286443942785264,43000.0,0.042458866953849796,10.377363388061523,10.377370307922364,10.377558582305909,86.0,1000.0,55.95209978813767,9.55978169238343,86000,43000.0,9113.478400468826
7.4981711769104,-4.661339433670044,-10.498609748840332,0.09285118779540062,43500.0,0.038859409242868424,10.449726581573486,10.449766689300537,10.4498491897583,87.0,1000.0,56.96751816399806,9.983786306511407,87000,43500.0,9213.640801906586
7.485365911483765,-4.649551208496094,-10.57861462020874,0.09351078471541405,44000.0,0.04264381182938814,10.527129901885987,10.527097728729249,10.527269710540772,88.0,1000.0,75.10145696764984,11.946136070789004,88000,44000.0,9297.34987783432
7.472533262252807,-4.637929077148438,-10.7082456741333,0.09406873947381973,44500.0,0.050201269797980785,10.65623289489746,10.65624150466919,10.656234489440918,89.0,1000.0,48.847885732932376,11.850298965978135,89000,44500.0,9381.735935211182
7.459673065185547,-4.625145776748657,-10.783789253234863,0.09402766156196594,45000.0,0.047051356814801694,10.73302109146118,10.733026714324952,10.733427989959717,90.0,1000.0,30.336698214710772,12.342420758463529,90000,45000.0,9462.75731921196
7.446785284042359,-4.613034019470215,-10.90134539794922,0.09370376753807068,45500.0,0.049212992280721665,10.851242294311524,10.851271327972412,10.851340408325195,91.0,1000.0,67.43805356492923,7.539845171099773,91000,45500.0,9595.386038541794
7.433869787216187,-4.601030101776123,-10.98851251220703,0.09428009623289109,46000.0,0.05460262237489223,10.939424633026123,10.939382690429687,10.93954023361206,92.0,1000.0,87.69679991831227,12.610780715632846,92000,46000.0,9674.683271169662
7.4209263858795165,-4.5877389755249025,-11.096405479431152,0.09469479447603225,46500.0,0.06392353512346745,11.043787769317627,11.043816417694092,11.043928760528564,93.0,1000.0,65.93022520916362,12.744748202781947,93000,46500.0,9753.1469643116
7.4079550285339355,-4.575074848175049,-11.210361869812012,0.09538067469000816,47000.0,0.07080035008490086,11.154089084625245,11.154118324279786,11.154343204498291,94.0,1000.0,75.28533785319622,11.86270041108603,94000,47000.0,9837.444804430008
7.3949555473327635,-4.563040857315063,-11.341847881317138,0.0958077027797699,47500.0,0.07265702424943447,11.28029615020752,11.280246234893799,11.280418899536134,95.0,1000.0,56.74066486253942,12.317197797092874,95000,47500.0,9918.632102489471
7.38192786026001,-4.5497092990875245,-11.473002998352051,0.09622020018100738,48000.0,0.07133100675046444,11.41104290008545,11.411092807769775,11.411248481750489,96.0,1000.0,76.62686529871107,12.230154843153466,96000,48000.0,10000.397218227386
7.3688718070983885,-4.535694355010986,-11.619464488983155,0.09653459742665291,48500.0,0.0748034193366766,11.550133213043212,11.550088474273682,11.550228981018066,97.0,1000.0,76.48485340565948,13.095342903613815,97000,48500.0,10076.760244131088
7.355787284851075,-4.523697360992432,-11.765082340240479,0.0970841765999794,49000.0,0.07222827476263047,11.693671871185304,11.693690292358399,11.693917976379394,98.0,1000.0,61.049800127415736,12.41625467266115,98000,49000.0,10157.299830198288
7.3426741600036625,-4.5118209152221675,-11.921761638641357,0.09741111496090889,49500.0,0.07600446845591068,11.853176948547363,11.85318868637085,11.853291774749756,99.0,1000.0,78.50429971917242,12.311042966244512,99000,49500.0,10238.52771782875
7.329532327651978,-4.498817213058472,-12.078976665496826,0.09802650624513626,50000.0,0.07973558443784713,12.004719139099121,12.004689212799072,12.004901233673095,100.0,1000.0,92.7676436381019,12.330327086844722,100000,50000.0,10319.628568649292
7.316361671447754,-4.485949016571045,-12.220003978729249,0.09907854196429253,50500.0,0.08565400792658329,12.144221061706544,12.144292747497559,12.144319213867188,101.0,1000.0,88.39231286158606,7.240902481000171,101000,50500.0,10457.732901096344
7.303161956787109,-4.473916059494019,-12.375564365386962,0.09960184690356255,51000.0,0.08497581078112125,12.300681282043458,12.300653911590576,12.300737434387207,102.0,1000.0,79.40701383929346,11.161708549250658,102000,51000.0,10547.324920654297
7.289933240890503,-4.462592706680298,-12.543856216430664,0.10012554362416268,51500.0,0.08757599587738514,12.466168491363526,12.466179496765136,12.466654304504395,103.0,1000.0,80.8346374084868,12.302549951904153,103000,51500.0,10628.608883619308
7.27667523765564,-4.449868984222412,-12.70574542236328,0.10079927849769592,52000.0,0.08785424764454365,12.628389183044433,12.628427688598633,12.628654941558837,104.0,1000.0,80.93025954535896,5.579109074128065,104000,52000.0,10807.848972320557
7.26338788986206,-4.438980266571045,-12.848714447021484,0.10153135147690773,52500.0,0.09408444283902645,12.771607608795167,12.771591445922851,12.771600128173828,105.0,1000.0,97.39910458779559,11.703758240806074,105000,52500.0,10893.291613340378
7.250071029663086,-4.425150409698486,-13.029071632385254,0.10252437314391136,53000.0,0.10297251790761948,12.942864151000977,12.942877807617187,12.943042621612548,106.0,1000.0,55.05896748296186,11.511752511571046,106000,53000.0,10980.159360647202
7.236724594116211,-4.4126793384552006,-13.169666473388672,0.10238166669011116,53500.0,0.10868962809443473,13.080647163391113,13.08065782546997,13.080892852783203,107.0,1000.0,81.40615392439149,11.169458409900981,107000,53500.0,11069.6892182827
7.223348348617554,-4.399655330657959,-13.35164619064331,0.10348509338498116,54000.0,0.1121295413672924,13.261009841918945,13.260978538513184,13.261137454986573,108.0,1000.0,93.36440120459106,5.286234836958125,108000,54000.0,11258.859777927399
7.209942232131958,-4.387652851104736,-13.53667259979248,0.10375630450248718,54500.0,0.11831259769201279,13.439495582580566,13.439489093780518,13.439693115234375,109.0,1000.0,91.36838305919163,11.308033706875356,109000,54500.0,11347.292483329773
7.196506114959717,-4.375915670394898,-13.73038623046875,0.10451627069711686,55000.0,0.12716996252536775,13.63334345626831,13.633353015899658,13.633529476165771,110.0,1000.0,118.04104816124482,10.596553992205529,110000,55000.0,11441.662786483765
7.18303981590271,-4.3638114147186275,-13.923879405975342,0.10573132413625717,55500.0,0.1322515472173691,13.823890151977539,13.82385327911377,13.824258449554444,111.0,1000.0,99.71404303471445,6.957433186104215,111000,55500.0,11585.393955469131
7.16954326248169,-4.351243659973145,-14.133226329803467,0.10675617197155952,56000.0,0.132485397875309,14.028509223937988,14.028514850616455,14.028800868988037,112.0,1000.0,120.61516270040741,11.465719980661023,112000,56000.0,11672.610459327698
7.156016267776489,-4.338511972427368,-14.339751655578613,0.10769584932923316,56500.0,0.147177509278059,14.227686038970948,14.227679798126221,14.227937953948974,113.0,1000.0,124.8037781826964,11.754419096030068,113000,56500.0,11757.684847354889
7.142458663940429,-4.325061561584473,-14.595441181182862,0.10895223942399025,57000.0,0.14838987344503402,14.470082973480224,14.470073162078858,14.47029727935791,114.0,1000.0,59.48336623892712,11.30737528760512,114000,57000.0,11846.122702360153
7.128870355606079,-4.313269365310669,-14.821620864868164,0.10917824077606202,57500.0,0.14326698741316796,14.693519535064697,14.69352758026123,14.693795555114747,115.0,1000.0,116.75854321205041,11.523096452382022,115000,57500.0,11932.904932975769
7.1152512683868405,-4.300497686386108,-15.078661693572998,0.10997660773992539,58000.0,0.14939292868971824,14.948120746612549,14.948143119812011,14.948415225982666,116.0,1000.0,91.31501308668481,9.054961962654646,116000,58000.0,12043.34162068367
7.101601190567017,-4.288537063598633,-15.270108882904053,0.11087185075879097,58500.0,0.15136064767837523,15.155923973083496,15.155853462219238,15.156064517974853,117.0,1000.0,87.71562207116905,11.193225046739002,117000,58500.0,12132.681378602982
7.087919956207275,-4.275084009170532,-15.473576393127441,0.11147952151298524,59000.0,0.16546258577704429,15.358860668182373,15.35890873336792,15.359349311828613,118.0,1000.0,86.43082860593297,11.665025064567033,118000,59000.0,12218.407727956772
7.074207496643067,-4.262032247543335,-15.682688251495362,0.11193936169147492,59500.0,0.16334566283226012,15.563044456481933,15.563098918914795,15.563204627990723,119.0,1000.0,83.64600918674658,11.755931302150938,119000,59500.0,12303.471172332764
7.0604635448455815,-4.2491307506561276,-15.885670021057129,0.11243971860408783,60000.0,0.17290137267112732,15.770318202972412,15.770342922210693,15.770451499938964,120.0,1000.0,80.43547933046587,10.813017906243127,120000,60000.0,12395.952292919159
7.046688129425049,-4.2367722702026365,-16.074527336120607,0.1128979590833187,60500.0,0.18279108503460884,15.948555686950684,15.948477676391601,15.948758296966552,121.0,1000.0,86.5848032656281,5.573371993024137,121000,60500.0,12575.376886844635
7.032880952835083,-4.223240215301514,-16.288422756195068,0.1132227021753788,61000.0,0.19552747458219527,16.162577079772948,16.16270316696167,16.162988784790038,122.0,1000.0,94.9474456282122,10.985880078647648,122000,61000.0,12666.402822732925
7.019041938781738,-4.210386205673218,-16.498579776763915,0.11373271086812019,61500.0,0.2097065440416336,16.37235681152344,16.37231132888794,16.37276189804077,123.0,1000.0,93.29061830605451,10.885300915322315,123000,61500.0,12758.269828796387
7.005170946121216,-4.197478469848633,-16.7577984085083,0.11447054705023765,62000.0,0.21923505866527557,16.620266693115234,16.62028123474121,16.620381912231444,124.0,1000.0,76.37802311861414,11.504633116754974,124000,62000.0,12845.191332578659
6.991267789840698,-4.184675912857056,-16.99451345825195,0.11466034024953842,62500.0,0.2206380358338356,16.858778228759764,16.858844871520997,16.85936907196045,125.0,1000.0,81.61890532077653,11.794307518040945,125000,62500.0,12929.977998971939
6.977332344055176,-4.172282766342163,-17.205155265808106,0.11497117787599563,63000.0,0.22299823075532912,17.067404304504393,17.067375122070313,17.067610221862793,126.0,1000.0,123.81656639207586,8.979761696453343,126000,63000.0,13041.339530229568
6.963364496231079,-4.159145818710327,-17.44615274810791,0.11644860744476318,63500.0,0.22434987962245942,17.305324188232422,17.30535223388672,17.305583099365233,127.0,1000.0,90.4326872171975,10.398499509579187,127000,63500.0,13137.507252931595
6.949364032745361,-4.146576011657715,-17.66267830657959,0.11702078250050545,64000.0,0.2372760598063469,17.52910131072998,17.52907042694092,17.52972967529297,128.0,1000.0,114.79383181839593,10.078075685898982,128000,64000.0,13236.732547044754
6.935330821990966,-4.133005435943604,-17.876996681213377,0.11732088503241539,64500.0,0.23635263061523437,17.743120697021485,17.743132141113282,17.743086517333985,129.0,1000.0,111.09132219527957,10.793155045908525,129000,64500.0,13329.383862018585
6.921264705657959,-4.121150901794434,-18.13618238067627,0.11853449895977974,65000.0,0.24467953425645828,17.979901916503906,17.97998371887207,17.980128936767578,130.0,1000.0,100.59787582204389,11.395087931467986,130000,65000.0,13417.140974521637
6.907165533065796,-4.10625048828125,-18.40132710266113,0.11900633019208907,65500.0,0.2576895832419395,18.24249877166748,18.24252916717529,18.242887214660644,131.0,1000.0,88.96018138993543,7.327821917803863,131000,65500.0,13553.607174634933
6.893033143997193,-4.093358465194703,-18.658877311706544,0.11975293955206871,66000.0,0.25340333086252215,18.506728874206544,18.506782035827637,18.50734063720703,132.0,1000.0,71.60472695831761,12.639683238382661,132000,66000.0,13632.72308254242
6.878867420196533,-4.079868375778198,-18.815895614624022,0.11967221653461456,66500.0,0.2523990131020546,18.675842712402343,18.675784957885742,18.675690055847166,133.0,1000.0,100.22080809843597,12.012133861742615,133000,66500.0,13715.972238779068
6.864668178558349,-4.066939552307129,-18.997486473083494,0.1202274518609047,67000.0,0.24141291588544844,18.865314697265624,18.86531713104248,18.86574492645264,134.0,1000.0,112.7578549753731,11.913913584654946,134000,67000.0,13799.907715320587
6.850435213088989,-4.054746990203857,-19.214829711914064,0.12125229746103287,67500.0,0.2526924357414246,19.07678793334961,19.076842864990233,19.07725862121582,135.0,1000.0,120.45743862036876,11.854683219752747,135000,67500.0,13884.262564659119
6.836168441772461,-4.040656742095948,-19.433471160888672,0.12197565567493439,68000.0,0.25460172367095946,19.28472317504883,19.284773216247558,19.285074798583985,136.0,1000.0,106.18790436066105,11.165637688678412,136000,68000.0,13973.823056697845
6.821867630004883,-4.027874826431274,-19.64272486114502,0.12251404523849488,68500.0,0.26099415153265,19.49325981903076,19.493222007751466,19.49316509246826,137.0,1000.0,108.69672718900776,9.964449165666156,137000,68500.0,14074.179834604263
6.807532686233521,-4.01353387260437,-19.849747230529786,0.12353690722584725,69000.0,0.27445969939231873,19.696431625366213,19.69645810699463,19.696991271972657,138.0,1000.0,119.23718301120036,9.846101424095671,138000,69000.0,14175.742876529694
6.79316340637207,-3.999933793067932,-20.073472023010254,0.1243183614909649,69500.0,0.272211660861969,19.919860733032227,19.919905815124512,19.920287956237793,139.0,1000.0,126.51774536783877,9.084516562528774,139000,69500.0,14285.820281267166
6.778759616851807,-3.9866318521499635,-20.283352813720704,0.124909836769104,70000.0,0.27568447226285936,20.136212356567384,20.13626852416992,20.13687828063965,140.0,1000.0,125.96857310306444,9.555274880777084,140000,70000.0,14390.47451877594
6.764321125030517,-3.9729293270111086,-20.476919982910157,0.12632093358039856,70500.0,0.27249014264345167,20.32869905090332,20.328767433166504,20.32884539794922,141.0,1000.0,93.39977922164793,6.488833974772698,141000,70500.0,14544.585412979126
6.749847902297974,-3.960192314147949,-20.704386238098145,0.126568016320467,71000.0,0.2796998158097267,20.54596945953369,20.545911338806153,20.546144485473633,142.0,1000.0,134.31207930761346,10.147810240827996,142000,71000.0,14643.128841638565
6.73533962059021,-3.9466773471832277,-20.944415168762205,0.12731194561719894,71500.0,0.2749857270717621,20.78723841094971,20.787257286071778,20.787612785339356,143.0,1000.0,109.24644321285507,10.412128292053875,143000,71500.0,14739.170686721802
6.720796161651611,-3.9331342477798463,-21.17610557556152,0.12800471687316894,72000.0,0.28158640509843824,21.012787475585938,21.012896141052245,21.013142189025878,144.0,1000.0,99.0148976645038,10.512857125780986,144000,72000.0,14834.292307853699
6.706217418670654,-3.9186477432250975,-21.407001876831053,0.12882394474744796,72500.0,0.2864603098630905,21.23878002166748,21.238706558227538,21.239572639465333,145.0,1000.0,149.35701852944288,9.566636806660181,145000,72500.0,14938.822251796722
6.691603118896484,-3.906276927947998,-21.597108474731446,0.12917887571454048,73000.0,0.28234873455762866,21.43638269042969,21.43637190246582,21.43642842102051,146.0,1000.0,102.59531250659201,9.620967127099952,146000,73000.0,15042.761907100677
6.676953119277954,-3.8924482831954954,-21.8427342376709,0.1303682154417038,73500.0,0.2768571060299873,21.686256370544434,21.68623240661621,21.68673080444336,147.0,1000.0,155.16723714887107,9.556893461134752,147000,73500.0,15147.398420095444
6.6622673015594485,-3.8794347400665283,-22.04013599395752,0.1316108527481556,74000.0,0.2857317903637886,21.886144325256346,21.886212089538574,21.88624080657959,148.0,1000.0,119.22535069606623,9.469732833021189,148000,74000.0,15252.998021125793
6.647545467376709,-3.867273656845093,-22.334854118347167,0.13199259027838706,74500.0,0.2756839303970337,22.135337966918947,22.135417655944824,22.136045265197755,149.0,1000.0,116.87763299996452,9.699838917796598,149000,74500.0,15356.092517614365
6.632787399291992,-3.853570276260376,-22.684552696228028,0.13244340467453003,75000.0,0.27800901943445205,22.474242279052735,22.47424151611328,22.474626068115235,150.0,1000.0,109.67992314746559,9.689442584200403,150000,75000.0,15459.297630786896
6.617992887496948,-3.8401212072372437,-22.955128440856935,0.1339392024874687,75500.0,0.2771049381494522,22.77038066101074,22.77042329406738,22.770836929321288,151.0,1000.0,109.0782883447106,6.371241160798049,151000,75500.0,15616.252920866013
6.603161884307862,-3.827663356781006,-23.141363311767577,0.13335750636458396,76000.0,0.2725138111114502,22.972389114379883,22.972349319458008,22.972634109497072,152.0,1000.0,112.5187710890701,10.12539257012182,152000,76000.0,15715.014524936676
6.588294124603271,-3.814153751373291,-23.353775718688965,0.13488433861732482,76500.0,0.26869661885499957,23.19465138244629,23.194633445739747,23.195122665405272,153.0,1000.0,134.10509594700795,9.92107057065093,153000,76500.0,15815.810099601746
6.573389373779297,-3.801983630180359,-23.53526132965088,0.13556773194670677,77000.0,0.2644780883193016,23.371601875305174,23.371693992614745,23.372278259277344,154.0,1000.0,141.05157088287066,10.016502436510759,154000,77000.0,15915.645348072052
6.558447534561157,-3.788017068862915,-23.778033325195313,0.13659903758764266,77500.0,0.27026839888095855,23.608491630554198,23.60834105682373,23.608929779052733,155.0,1000.0,147.80788277689243,9.72510150899774,155000,77500.0,16018.472038984299
6.543468423843384,-3.773726351737976,-23.934048042297363,0.13721406430006028,78000.0,0.26777682983875273,23.77580847930908,23.77590414428711,23.77607781982422,156.0,1000.0,106.64407862437609,9.347631090834547,156000,78000.0,16125.451022863388
6.528451826095581,-3.759810941696167,-24.113707412719727,0.13782756447792052,78500.0,0.26840955871343614,23.951005226135255,23.9509225692749,23.951125595092773,157.0,1000.0,73.15050853841761,9.269345197023078,157000,78500.0,16233.333509922028
6.513397487640381,-3.7470212059020995,-24.287439979553223,0.13817785954475403,79000.0,0.26225748485326766,24.122966300964354,24.123057594299315,24.12324331665039,158.0,1000.0,135.51379021776796,9.420805275282953,158000,79000.0,16339.481549263
6.498305303573608,-3.732448474884033,-24.472987014770506,0.13919619017839432,79500.0,0.2578993819355965,24.31335747528076,24.313266586303712,24.313813980102537,159.0,1000.0,121.28338418787044,9.314581625071309,159000,79500.0,16446.840102672577
6.48317506980896,-3.718241227149963,-24.645715141296385,0.13946098759770392,80000.0,0.24881930667161942,24.48760078430176,24.48770085144043,24.488019775390626,160.0,1000.0,134.6735604425079,9.151842906722905,160000,80000.0,16556.107713460922
6.4680065975189205,-3.704854916572571,-24.804836448669434,0.1400740938782692,80500.0,0.24663318145275115,24.638419067382813,24.638392044067384,24.63852779388428,161.0,1000.0,166.58684978999946,6.2343662004858125,161000,80500.0,16716.50894331932
6.452799686431884,-3.6899789419174196,-25.00411585998535,0.1418853811621666,81000.0,0.24873900914192199,24.840077110290526,24.840042976379394,24.840806503295898,162.0,1000.0,110.27225131183533,9.097000528125674,162000,81000.0,16826.43528699875
6.437554103851318,-3.678448963165283,-25.109386421203613,0.14166858160495757,81500.0,0.23731718689203263,24.957606521606444,24.957713775634765,24.95797679901123,163.0,1000.0,150.1877288660312,9.224365208824173,163000,81500.0,16934.843831777573
6.422269687652588,-3.6657905130386355,-25.24916544342041,0.14210448497533798,82000.0,0.23908442813158035,25.092953521728514,25.092942878723143,25.09297264099121,164.0,1000.0,154.2079661589692,9.282745740750752,164000,82000.0,17042.570579767227
6.406946233749389,-3.6528580684661867,-25.419008911132813,0.1442837666273117,82500.0,0.24040757250785827,25.25978493499756,25.25966970062256,25.26037937927246,165.0,1000.0,124.6257894401395,9.814286122967387,165000,82500.0,17144.462861776352
6.391583591461182,-3.635770369529724,-25.587121627807615,0.1443488655090332,83000.0,0.23609390431642532,25.42230495452881,25.422343017578125,25.422508117675783,166.0,1000.0,139.59438723594025,9.798968316313845,166000,83000.0,17246.51442193985
6.376181499481201,-3.621065098762512,-25.742129020690918,0.14523344522714615,83500.0,0.2334836140871048,25.582227279663087,25.582230445861818,25.58281861114502,167.0,1000.0,125.8081330242494,10.076976538392985,167000,83500.0,17345.750537395477
6.36073974609375,-3.6081798906326292,-25.87473854827881,0.14642094975709916,84000.0,0.23903547525405883,25.715452911376953,25.71555835723877,25.71524600982666,168.0,1000.0,162.6096882076139,10.372820650956234,168000,84000.0,17442.156331300735
6.345258165359497,-3.5930676565170288,-26.04109423828125,0.14729139864444732,84500.0,0.23578422737121582,25.879793907165528,25.879743980407714,25.880485122680664,169.0,1000.0,106.93828956845768,9.851002987944481,169000,84500.0,17543.66883945465
6.329736520767212,-3.5805525035858152,-26.19639479827881,0.14784777289628984,85000.0,0.2348532361984253,26.033387718200682,26.0333786315918,26.033623832702638,170.0,1000.0,125.5979957570108,9.89960883825226,170000,85000.0,17644.68293237686
6.3141746273040775,-3.5638770227432253,-26.363446449279785,0.1477250673174858,85500.0,0.23637177550792693,26.192207733154298,26.192190147399902,26.192300498962403,171.0,1000.0,160.35816285215006,6.49762253514815,171000,85500.0,17798.585379362106
6.298572263717651,-3.55061190032959,-26.533834754943847,0.1492220259308815,86000.0,0.24179101073741913,26.362205657958985,26.362307640075684,26.362867729187013,172.0,1000.0,105.69532968763647,9.2601687077802,172000,86000.0,17906.574773550034
6.282929233551025,-3.53838533782959,-26.698397888183592,0.14974872720241547,86500.0,0.24183820950984955,26.530654190063476,26.53061769104004,26.53083575439453,173.0,1000.0,144.23863897750658,9.597603571997512,173000,86500.0,18010.76745057106
6.2672452545166015,-3.5239123067855833,-26.85160945892334,0.14997699952125548,87000.0,0.24601386106014253,26.686990463256837,26.686910301208496,26.68751358795166,174.0,1000.0,144.46235870327072,9.284103491294601,174000,87000.0,18118.478444099426
6.251520195007324,-3.509020652770996,-26.992291061401367,0.15110692483186722,87500.0,0.24026587235927582,26.829227806091307,26.82926739501953,26.82890284729004,175.0,1000.0,111.01237265869791,9.768741072448092,175000,87500.0,18220.84578204155
6.2357538871765135,-3.494898735046387,-27.106482582092283,0.15122252613306045,88000.0,0.23949957597255705,26.947648155212402,26.947529991149903,26.948315589904784,176.0,1000.0,155.40081595392084,10.49247334675909,176000,88000.0,18316.1521961689
6.21994598197937,-3.4798499240875245,-27.256574127197265,0.1524721369743347,88500.0,0.23984865403175354,27.091632507324217,27.091641120910644,27.09204724121094,177.0,1000.0,94.15764973780561,11.515864596371912,177000,88500.0,18402.988925218582
6.204096334457398,-3.4637720985412597,-27.382896614074706,0.15261818194389343,89000.0,0.24347255128622056,27.221506149291994,27.221600730895997,27.22182199859619,178.0,1000.0,159.11120176083625,12.089109347312165,178000,89000.0,18485.70800590515
6.188204700469971,-3.449348381996155,-27.490687446594237,0.15313389068841934,89500.0,0.23757344788312912,27.336287673950196,27.33626057434082,27.33620156097412,179.0,1000.0,146.62720676798747,11.509845511857707,179000,89500.0,18572.590146303177
6.172270872116089,-3.436519865989685,-27.627571113586427,0.15444381034374238,90000.0,0.23608434039354326,27.472276527404784,27.47223237609863,27.47281184387207,180.0,1000.0,135.9702918422003,11.320010869337601,180000,90000.0,18660.929285287857
6.156294584274292,-3.421630868911743,-27.761344429016113,0.15541455000638962,90500.0,0.23497564685344696,27.596601325988768,27.596633514404296,27.596870544433592,181.0,1000.0,140.92324437350314,7.428265876181721,181000,90500.0,18795.550208330154
6.140275665283204,-3.407300301551819,-27.895446128845215,0.1560076209306717,91000.0,0.23176893883943558,27.73293614959717,27.732875274658202,27.733358627319337,182.0,1000.0,149.9679699832418,12.049383181939,182000,91000.0,18878.542009353638
6.124213880538941,-3.3936877603530884,-27.99619130706787,0.1568698275089264,91500.0,0.23221855783462525,27.842144660949707,27.842174354553222,27.84248892211914,183.0,1000.0,169.94697915623516,11.165818562109036,183000,91500.0,18968.101051092148
6.108108968734741,-3.3801690282821655,-28.082804664611817,0.15660488253831864,92000.0,0.23426680892705917,27.93255450439453,27.932463340759277,27.932665382385252,184.0,1000.0,145.88919676084782,11.800597534557806,184000,92000.0,19052.84252357483
6.091960695266724,-3.366325409889221,-28.201607192993166,0.1586262434720993,92500.0,0.23264583951234818,28.048609970092773,28.04875553894043,28.048742820739747,185.0,1000.0,158.60656322200185,11.32155549337879,185000,92500.0,19141.1696100235
6.07576887512207,-3.3493753128051758,-28.301274307250978,0.1591538759469986,93000.0,0.23838700759410858,28.15141326904297,28.15138269042969,28.151727127075194,186.0,1000.0,142.9795599246637,11.261436392841775,186000,93000.0,19229.968230724335
6.059533229827881,-3.335000318527222,-28.411540237426756,0.15960349553823472,93500.0,0.24880754059553145,28.255571678161623,28.255644271850585,28.25577155303955,187.0,1000.0,155.7284589989122,10.99573714843741,187000,93500.0,19320.912566184998
6.043253484725952,-3.3223113355636595,-28.53026947784424,0.16093238705396654,94000.0,0.2530043238997459,28.370850952148437,28.37075163269043,28.371130851745605,188.0,1000.0,174.74065170565962,11.691825461870849,188000,94000.0,19406.442410230637
6.026929540634155,-3.3072620649337767,-28.663297164916994,0.16111943417787553,94500.0,0.25522187757492065,28.499473297119142,28.499535148620605,28.49969255065918,189.0,1000.0,140.01779472166714,11.72862415126352,189000,94500.0,19491.70390343666
6.010561016082764,-3.292362668991089,-28.76917650604248,0.16223022758960723,95000.0,0.25363198888301847,28.612016555786134,28.611967277526855,28.61243009185791,190.0,1000.0,136.6743767734572,11.668698136027473,190000,95000.0,19577.40326809883
5.9941477146148685,-3.2776589097976685,-28.88276873779297,0.1627255296111107,95500.0,0.25248989403247835,28.72329404449463,28.72326476287842,28.72311282348633,191.0,1000.0,157.2276279253819,7.2993106586177054,191000,95500.0,19714.402507543564
5.977689382553101,-3.2630617723464965,-29.020964179992674,0.16404577904939652,96000.0,0.26564993089437483,28.85748474121094,28.857546661376954,28.857791717529295,192.0,1000.0,131.49076175935707,11.51900606037337,192000,96000.0,19801.215554237366
5.961185773849487,-3.2462922286987306,-29.117669845581055,0.16451698803901674,96500.0,0.2622431167960167,28.955224922180175,28.95510025024414,28.955659530639647,193.0,1000.0,128.32217733472635,12.18509920521464,193000,96500.0,19883.28300333023
5.944636678695678,-3.2294871730804444,-29.243193206787108,0.1647302529811859,97000.0,0.2644246955513954,29.077502197265623,29.07758275604248,29.077766334533692,194.0,1000.0,145.12275627770657,12.116447969847357,194000,97000.0,19965.815443515778
5.92804176902771,-3.216807496070862,-29.33180365753174,0.16508954119682312,97500.0,0.2624011498689651,29.176118843078612,29.17606727600098,29.176404418945314,195.0,1000.0,157.73470247789538,12.634075774471224,195000,97500.0,20044.966465711594
5.911400863647461,-3.2033101806640625,-29.448127281188963,0.16561645394563676,98000.0,0.262152344763279,29.290762344360353,29.290650199890138,29.291063209533693,196.0,1000.0,141.4364863908222,11.960447948760752,196000,98000.0,20128.57537508011
5.8947136535644535,-3.187138641357422,-29.562152603149414,0.16712226712703704,98500.0,0.2682843217253685,29.400773582458495,29.40083903503418,29.40098513031006,197.0,1000.0,143.23354471380293,12.108290374222605,197000,98500.0,20211.163418531418
5.877979940414429,-3.17307147026062,-29.683536567687987,0.16720863622426987,99000.0,0.26951543080806734,29.518559364318847,29.518618782043458,29.51874648284912,198.0,1000.0,135.64595072174765,12.578435774952947,198000,99000.0,20290.664561271667
5.861199407577515,-3.156449317932129,-29.821935340881346,0.1684627596139908,99500.0,0.2776937796473503,29.652203575134276,29.652207366943358,29.652321662902832,199.0,1000.0,155.79612997933603,11.823482528516038,199000,99500.0,20375.242011785507
5.84437176322937,-3.1411805791854857,-29.931874000549318,0.16852340066432953,100000.0,0.2757338364124298,29.766067710876463,29.76600756072998,29.76653112792969,200.0,1000.0,154.64333014916596,12.241711387460056,200000,100000.0,20456.92993760109
5.827496858596802,-3.125231918334961,-30.055168640136717,0.16881314760446547,100500.0,0.2731228357553482,29.892603691101073,29.89266307067871,29.892905555725097,201.0,1000.0,155.14861581132496,7.459850270598372,201000,100500.0,20590.98088669777
5.810574325561523,-3.1103823375701904,-30.15441980743408,0.16945935928821565,101000.0,0.2742462900876999,29.991301002502443,29.9912861328125,29.991721755981445,202.0,1000.0,151.21442511185478,12.398533605134581,202000,101000.0,20671.635586977005
5.793603946685791,-3.093902723312378,-30.2877462310791,0.17084740841388701,101500.0,0.27528671532869337,30.123197105407716,30.12321848297119,30.123356353759764,203.0,1000.0,180.47225551259487,12.327021137257562,203000,101500.0,20752.758187770844
5.776585405349731,-3.0782627325057983,-30.391953109741213,0.1718280829191208,102000.0,0.26805909752845763,30.227817337036132,30.227822570800782,30.22769770050049,204.0,1000.0,142.87278265621487,12.51520558879858,204000,102000.0,20832.660990953445
5.759518491744995,-3.062363664627075,-30.4851368560791,0.1715157054066658,102500.0,0.2710581983923912,30.315489379882813,30.3154921875,30.316214942932127,205.0,1000.0,170.78756712054724,12.17985655236484,205000,102500.0,20914.763764858246
5.742402912139893,-3.048734543800354,-30.620974563598633,0.17238252788782119,103000.0,0.27616986870765686,30.45425299835205,30.454154296875,30.454405319213866,206.0,1000.0,149.17819561746208,12.383041037148654,206000,103000.0,20995.519373178482
5.725238319396973,-3.0338880701065065,-30.733487365722656,0.17384834259748458,103500.0,0.2754117648005486,30.5722043838501,30.57237129211426,30.572025650024415,207.0,1000.0,137.25040841739118,11.895580212632293,207000,103500.0,21079.584210157394
5.70802449798584,-3.01753533744812,-30.824723526000977,0.17484011960029602,104000.0,0.27447625547647475,30.66169829559326,30.66171533203125,30.662542114257814,208.0,1000.0,172.84409038355767,11.678596130225976,208000,104000.0,21165.210942029953
5.690761138916016,-3.0010532159805297,-30.950893997192384,0.174979765355587,104500.0,0.27507413256168367,30.782685333251955,30.78252473449707,30.782537910461425,209.0,1000.0,154.55095001633347,12.68541602212094,209000,104500.0,21244.04162478447
5.673447969436645,-2.986882375717163,-31.049624977111815,0.17535759449005128,105000.0,0.27302822399139404,30.87767964172363,30.877774894714356,30.87798575592041,210.0,1000.0,178.38351468319203,11.91821086647629,210000,105000.0,21327.946837186813
5.656084701538086,-2.968845076560974,-31.17804259490967,0.17632674103975296,105500.0,0.2750748941898346,31.006689514160158,31.00669580078125,31.00729884338379,211.0,1000.0,141.63301754238176,7.488460443077872,211000,105500.0,21461.48563504219
5.638671033859253,-2.954369345664978,-31.280811157226562,0.1765616043806076,106000.0,0.27694193720817567,31.115651504516602,31.115724563598633,31.11574063873291,212.0,1000.0,160.84466516980692,11.911870148396519,212000,106000.0,21545.43551135063
5.6212067108154296,-2.937764439582825,-31.42479786682129,0.17736721616983414,106500.0,0.2753804538846016,31.251450286865236,31.251501586914063,31.251150917053224,213.0,1000.0,148.11076936592434,11.453817811241269,213000,106500.0,21632.742645263672
5.603691375732422,-2.924031144142151,-31.51024645996094,0.17827737760543824,107000.0,0.2832046778202057,31.34842356109619,31.348345527648927,31.348919509887697,214.0,1000.0,160.02397174850074,11.801541707054028,214000,107000.0,21717.477338314056
5.586124753952026,-2.9091473531723024,-31.613301109313966,0.17842735195159912,107500.0,0.2756193326115608,31.45011833190918,31.449983375549316,31.45041089630127,215.0,1000.0,158.60383960025788,11.530588763319871,215000,107500.0,21804.203179836273
5.568506563186646,-2.8931469306945803,-31.68351131439209,0.1792718789577484,108000.0,0.2827508222460747,31.520475891113282,31.520554809570314,31.520707458496094,216.0,1000.0,188.48733973622458,11.901636590236551,216000,108000.0,21888.22523856163
5.55083648109436,-2.875947196006775,-31.795033325195313,0.18006830942630767,108500.0,0.2846465713977814,31.634522064208983,31.63457930755615,31.63499877166748,217.0,1000.0,199.10795718102085,12.006233525848428,217000,108500.0,21971.515307188034
5.533114229202271,-2.86060334777832,-31.909013397216796,0.18065390890836716,109000.0,0.27912926226854323,31.741000205993654,31.74095947265625,31.741058952331542,218.0,1000.0,157.60047080778682,11.762317264759817,218000,109000.0,22056.532569408417
5.51533943939209,-2.844886643409729,-31.996033737182618,0.18156426393985747,109500.0,0.28398261427879334,31.829208969116213,31.829229736328124,31.82933755493164,219.0,1000.0,154.02475371060586,11.723068347251214,219000,109500.0,22141.834469795227
5.497511859893799,-2.830486360549927,-32.09722096252442,0.1830341344475746,110000.0,0.28877416378259657,31.933172843933104,31.933144004821777,31.933853607177735,220.0,1000.0,164.13860846479093,12.319115463035438,220000,110000.0,22223.009130239487
5.479631158828735,-2.8123137893676757,-32.20443997955322,0.1833458418250084,110500.0,0.283176330447197,32.03469882202148,32.034773818969725,32.034627967834474,221.0,1000.0,161.14707667548848,7.5637142958216925,221000,110500.0,22355.219307661057
5.4616969738006595,-2.797683797836304,-32.30066799926758,0.1833007469177246,111000.0,0.29258725881576536,32.13053701782226,32.13030043792725,32.13085124969482,222.0,1000.0,171.0640756751802,12.211547342050643,222000,111000.0,22437.10901260376
5.443709047317505,-2.780723657608032,-32.410705184936525,0.1838343074321747,111500.0,0.2929901416897774,32.23792308044433,32.23803860473633,32.238412071228026,223.0,1000.0,177.6561244491106,12.168766515984796,223000,111500.0,22519.28661251068
5.425667041778564,-2.7638093643188477,-32.52756219482422,0.18512476021051408,112000.0,0.2875486888289452,32.3546044921875,32.35469844055176,32.35491495513916,224.0,1000.0,168.9038319016554,5.61852614605835,224000,112000.0,22697.26923251152
5.4075706081390384,-2.747311298370361,-32.64055125427246,0.18610306680202485,112500.0,0.28633426773548126,32.475601089477536,32.4756625213623,32.475710708618166,225.0,1000.0,160.23760378429964,12.783659753511172,225000,112500.0,22775.49409389496
5.3894194297790525,-2.7320881853103636,-32.744143783569335,0.18667180448770523,113000.0,0.2862112528681755,32.57554008483887,32.57541835021973,32.575759201049806,226.0,1000.0,175.37449711997655,5.692876288221054,226000,113000.0,22951.15222477913
5.371213178634644,-2.7168482093811037,-32.84224153137207,0.1874237739443779,113500.0,0.2928704376220703,32.67246788024902,32.67254467773437,32.67272248840332,227.0,1000.0,186.2195742987163,13.135513311603809,227000,113500.0,23027.281721115112
5.352951494216919,-2.698561013221741,-32.92673866271973,0.1874061363339424,114000.0,0.30111768531799316,32.759169021606446,32.75911752319336,32.75936386108398,228.0,1000.0,171.1312035248179,13.01692417323811,228000,114000.0,23104.104786872864
5.33463408279419,-2.68439857673645,-33.01623977661133,0.18900784307718277,114500.0,0.29900039327144623,32.85105296325683,32.85107551574707,32.85107585144043,229.0,1000.0,146.29445748635132,12.739365975271646,229000,114500.0,23182.601629972458
5.31626057434082,-2.666647349357605,-33.12467092895508,0.18946746575832368,115000.0,0.2979272351264954,32.957062896728516,32.95705363464356,32.95729978942871,230.0,1000.0,163.10958602443282,13.065681062795994,230000,115000.0,23259.13801598549
5.297830614089966,-2.6506490507125853,-33.21260902404785,0.18955834656953813,115500.0,0.3002195444703102,33.04354838562012,33.04346096801758,33.04346612548828,231.0,1000.0,171.77799440541708,7.321399501347589,231000,115500.0,23395.723925590515
5.279343866348267,-2.633507367134094,-33.328280426025394,0.19155720633268356,116000.0,0.30150881117582323,33.15650833129883,33.15669396972656,33.15739712524414,232.0,1000.0,178.4373596506152,12.605976411287124,232000,116000.0,23475.05138015747
5.2608000183105466,-2.616994137763977,-33.440064575195315,0.1907396938800812,116500.0,0.29881979697942734,33.264796478271485,33.264668212890626,33.26481184387207,233.0,1000.0,200.00260565253024,12.72049029744565,233000,116500.0,23553.664702892303
5.24219865989685,-2.5975739221572876,-33.561813507080075,0.19202946215867997,117000.0,0.2967993478178978,33.38051513671875,33.380450180053714,33.38106492614746,234.0,1000.0,249.3066350579024,13.02191940909633,234000,117000.0,23630.458298683167
5.223539421081543,-2.583286171913147,-33.68917269897461,0.1938564824461937,117500.0,0.3007961057424545,33.51421682739258,33.51430947875976,33.51424542236328,235.0,1000.0,211.6317526838584,12.500790966430332,235000,117500.0,23710.45323753357
5.204822015762329,-2.569420959472656,-33.78038877868652,0.19362523967027664,118000.0,0.29242599046230316,33.61043130493164,33.61044390869141,33.61028514099121,236.0,1000.0,207.87603943433783,12.47429686267257,236000,118000.0,23790.618077993393
5.186046009063721,-2.5538554792404176,-33.87317250061035,0.19520446330308913,118500.0,0.29951077622175215,33.709865310668945,33.70988124084472,33.71042222595215,237.0,1000.0,177.26293439346054,12.427703615039029,237000,118500.0,23871.08346748352
5.16721107673645,-2.5359924173355104,-33.97072691345215,0.1962859115600586,119000.0,0.29731531596183775,33.80141120910645,33.80137303161621,33.801776916503904,238.0,1000.0,196.92098964178822,12.304844502989562,238000,119000.0,23952.35227251053
5.148316837310791,-2.518220295906067,-34.05016798400879,0.1967946215867996,119500.0,0.3071533573269844,33.88644136047363,33.88634147644043,33.88611056518555,239.0,1000.0,230.7791515274362,12.509521079185031,239000,119500.0,24032.291385889053
5.129362915039063,-2.5023998222351076,-34.17146032714844,0.19728783702850342,120000.0,0.3100462437272072,33.99684846496582,33.997033233642576,33.99779158020019,240.0,1000.0,201.7021361594704,12.460143316851815,240000,120000.0,24112.54728603363
5.110348924636841,-2.487983693122864,-34.28787269592285,0.1991547999382019,120500.0,0.32415563625097277,34.110607498168946,34.11045790100098,34.110372802734375,241.0,1000.0,196.6358380023419,7.295660837712363,241000,120500.0,24249.61506175995
5.091274475097657,-2.467313720703125,-34.410484024047854,0.19948643326759338,121000.0,0.32475019931793214,34.23005076599121,34.23007092285156,34.230108535766604,242.0,1000.0,126.85509043052878,12.687873473716948,242000,121000.0,24328.430476665497
5.072139217376709,-2.448407090187073,-34.51000981140137,0.19982888042926789,121500.0,0.3338479387164116,34.335625381469725,34.335695343017576,34.3359841003418,243.0,1000.0,201.70439773383217,13.099509400838668,243000,121500.0,24404.76921439171
5.052942705154419,-2.431915452003479,-34.632870025634766,0.20083038902282715,122000.0,0.330583532333374,34.45422280883789,34.45414471435547,34.45453855895996,244.0,1000.0,164.88637596719386,12.409192573635949,244000,122000.0,24485.354635477066
5.033684602737427,-2.4131969709396364,-34.7626442565918,0.20111835408210754,122500.0,0.3307835124731064,34.582049255371096,34.582058975219724,34.582507095336915,245.0,1000.0,187.29088942378027,12.70127406802912,245000,122500.0,24564.08689570427
5.014364465713501,-2.395393763542175,-34.87132049560547,0.2018921126127243,123000.0,0.33216138154268265,34.69616479492188,34.69630004882813,34.69648905944824,246.0,1000.0,208.8019710017146,13.159153860970276,246000,123000.0,24640.079624652863
4.994981941223145,-2.3827040576934815,-34.977744064331056,0.20174598890542983,123500.0,0.3253410050868988,34.80278495788574,34.802742095947266,34.80277745056152,247.0,1000.0,190.99664969224946,12.725294389983029,247000,123500.0,24718.663269519806
4.975536592483521,-2.3651193408966065,-35.11376782226562,0.203588136613369,124000.0,0.3387332980632782,34.932644622802734,34.93271685791016,34.93308152770996,248.0,1000.0,193.50299387702267,12.860118069280487,248000,124000.0,24796.423053979874
4.956027984619141,-2.3482208881378175,-35.2127762298584,0.20391697227954864,124500.0,0.34588503432273865,35.03403414916992,35.033919570922855,35.03394883728027,249.0,1000.0,174.17244112929265,12.672642686839641,249000,124500.0,24875.333194494247
4.936455801010132,-2.331349213600159,-35.31727008056641,0.205891641497612,125000.0,0.34424761712551116,35.140057983398435,35.14000112915039,35.140478515625,250.0,1000.0,180.36361037859456,12.703457214280203,250000,125000.0,24954.05192399025
4.916819520950318,-2.315822513580322,-35.45738803100586,0.20587155908346177,125500.0,0.33505544179677965,35.28100215148926,35.28104556274414,35.28132266235352,251.0,1000.0,198.21205857642641,7.6914841501022275,251000,125500.0,25084.065845012665
4.8971187705993655,-2.2977962837219237,-35.56137762451172,0.20681876617670059,126000.0,0.34667844158411026,35.38302111816406,35.383007583618166,35.3827805480957,252.0,1000.0,205.36613675608598,12.628133751062837,252000,126000.0,25163.25411105156
4.87735312461853,-2.276806939125061,-35.658468795776365,0.20691383963823318,126500.0,0.3454104645252228,35.483053176879885,35.48305131530762,35.48354373168945,253.0,1000.0,196.98874547138502,12.100150667402454,253000,126500.0,25245.89771103859
4.8575221481323245,-2.262130962371826,-35.75765528869629,0.20775529062747955,127000.0,0.3473430563211441,35.58057821655274,35.58061999511719,35.58075637817383,254.0,1000.0,211.85641969780815,12.279235371984345,254000,127000.0,25327.336008787155
4.837625413894654,-2.2445242109298706,-35.91088322448731,0.20839235109090806,127500.0,0.3478736414909363,35.723562240600586,35.72354011535644,35.7239640045166,255.0,1000.0,230.7383609323427,12.750518393060476,255000,127500.0,25405.764193296432
4.817662475585937,-2.2242756414413454,-36.051727355957034,0.21034873265028,128000.0,0.3641413023471832,35.85795776367188,35.85801379394531,35.858257781982424,256.0,1000.0,203.41221125904045,13.05174878874998,256000,128000.0,25482.382279396057
4.797632919311523,-2.207158580780029,-36.16516682434082,0.21005473566055297,128500.0,0.3648623402118683,35.978390213012695,35.97835780334473,35.97838273620606,257.0,1000.0,190.85383274774725,13.0754734668757,257000,128500.0,25558.861346244812
4.777536245346069,-2.1914946365356447,-36.292358139038086,0.2115876635313034,129000.0,0.35331029224395755,36.10862330627442,36.10860002136231,36.108855377197266,258.0,1000.0,200.32263828131758,12.89430645790201,258000,129000.0,25636.41495704651
4.757372035980224,-2.169935315132141,-36.4314171295166,0.21195015209913254,129500.0,0.3604124199151993,36.242077926635744,36.24210552978516,36.242518463134765,259.0,1000.0,156.43915282144062,12.678749437156773,259000,129500.0,25715.287089586258
4.737139835357666,-2.1507844820022584,-36.56365287780762,0.21216596192121506,130000.0,0.35566871547698975,36.37488891601563,36.374831466674806,36.37519174194336,260.0,1000.0,185.55159897731107,12.50782401772306,260000,130000.0,25795.237048625946
4.716839176177978,-2.1352766342163085,-36.67235453796387,0.21284345871210097,130500.0,0.3650562491416931,36.48730725097656,36.48740585327148,36.48752548217774,261.0,1000.0,205.9948024054089,7.409781299479152,261000,130500.0,25930.193799495697
4.696469612121582,-2.1156186962127688,-36.78191033935547,0.21305189889669418,131000.0,0.3692804011106491,36.59859069824219,36.59842709350586,36.59843016052246,262.0,1000.0,192.4235885153145,12.217532885465525,262000,131000.0,26012.043385744095
4.676030643463135,-2.098836438179016,-36.92050036621094,0.2144224510192871,131500.0,0.36448611521720886,36.73551287841797,36.73565596008301,36.73593533325195,263.0,1000.0,177.16481484191743,11.065040222238917,263000,131500.0,26102.41811490059
4.655521823883056,-2.080209527015686,-37.035219268798826,0.21476865357160568,132000.0,0.3673348466157913,36.849554916381834,36.84947987365722,36.85025080871582,264.0,1000.0,223.4728928217915,12.718174761393755,264000,132000.0,26181.045751094818
4.634942659378051,-2.0643852119445802,-37.12002745056152,0.21483804219961167,132500.0,0.37498046696186066,36.93533793640137,36.935432754516604,36.93500109863281,265.0,1000.0,227.74820638525154,12.331651493248877,265000,132500.0,26262.137890815735
4.6142926559448245,-2.0447162103652956,-37.273644729614254,0.21636509245634078,133000.0,0.38267677891254426,37.08367483520508,37.083569442749024,37.084322906494144,266.0,1000.0,228.3064032259501,12.834166581846134,266000,133000.0,26340.05491042137
4.593571365356445,-2.0306338109970095,-37.38175550842285,0.21759612131118775,133500.0,0.38602865850925444,37.19368392944336,37.19385919189453,37.19404156494141,267.0,1000.0,199.01643307407127,12.866594561083415,267000,133500.0,26417.77555513382
4.572778230667114,-2.0127142033576964,-37.517510681152345,0.21792392975091934,134000.0,0.38236314928531645,37.332824676513674,37.33269123840332,37.332370956420895,268.0,1000.0,205.96788174538796,12.525001902205041,268000,134000.0,26497.615863084793
4.551912822723389,-1.9930718145370483,-37.63417987060547,0.21857951080799104,134500.0,0.38253810787200926,37.44484768676758,37.44481176757812,37.44559930419922,269.0,1000.0,198.5894839497592,12.853557260027006,269000,134500.0,26575.415338754654
4.530974542617797,-1.9753884415626526,-37.74790371704101,0.2198408023118973,135000.0,0.3900979686975479,37.557786743164066,37.55786416625977,37.558308395385744,270.0,1000.0,213.6949046599436,13.7926984490873,270000,135000.0,26647.917468309402
4.5099629859924315,-1.9594082455635071,-37.86669071960449,0.22033203446865082,135500.0,0.3980322244167328,37.67314190673828,37.6731336517334,37.67303839111328,271.0,1000.0,220.61046289648203,7.6682514749107,271000,135500.0,26778.325294733047
4.488877565383911,-1.9402402296066283,-38.013573165893554,0.22206155323982238,136000.0,0.4004586231708527,37.81986006164551,37.81978115844726,37.82002575683594,272.0,1000.0,220.13042789885068,12.927857170218639,272000,136000.0,26855.677636146545
4.467717826843262,-1.9217681546211243,-38.145534957885744,0.22231339335441588,136500.0,0.39396401047706603,37.95176141357422,37.95176510620117,37.95188096618652,273.0,1000.0,248.62497729752226,12.822059318464985,273000,136500.0,26933.668229341507
4.446483140945435,-1.9014300742149353,-38.26275437927246,0.22228972488641738,137000.0,0.39024438989162447,38.072636596679686,38.07274095153809,38.0731766204834,274.0,1000.0,249.629835013101,13.08662390124008,274000,137000.0,27010.082133054733
4.425173076629639,-1.8855014238357544,-38.38247718811035,0.2237391474246979,137500.0,0.40246982884407045,38.19416871643067,38.194233917236325,38.19418598937988,275.0,1000.0,204.92289583639652,12.466597906007673,275000,137500.0,27090.296479701996
4.403787033081055,-1.8668542304039002,-38.49088189697266,0.22410490643978118,138000.0,0.4073803986310959,38.29814437866211,38.297977813720706,38.29844033813477,276.0,1000.0,213.87859994776716,12.61972077247866,276000,138000.0,27169.537536621094
4.38232452583313,-1.8485839710235596,-38.60318032836914,0.22489534968137742,138500.0,0.41635931181907654,38.41193878173828,38.41190348815918,38.412234786987305,277.0,1000.0,196.3415784053691,12.754277541991943,277000,138500.0,27247.94260621071
4.360784940719604,-1.8312270774841308,-38.733997283935544,0.2252629093527794,139000.0,0.4077607616186142,38.54118023681641,38.54117799377441,38.54175996398926,278.0,1000.0,194.55054793957225,12.915921300243754,278000,139000.0,27325.366429805756
4.339167760848999,-1.8129060277938842,-38.84915158081055,0.22678103244304657,139500.0,0.4320575934648514,38.65970637512207,38.65981346130371,38.65962469482422,279.0,1000.0,227.24344759143656,12.791706119769554,279000,139500.0,27403.542085886
4.317472412109375,-1.7934850559234619,-38.97700805664063,0.22755166363716126,140000.0,0.4218489634990692,38.78226417541504,38.782212814331054,38.782061386108396,280.0,1000.0,238.07907830292638,12.820154418907668,280000,140000.0,27481.54426717758
4.295698324203491,-1.7734664978981018,-39.083421875,0.22854345589876174,140500.0,0.42783315193653104,38.88736540222168,38.88736294555664,38.88825654602051,281.0,1000.0,199.92970256788345,7.5818536860972365,281000,140500.0,27613.438134670258
4.273844928741455,-1.7532086963653564,-39.22480274963379,0.2294648675918579,141000.0,0.42714168095588684,39.02518476867676,39.02524185180664,39.02505520629883,282.0,1000.0,209.66473691806493,12.393824769622174,282000,141000.0,27694.123478412628
4.251911651611328,-1.7333465051651,-39.33603541564941,0.2284750424027443,141500.0,0.43316075241565705,39.13557455444336,39.135651290893556,39.13613302612305,283.0,1000.0,196.16859816524686,13.260121103489642,283000,141500.0,27769.53757238388
4.229897891998291,-1.7173111996650696,-39.46255838012695,0.22987260764837264,142000.0,0.4349701533317566,39.2661834564209,39.26621955871582,39.266487258911134,284.0,1000.0,241.2065461030867,13.476592170065326,284000,142000.0,27843.740309238434
4.207803077697754,-1.6953291559219361,-39.619021835327146,0.23112774986028672,142500.0,0.4454490290880203,39.416398651123046,39.41632788085938,39.41648123168945,285.0,1000.0,212.14305304314135,13.335285896518688,285000,142500.0,27918.729328632355
4.1856266040802,-1.6772992625236511,-39.73758871459961,0.2315132274031639,143000.0,0.444342808842659,39.541163192749025,39.54108795166016,39.54131024169922,286.0,1000.0,196.55363866629705,12.221649488456286,286000,143000.0,28000.551345586777
4.163367868423462,-1.6581931257247924,-39.85320169067383,0.23239200747013092,143500.0,0.447437158703804,39.65414665222168,39.654285446166995,39.65480418395996,287.0,1000.0,203.01846538781498,12.557279641291409,287000,143500.0,28080.18642950058
4.141026220321655,-1.644443989753723,-39.99667202758789,0.23290400463342667,144000.0,0.4490906972885132,39.792542541503906,39.79238848876953,39.792473220825194,288.0,1000.0,200.74897064652728,12.381961031231127,288000,144000.0,28160.9490814209
4.118601102828979,-1.622115562915802,-40.1247770690918,0.2325126411318779,144500.0,0.4390369037389755,39.92630015563965,39.926456436157224,39.92680406188965,289.0,1000.0,217.85367934472106,11.9637185826077,289000,144500.0,28244.535133838654
4.096091844558716,-1.5989248185157776,-40.242756103515624,0.23499274671077727,145000.0,0.4452424683570862,40.04398184204101,40.04399824523926,40.0435064239502,290.0,1000.0,202.28621982517274,12.350271940550183,290000,145000.0,28325.50501179695
4.073497808456421,-1.5796099843978881,-40.36539176940918,0.2347844260931015,145500.0,0.44334509372711184,40.16450314331055,40.16455613708496,40.1651510925293,291.0,1000.0,209.82054170217626,7.452771011733214,291000,145500.0,28459.68329310417
4.050818374633789,-1.5638494238853455,-40.47834240722656,0.23493453043699264,146000.0,0.439990523815155,40.2773279876709,40.27717985534668,40.2778291015625,292.0,1000.0,236.67785529851366,12.765156397699126,292000,146000.0,28538.021542787552
4.028052898406982,-1.5449888105392455,-40.6034432220459,0.23588495302200319,146500.0,0.44082666873931886,40.40143281555176,40.40140637207031,40.40152931213379,293.0,1000.0,229.62576648092417,12.167127254589984,293000,146500.0,28620.210213184357
4.0052007350921635,-1.5238613967895507,-40.75289059448242,0.23762028414011002,147000.0,0.44123679959774015,40.54770945739746,40.54766319274902,40.548223175048825,294.0,1000.0,229.63469974433627,12.57568143589889,294000,147000.0,28699.728767633438
3.9822611551284792,-1.5044729590415955,-40.86644136047363,0.23739003121852875,147500.0,0.4493056755065918,40.66286253356934,40.66297253417969,40.66301177978516,295.0,1000.0,242.182041368472,12.58628742832139,295000,147500.0,28779.18031525612
3.9592335472106934,-1.484449954032898,-41.01537661743164,0.23914216655492782,148000.0,0.45861229646205903,40.81427557373047,40.814247116088865,40.81479096984863,296.0,1000.0,231.3972160887835,13.10158478358911,296000,148000.0,28855.506960630417
3.936117233276367,-1.4646911177635193,-41.11141081237793,0.23924076426029206,148500.0,0.44803811180591585,40.91284535217285,40.91259971618652,40.91263227844238,297.0,1000.0,232.14441831581263,13.023861247964303,297000,148500.0,28932.28910636902
3.9129115171432494,-1.4470910377502442,-41.21121362304687,0.2404086988568306,149000.0,0.4574460858106613,41.012812744140625,41.01299220275879,41.01293502807617,298.0,1000.0,240.22975054950118,13.112901858528453,298000,149000.0,29008.549877882004
3.889615710258484,-1.4230742230415345,-41.31863830566406,0.24080517494678497,149500.0,0.4444122669696808,41.119576583862305,41.1196552734375,41.12031797790527,299.0,1000.0,210.84901158550758,12.862239098508377,299000,149500.0,29086.29683995247
3.8662290802001955,-1.4026755924224854,-41.444283447265626,0.24213369798660278,150000.0,0.4479086186885834,41.24540565490722,41.24542565917969,41.24570234680176,300.0,1000.0,229.83776892562668,12.917704381461371,300000,150000.0,29163.709976434708
3.8427509307861327,-1.3847279467582703,-41.52552890014648,0.2406224918961525,150500.0,0.45138290131092074,41.32476179504395,41.32470625305176,41.32499287414551,301.0,1000.0,217.93613898888623,7.758959584503606,301000,150500.0,29292.593236207962
3.8191805582046507,-1.3638993196487428,-41.66372448730469,0.2422562210559845,151000.0,0.4539824126958847,41.45912719726562,41.45910095214844,41.45920150756836,302.0,1000.0,218.21064572049457,12.33855694790913,302000,151000.0,29373.63999223709
3.7955172538757322,-1.339917342185974,-41.79263534545898,0.2437652370929718,151500.0,0.44928035473823547,41.59096212768555,41.59100744628906,41.59111058044434,303.0,1000.0,230.00158970479595,12.28999531194396,303000,151500.0,29455.006989240646
3.7717602043151857,-1.320837854385376,-41.87908012390137,0.24422131830453872,152000.0,0.4606398233175278,41.68011033630371,41.68006840515137,41.680365463256834,304.0,1000.0,235.22774468112235,12.496373215886187,304000,152000.0,29535.030208826065
3.747908757209778,-1.3013290934562682,-41.98968489074707,0.24478612846136094,152500.0,0.4585134493112564,41.785602432250975,41.78584744262695,41.78625205993652,305.0,1000.0,229.18357718636872,12.467611380343248,305000,152500.0,29615.238035202026
3.723962086677551,-1.2864493389129639,-42.11152883911133,0.24615816378593444,153000.0,0.45754585063457487,41.91060954284668,41.91039636230469,41.910607864379884,306.0,1000.0,233.80123091510595,12.569835072640858,306000,153000.0,29694.793574810028
3.6999194946289062,-1.2672055501937867,-42.21659284973145,0.2457084720134735,153500.0,0.4546697995662689,42.01451951599121,42.01451135253906,42.01493948364258,307.0,1000.0,241.03517428315436,12.98846284158478,307000,153500.0,29771.784981012344
3.6757801494598388,-1.2463742918968201,-42.33044808959961,0.24634764432907105,154000.0,0.4677109532356262,42.12582011413574,42.126010452270506,42.12583839416504,308.0,1000.0,228.981292396109,12.693301658830125,308000,154000.0,29850.56669139862
3.651543297767639,-1.2257854843139648,-42.457984558105466,0.2477810304760933,154500.0,0.4704123775959015,42.25248320007324,42.252394165039064,42.252514236450196,309.0,1000.0,246.15431777611255,12.367526091406672,309000,154500.0,29931.423606157303
3.627208128929138,-1.2105409541130066,-42.57144674682617,0.24815631592273713,155000.0,0.47244050359725953,42.36686122131348,42.366905685424804,42.36758146667481,310.0,1000.0,229.239382966155,12.217358327393946,310000,155000.0,30013.27436184883
3.6027738695144653,-1.1807607951164245,-42.70185795593262,0.2506208039522171,155500.0,0.4653461384773254,42.496603912353514,42.49656706237793,42.49624880981445,311.0,1000.0,243.72747073388825,7.789049859481816,311000,155500.0,30141.65972661972
3.578239705085754,-1.163793803691864,-42.79964427185059,0.25103841733932497,156000.0,0.4790467209815979,42.59470037841797,42.59462835693359,42.595611282348635,312.0,1000.0,238.11254386255678,13.147569117942801,312000,156000.0,30217.719415187836
3.5536048097610475,-1.1414723110198974,-42.91163087463379,0.2506243582367897,156500.0,0.4736703624725342,42.703751861572265,42.70379586791992,42.7042264251709,313.0,1000.0,257.88471490239033,12.98824991375625,313000,156500.0,30294.71208333969
3.5288683195114134,-1.12060373878479,-43.06236727905274,0.2527462292313576,157000.0,0.47275958049297334,42.85324430847168,42.85316751098633,42.85295118713379,314.0,1000.0,257.15264007431944,12.134552972541552,314000,157000.0,30377.121383190155
3.504029457092285,-1.1004193081855773,-43.161067901611325,0.25237421655654907,157500.0,0.48116446840763094,42.95583578491211,42.95589398193359,42.9562241973877,315.0,1000.0,221.06896566150056,12.021441027732687,315000,157500.0,30460.306087732315
3.479087317466736,-1.0775772376060486,-43.28798509216308,0.25325396174192427,158000.0,0.480435103058815,43.085638565063476,43.08567391967773,43.08562902832031,316.0,1000.0,255.71578553214027,12.41961447507929,316000,158000.0,30540.823885202408
3.4540410718917847,-1.0574961361885071,-43.38130523681641,0.25421772813796994,158500.0,0.48389639115333555,43.173541290283204,43.17347039794922,43.174174270629884,317.0,1000.0,233.04742403947492,12.42446029837599,317000,158500.0,30621.31027984619
3.4288898372650145,-1.032939893245697,-43.49227772521973,0.25428514939546587,159000.0,0.49157679271697996,43.28182357788086,43.28179637145996,43.28244924926758,318.0,1000.0,239.85488424710599,11.236950416250078,318000,159000.0,30710.30239725113
3.4036327266693114,-1.0132363498210908,-43.615875427246095,0.25497241216897965,159500.0,0.5022554577589035,43.406160568237304,43.406138473510744,43.40600802612305,319.0,1000.0,217.9790218995199,12.466268874488344,319000,159500.0,30790.518861055374
3.3782688446044924,-0.9891750874519348,-43.75346255493164,0.25673835772275927,160000.0,0.4999773086309433,43.54520654296875,43.545313751220704,43.54541746520996,320.0,1000.0,259.873640814087,11.650902796049282,320000,160000.0,30876.34912109375
3.352797282218933,-0.9657691254615783,-43.863133392333985,0.2566625961661339,160500.0,0.49716437590122226,43.65342004394531,43.65334053039551,43.65375204467774,321.0,1000.0,229.91442163364636,7.617239470009608,321000,160500.0,31007.63027715683
3.327217125892639,-0.9462120773792266,-43.9735313873291,0.25743885910511016,161000.0,0.4939782634973526,43.76680160522461,43.76685012817383,43.76736819458008,322.0,1000.0,196.7853450108037,12.560051161998869,322000,161000.0,31087.24778842926
3.301527482032776,-0.9290179364681244,-44.081559829711914,0.25767461335659025,161500.0,0.5042676877975464,43.87589935302734,43.875935409545896,43.875597381591795,323.0,1000.0,248.23138756918078,11.855570687319236,323000,161500.0,31171.596323013306
3.2757273092269896,-0.9079359188079834,-44.1990715637207,0.25907914304733276,162000.0,0.49942107260227203,43.991740127563475,43.991636260986326,43.99183442687988,324.0,1000.0,258.7219943715223,13.019294941116483,324000,162000.0,31248.40539956093
3.249815747261047,-0.888200124502182,-44.25733195495606,0.258406857252121,162500.0,0.5049516600370407,44.0505845489502,44.05069795227051,44.0509631652832,325.0,1000.0,247.3552224151906,12.87500432627421,325000,162500.0,31326.07527756691
3.22379178237915,-0.8627853324413299,-44.35958061218262,0.2589992302656174,163000.0,0.5089991084337234,44.15195492553711,44.151935150146485,44.152110336303714,326.0,1000.0,248.1757096073572,12.764842146806835,326000,163000.0,31404.415456295013
3.1976544742584228,-0.8440975210666657,-44.47521647644043,0.26044151121377945,163500.0,0.5067484529018402,44.266714981079105,44.26663917541504,44.26666844177246,327.0,1000.0,227.00513419063643,12.825148492698212,327000,163500.0,31482.38726401329
3.1714028091430664,-0.8236416716575623,-44.5849846496582,0.2617025037407875,164000.0,0.5110072739124298,44.380922805786135,44.38094660949707,44.3817373046875,328.0,1000.0,226.98001665051908,12.65286404211147,328000,164000.0,31561.42075443268
3.145035782814026,-0.8013280286788941,-44.71210888671875,0.2628337507247925,164500.0,0.5090126161575317,44.50596176147461,44.50582733154297,44.505678115844724,329.0,1000.0,262.9034475761682,11.142698398049015,329000,164500.0,31651.16562438011
3.1185523319244384,-0.777852790594101,-44.80770143127442,0.2630570623278618,165000.0,0.5202344689369202,44.5971381225586,44.59713949584961,44.59825161743164,330.0,1000.0,233.48977899394416,11.175238017382247,330000,165000.0,31740.649177789688
3.0919515047073363,-0.758695307970047,-44.8858723449707,0.26284135061502456,165500.0,0.5088294522762299,44.67725436401367,44.67738038635254,44.67683473205567,331.0,1000.0,259.3744881701286,6.872794820667549,331000,165500.0,31886.150394439697
3.065232201576233,-0.7345323052406311,-45.02609686279297,0.26396898102760313,166000.0,0.5178187952041626,44.82066299438477,44.82059951782227,44.82086877441406,332.0,1000.0,226.59406694721116,10.304328392606296,332000,166000.0,31983.196991682053
3.0383933811187744,-0.7161059823036194,-45.11443405151367,0.2638903488516808,166500.0,0.5282615634202957,44.90317573547363,44.90326332092285,44.90383274841309,333.0,1000.0,268.1688779849211,10.253575222919036,333000,166500.0,32080.72395133972
3.0114339723587036,-0.6966938233375549,-45.2335523071289,0.26572215551137923,167000.0,0.5223653068542481,45.01711253356934,45.01724433898926,45.01773860168457,334.0,1000.0,245.57273899780498,10.531766600606257,334000,167000.0,32175.674783945084
2.98435289478302,-0.6718918626308441,-45.3345161895752,0.2652990899682045,167500.0,0.5286964381933212,45.12235366821289,45.12204911804199,45.12204920959473,335.0,1000.0,212.93311478365572,10.167991308311477,335000,167500.0,32274.02262687683
2.9571490182876587,-0.6466309750080108,-45.4737216796875,0.26637355709075927,168000.0,0.5322104141712188,45.26045649719238,45.260571395874024,45.26061151123047,336.0,1000.0,262.21730475249245,10.397261911710794,336000,168000.0,32370.20179605484
2.9298212366104126,-0.6280523412227631,-45.578931549072266,0.26791092681884765,168500.0,0.5408694541454315,45.365180694580076,45.365127334594725,45.365504119873044,337.0,1000.0,255.15161729150503,10.124017686337657,337000,168500.0,32468.97681236267
2.902368417739868,-0.6030309283733368,-45.677485473632814,0.2674565637111664,169000.0,0.5300860682725906,45.46867993164062,45.46870626831055,45.46940739440918,338.0,1000.0,247.29986571288947,10.203292186646044,338000,169000.0,32566.984395503998
2.8747893953323365,-0.5848896040916443,-45.775197219848636,0.26832573461532594,169500.0,0.532655106663704,45.5685754699707,45.56850166320801,45.568435333251955,339.0,1000.0,281.16835261454264,9.90059400485956,339000,169500.0,32667.988436698914
2.847083030700684,-0.5594187467098236,-45.875146621704104,0.2697487952113152,170000.0,0.5392554346323013,45.66307794189453,45.6631024017334,45.66322038269043,340.0,1000.0,290.009134876085,9.983464781724555,340000,170000.0,32768.15406370163
2.81924814414978,-0.5355900398492813,-45.97715800476074,0.2698452925682068,170500.0,0.5529504424333572,45.7606028137207,45.7605880279541,45.761109603881835,341.0,1000.0,255.11781970805484,4.535479636646348,341000,170500.0,32988.63791203499
2.791283519744873,-0.5124528044462204,-46.12206871032715,0.2711851989030838,171000.0,0.5561079268455505,45.90716131591797,45.90729664611816,45.90705279541016,342.0,1000.0,250.23351269283904,9.811232079492223,342000,171000.0,33090.56191158295
2.763187968254089,-0.49232634270191195,-46.25881918334961,0.27303629118204115,171500.0,0.5464740257263183,46.04458250427246,46.04454261779785,46.04536418151856,343.0,1000.0,236.86348118904635,9.602516301476708,343000,171500.0,33194.70128250122
2.7349601936340333,-0.46739553117752075,-46.34355412292481,0.2724082689285278,172000.0,0.5475956284999848,46.12826364135742,46.12816958618164,46.12796701049805,344.0,1000.0,269.96061394147404,9.581500522544564,344000,172000.0,33299.069069862366
2.7065990324020386,-0.44745377397537234,-46.45212078857422,0.27309740835428237,172500.0,0.5612411613464355,46.23655499267578,46.236760650634764,46.23729277038574,345.0,1000.0,251.92170575299878,10.383837854888853,345000,172500.0,33395.372577667236
2.6781031551361085,-0.42593437480926516,-46.53333387756348,0.27329547715187075,173000.0,0.5597732789516449,46.321620147705076,46.32157000732422,46.3218106842041,346.0,1000.0,246.3138991330012,9.910269088393912,346000,173000.0,33496.27801203728
2.649471281051636,-0.3972219339609146,-46.644380599975584,0.27517730474472046,173500.0,0.5686880980730057,46.429081253051756,46.429146484375,46.42944647216797,347.0,1000.0,289.6914396210047,10.63169241751046,347000,173500.0,33590.33641529083
2.6207021417617797,-0.3772293605804443,-46.77548139953613,0.2747409688234329,174000.0,0.5641762648820877,46.55645344543457,46.55640802001953,46.55632202148438,348.0,1000.0,288.5117368163284,10.314154084191854,348000,174000.0,33687.290561676025
2.5917943887710573,-0.35434116673469546,-46.90197406005859,0.27579318726062774,174500.0,0.5772394624948501,46.68603074645996,46.685806411743165,46.68661428833008,349.0,1000.0,278.8483734849044,7.518839961714848,349000,174500.0,33820.28980255127
2.5627466621398924,-0.33317988777160645,-47.00354351806641,0.2766201451420784,175000.0,0.57161128282547,46.78805522155762,46.7882596282959,46.788600601196286,350.0,1000.0,237.76571474407652,7.871172677369298,350000,175000.0,33947.3356757164
2.533557639122009,-0.30967263197898864,-47.11256608581543,0.2774067116975784,175500.0,0.5634603583812714,46.89556649780273,46.895520080566406,46.89544104003906,351.0,1000.0,278.47970030131427,5.630010659237753,351000,175500.0,34124.95523357391
2.50422594165802,-0.2841939447522163,-47.225216918945314,0.27866637229919433,176000.0,0.572755332350731,47.00758563232422,47.00752285766602,47.00783235168457,352.0,1000.0,291.9090951169317,10.288424671070842,352000,176000.0,34222.151844501495
2.4747501268386842,-0.2588492490053177,-47.352681549072265,0.2800432013273239,176500.0,0.5845671526193619,47.13300549316406,47.133042724609375,47.1328494720459,353.0,1000.0,264.9767859814629,6.5390015462245845,353000,176500.0,34375.08039140701
2.4451287975311278,-0.2312023487687111,-47.44981356811523,0.2795259166955948,177000.0,0.5803091429471969,47.23361883544922,47.23351890563965,47.23408506774902,354.0,1000.0,285.38026370871756,7.935727941701897,354000,177000.0,34501.092777490616
2.4153604774475097,-0.21146837431192397,-47.5765570526123,0.2812779679298401,177500.0,0.5858515366315842,47.357261367797854,47.35727684020996,47.35703807067871,355.0,1000.0,264.9120953701478,10.826841562604443,355000,177500.0,34593.45581817627
2.3854437646865843,-0.1871935887336731,-47.67403067016602,0.28218452060222626,178000.0,0.5986226266622543,47.4554181060791,47.4552507019043,47.456109909057616,356.0,1000.0,283.82859997410947,11.102329624302559,356000,178000.0,34683.527005434036
2.355377128601074,-0.16502594020962716,-47.794971130371096,0.2819829357862473,178500.0,0.6009825279712677,47.56788481140137,47.56790739440918,47.5685302734375,357.0,1000.0,274.0787275406796,10.904174096080888,357000,178500.0,34775.2350063324
2.3251590499877928,-0.1433599863052368,-47.92659313964844,0.2835077511072159,179000.0,0.6072871241569519,47.707421585083004,47.7075234375,47.707266967773435,358.0,1000.0,293.0874696434,10.06212878197907,358000,179000.0,34874.617555856705
2.294788035392761,-0.11642667782306672,-48.048478958129884,0.2843604106903076,179500.0,0.6046408132314682,47.82429948425293,47.824311248779296,47.824915466308596,359.0,1000.0,262.78846476558755,10.49630027977795,359000,179500.0,34969.889221429825
2.264262488365173,-0.09061499512195587,-48.18077690124512,0.28546610260009764,180000.0,0.6174617116451263,47.95477423095703,47.95498587036133,47.95544041442871,360.0,1000.0,278.83391302056464,11.088840097063729,360000,180000.0,35060.0699801445
2.233580841064453,-0.06907551201432943,-48.276673217773435,0.2849679703712463,180500.0,0.6185606710910797,48.0550401763916,48.054726654052736,48.054201431274414,361.0,1000.0,301.150318890702,6.872966690916343,361000,180500.0,35205.567558050156
2.2027415428161623,-0.047813472137786445,-48.46092953491211,0.28656139385700224,181000.0,0.6241602717638016,48.23322113037109,48.23342478942871,48.23364103698731,362.0,1000.0,277.14521372592975,10.28621874827081,362000,181000.0,35302.78501367569
2.1717428226470945,-0.02534824361326173,-48.555771484375,0.28744272398948667,181500.0,0.6160253533124924,48.327453231811525,48.327421905517575,48.32834628295898,363.0,1000.0,241.08661350928838,10.035933503250062,363000,181500.0,35402.42696595192
2.1405831813812255,-0.005332250354345888,-48.68354463195801,0.28740066385269164,182000.0,0.6202681567668915,48.456825546264646,48.456842864990236,48.45712632751465,364.0,1000.0,281.8802203721169,10.712884999732248,364000,182000.0,35495.77250409126
2.109260853767395,0.032624306166544555,-48.79933110046387,0.28758271563053134,182500.0,0.6279250522851944,48.5688373260498,48.56885874938965,48.568807403564456,365.0,1000.0,261.8476324138126,10.810589094787218,365000,182500.0,35588.27440237999
2.077774157524109,0.05327277384698391,-48.96870118713379,0.2901157922744751,183000.0,0.6208423988819123,48.74402540588379,48.74397660827637,48.744465744018555,366.0,1000.0,284.2203885304297,11.129170630361376,366000,183000.0,35678.128358602524
2.046121353149414,0.07878862828016281,-49.07531982421875,0.28861721181869504,183500.0,0.6243539652824401,48.84287528991699,48.842814453125,48.84305815124512,367.0,1000.0,272.0133606296606,11.229057194473482,367000,183500.0,35767.18303132057
2.014300678253174,0.10981176789104939,-49.24454971313477,0.29135905361175535,184000.0,0.6206083220243453,49.01844999694824,49.01841679382324,49.018262069702146,368.0,1000.0,254.97313513817042,11.02112439809223,368000,184000.0,35857.91787672043
1.9823103475570678,0.13431527546048164,-49.322318130493166,0.28984128618240357,184500.0,0.6273755604028701,49.09276884460449,49.09279377746582,49.09325332641602,369.0,1000.0,294.3867292254113,11.024784566313059,369000,184500.0,35948.622598171234
1.950148575782776,0.1557316870689392,-49.46603601074219,0.29160892736911775,185000.0,0.6326523697376252,49.23318916320801,49.23324328613281,49.23385238647461,370.0,1000.0,300.2030361905617,10.778429498566238,370000,185000.0,36041.40049433708
1.9178134202957153,0.18013949379324912,-49.59371711730957,0.2918343175649643,185500.0,0.6302079622745513,49.36184861755371,49.36180386352539,49.361577560424806,371.0,1000.0,304.70220069845493,6.695531884896026,371000,185500.0,36190.75382781029
1.8853030815124512,0.19975112229585648,-49.7141275177002,0.29221499145030977,186000.0,0.6297189048528671,49.48168840026855,49.48161215209961,49.482058639526365,372.0,1000.0,272.0417681587211,10.588495566486042,372000,186000.0,36285.19595217705
1.852615608215332,0.2322209941148758,-49.86675715637207,0.29361616337299346,186500.0,0.6474368305206298,49.6336330871582,49.63382948303223,49.633874420166016,373.0,1000.0,308.51137880109,9.969741010368717,373000,186500.0,36385.49946141243
1.8197491064071656,0.2612504585981369,-50.00725935363769,0.29514336156845095,187000.0,0.6514730833768845,49.77130444335938,49.77121583557129,49.77183293151855,374.0,1000.0,253.7261680679229,10.047646299117122,374000,187000.0,36485.02525925636
1.786701581954956,0.2877890733480454,-50.12143943786621,0.2955798996686935,187500.0,0.6491862094402313,49.882379028320315,49.882431838989255,49.88275312805176,375.0,1000.0,279.41077682832326,10.292392398284694,375000,187500.0,36582.18440032005
1.7534710178375243,0.3085271158218384,-50.22191162109375,0.296181171298027,188000.0,0.6400357558727264,49.99040873718262,49.99025550842285,49.990085159301756,376.0,1000.0,297.87776607610783,10.093693830072068,376000,188000.0,36681.25616025925
1.7200553598403931,0.3326693593263626,-50.370878479003906,0.2971897801160812,188500.0,0.6568194160461426,50.1362677154541,50.13629467773438,50.13696397399902,377.0,1000.0,305.8622191355995,9.92905122877295,377000,188500.0,36781.970718860626
1.6864525594711304,0.3604493842124939,-50.48006449890137,0.2987421085834503,189000.0,0.6507501039505005,50.253550338745114,50.253504333496096,50.25358457946778,378.0,1000.0,325.64407636608706,10.182531245456854,378000,189000.0,36880.17812728882
1.652660548210144,0.3869009335041046,-50.621109603881834,0.29859669494628904,189500.0,0.6484514825344085,50.38481604003906,50.38493159484863,50.384927124023434,379.0,1000.0,316.09184353315624,10.016413548303198,379000,189500.0,36980.014261722565
1.6186771144866943,0.41260545039176943,-50.74252610778809,0.29929175531864166,190000.0,0.6770324840545654,50.50559864807129,50.505574554443356,50.50628744506836,380.0,1000.0,273.13478715663837,10.2719200668415,380000,190000.0,37077.36704516411
1.5845001153945923,0.44087854838371277,-50.892428955078124,0.30107884550094605,190500.0,0.6720526671409607,50.65925778198242,50.65922264099121,50.65889241027832,381.0,1000.0,269.26622858517806,6.709607591734504,381000,190500.0,37226.407059669495
1.550127282142639,0.47364586746692655,-51.01101222229004,0.30163566541671755,191000.0,0.6761339592933655,50.77597871398926,50.77593385314941,50.7766036529541,382.0,1000.0,313.5945972582995,10.7272702492097,382000,191000.0,37319.62742090225
1.5155564346313477,0.49854195284843444,-51.10344160461426,0.3013908785581589,191500.0,0.6867935717105865,50.86568214416504,50.86573112487793,50.86640361022949,383.0,1000.0,285.9185660089947,10.778215202090777,383000,191500.0,37412.40716147423
1.4807852411270142,0.5268851239681244,-51.29066520690918,0.3027226161956787,192000.0,0.6737222146987915,51.04962690734863,51.04958340454102,51.049349166870115,384.0,1000.0,268.9627632074917,10.449774503409154,384000,192000.0,37508.10300755501
1.4458113327026367,0.5496146209239959,-51.4248077545166,0.3032896367311478,192500.0,0.6875763022899628,51.18659829711914,51.18653176879883,51.186965957641604,385.0,1000.0,308.39477342226036,10.77156768745315,385000,192500.0,37600.940005779266
1.4106324262619019,0.5819718759059906,-51.541322540283204,0.30311812448501585,193000.0,0.6962990527153015,51.30142776489258,51.301508972167966,51.30189904785156,386.0,1000.0,250.1241957389345,11.195984647472311,386000,193000.0,37690.25774359703
1.375246018409729,0.6139460573196411,-51.661020584106446,0.3034837799072266,193500.0,0.7078291866779327,51.420781417846676,51.420872116088866,51.42088648986817,387.0,1000.0,320.7952304818656,11.106430131008935,387000,193500.0,37780.295676231384
1.3396496171951293,0.6387152028083801,-51.82728523254394,0.3052755656242371,194000.0,0.6913554294109344,51.58564791870117,51.58546069335937,51.58593650817871,388.0,1000.0,285.9446084776814,11.057254473915695,388000,194000.0,37870.73404121399
1.3038408222198485,0.6634838564395904,-51.94888958740234,0.30700037014484405,194500.0,0.701527407169342,51.70862107849121,51.70874589538574,51.70872929382324,389.0,1000.0,292.71380716664163,11.018559265444795,389000,194500.0,37961.490008831024
1.2678170700073241,0.6936523213386535,-52.05232664489746,0.30748556172847746,195000.0,0.7255992922782898,51.817105209350586,51.81721441650391,51.81778239440918,390.0,1000.0,322.61380965484875,10.995919881344534,390000,195000.0,38052.43283343315
1.2315756368637085,0.7208258092403412,-52.170540481567386,0.3065532877445221,195500.0,0.7145582814216613,51.9279111328125,51.927758209228514,51.927795379638674,391.0,1000.0,318.5893378116546,6.474128144898749,391000,195500.0,38206.89378738403
1.1951140022277833,0.7454040701389313,-52.308056686401365,0.30849236822128295,196000.0,0.7122400894165039,52.0679412689209,52.06805673217774,52.06874613952637,392.0,1000.0,337.52991804219386,10.49159786602959,392000,196000.0,38302.208154678345
1.1584294424057007,0.7734550335407258,-52.44118737792969,0.30906410586833954,196500.0,0.7083478000164032,52.19828485107422,52.198196075439455,52.19806994628906,393.0,1000.0,333.26935445347107,10.214172581858925,393000,196500.0,38400.11133766174
1.1215192050933838,0.8026800012588501,-52.58653704833984,0.31045050859451295,197000.0,0.7062485616207123,52.34124708557129,52.34122877502441,52.341371383666996,394.0,1000.0,322.29763112743564,9.877405321817418,394000,197000.0,38501.352501392365
1.0843804807662965,0.8315194988250733,-52.70135787963867,0.31038252341747286,197500.0,0.724600346326828,52.45086842346191,52.450848052978515,52.451588348388675,395.0,1000.0,311.30813702531583,10.303989409386862,395000,197500.0,38598.40229177475
1.047010479927063,0.8637579822540283,-52.86486198425293,0.3111438971757889,198000.0,0.7298538029193878,52.619864791870114,52.619958984375,52.619648834228514,396.0,1000.0,296.27841209590366,10.186006159799392,396000,198000.0,38696.576197862625
1.0094062213897705,0.8887008473873138,-52.966817825317385,0.31140633893013,198500.0,0.7226983530521393,52.72625648498535,52.726298477172854,52.72710549926758,397.0,1000.0,302.6582803367626,10.238632407671737,397000,198500.0,38794.2454931736
0.9715648384094239,0.9273930690288543,-53.11635078430176,0.31350144374370575,199000.0,0.7397660706043243,52.87745062255859,52.877191436767575,52.87774401855469,398.0,1000.0,341.94818238637765,10.06738922895895,398000,199000.0,38893.576112270355
0.9334832811355591,0.9492363686561585,-53.25209609985352,0.31416815316677094,199500.0,0.7422830493450164,53.00943751525879,53.00967430114746,53.009318725585935,399.0,1000.0,309.79760119931365,9.96878065515074,399000,199500.0,38993.88928461075
0.8951584167480469,0.9834981501102448,-53.3924988861084,0.31515650570392606,200000.0,0.7595603880882263,53.14272918701172,53.14257244873047,53.142843872070316,400.0,1000.0,299.79521048550527,10.645945658554098,400000,200000.0,39087.82175898552
0.8565872497558594,1.0111256070137025,-53.52791368103027,0.31567327010631563,200500.0,0.7486888914108276,53.27775305175781,53.27791999816895,53.27854373168945,401.0,1000.0,294.9834642714311,6.356277932558918,401000,200500.0,39245.14653515816
0.8177664756774903,1.0389479668140411,-53.67574809265137,0.31609773755073545,201000.0,0.778060430765152,53.42153785705566,53.421298110961914,53.4217548828125,402.0,1000.0,303.5851765829216,10.970891362402325,402000,201000.0,39336.29683279991
0.7786928987503052,1.0727501320838928,-53.848676025390624,0.3180994294881821,201500.0,0.7696055326461791,53.59168653869629,53.59186915588379,53.592153732299806,403.0,1000.0,332.4850402182492,11.093650472434252,403000,201500.0,39426.438487529755
0.7393632144927978,1.101109537601471,-54.01603251647949,0.31798568737506866,202000.0,0.7751745293140412,53.75607485961914,53.75604650878906,53.756461776733396,404.0,1000.0,308.19204163853567,11.131905617306083,404000,202000.0,39516.270367622375
0.6997740068435669,1.120797119140625,-54.16614796447754,0.3198437964916229,202500.0,0.7794127876758575,53.908585006713864,53.908567306518556,53.90839120483398,405.0,1000.0,334.5880142937775,11.167389449785885,405000,202500.0,39605.816811561584
0.6599218339920044,1.1587971978187561,-54.323365814208984,0.3195900003910065,203000.0,0.7715918235778808,54.070587448120115,54.07064190673828,54.07100975036621,406.0,1000.0,321.0457123811083,10.729602035646307,406000,203000.0,39699.01691389084
0.6198032140731812,1.1904575901031493,-54.4620746459961,0.3213449729681015,203500.0,0.7804203982353211,54.208149658203126,54.20820690917969,54.20834400939941,407.0,1000.0,320.1759595720131,10.901645851949672,407000,203500.0,39790.74618315697
0.5794145164489746,1.221245458126068,-54.575871627807615,0.32176923561096193,204000.0,0.7711881380081177,54.32677830505371,54.326564529418945,54.32698683166504,408.0,1000.0,304.69055887267353,10.442693340607468,408000,204000.0,39886.50692033768
0.5387520875930786,1.249084590435028,-54.68931640625,0.32137325072288514,204500.0,0.7810122444629669,54.43908656311035,54.43918510437012,54.43951316833496,409.0,1000.0,312.0059990131261,10.333315006209135,409000,204500.0,39983.28128671646
0.4978122396469116,1.2860971264839172,-54.81789805603027,0.3224240951538086,205000.0,0.7941588387489319,54.57137400817871,54.571315856933595,54.57150897216797,410.0,1000.0,351.3810008074236,10.577741848230781,410000,205000.0,40077.81942462921
0.45659110164642336,1.3223524355888367,-54.96536880493164,0.32361394703388213,205500.0,0.8017521421909333,54.7128895111084,54.71294078063965,54.71325393676758,411.0,1000.0,339.6880378260429,6.7621216432667035,411000,205500.0,40225.70200562477
0.41508480548858645,1.3553456559181214,-55.11891139221191,0.32476183462142943,206000.0,0.7896450912952423,54.86121691894531,54.861236328125,54.861620681762695,412.0,1000.0,333.9350671137102,10.560358929899655,412000,206000.0,40320.39575839043
0.37328940296173097,1.3893834176063538,-55.22299343872071,0.3252852874994278,206500.0,0.8094660432338715,54.96884030151367,54.96869686889649,54.968539627075195,413.0,1000.0,351.5797032751955,11.041385687080362,413000,206500.0,40410.96410155296
0.3312007827758789,1.4239842481613159,-55.390197006225584,0.3268831663131714,207000.0,0.8061142716407775,55.13083987426758,55.13069848632812,55.13106587219238,414.0,1000.0,325.1474400915157,10.225343109021493,414000,207000.0,40508.760332107544
