cmpe-260-team-4/drqv2/src/main/tex/experiments/203408-walker-run-train-control.csv
actor_ent,actor_logprob,actor_loss,batch_reward,buffer_size,critic_loss,critic_q1,critic_q2,critic_target_q,episode,episode_length,episode_reward,fps,frame,step,total_time
8.489292400360107,-5.621500051498413,-0.18343306081742047,0.0499467945098877,2500.0,0.002156876481371,0.182010048404336,0.1823232670649886,0.1821352152824402,5.0,1000.0,23.934879530166583,5.193479621837086,5000,2500.0,192.5491361618042
8.483867996215821,-5.603989694595337,-0.3841059547662735,0.04938335117697716,3000.0,0.0017963371218647807,0.3453689914345741,0.34533817052841187,0.34551399618387224,6.0,1000.0,40.38161052242747,17.53138673446126,6000,3000.0,249.5896909236908
8.47843869781494,-5.595631597518921,-0.6477388707399369,0.05318023164570332,3500.0,0.00422172384802252,0.598287187576294,0.5982761846780777,0.598521489739418,7.0,1000.0,45.98339886819545,17.654930889154308,7000,3500.0,306.2310926914215
8.473004383087158,-5.587951730728149,-0.8985961496829986,0.05850643418729305,4000.0,0.004050894029904157,0.8592270359992981,0.8592266738414764,0.8595891447067261,8.0,1000.0,46.49479197494052,18.107074437553827,8000,4000.0,361.458126783371
8.46756530380249,-5.58284450340271,-1.13622674202919,0.06378504371643066,4500.0,0.0032344270781613886,1.1014472336769103,1.1014526634216308,1.101742852449417,9.0,1000.0,5.222220084818088,18.025908383957045,9000,4500.0,416.9338343143463
8.46212124633789,-5.577772130966187,-1.3048282070159911,0.061047348648309706,5000.0,0.00357924037380144,1.288108006954193,1.288076672077179,1.288334274291992,10.0,1000.0,48.38027163764669,17.470816136007567,10000,5000.0,474.172146320343
8.456672191619873,-5.5723172988891605,-1.471328968524933,0.06326621392369271,5500.0,0.00405332899838686,1.4529891872406007,1.4530027947425843,1.4531580233573913,11.0,1000.0,44.6383069082612,6.383442983722414,11000,5500.0,630.8274202346802
8.451218204498291,-5.567160871505737,-1.6367877702713012,0.06513365581631661,6000.0,0.005101649947464466,1.6193785104751588,1.6193924980163574,1.6195688681602478,12.0,1000.0,45.846853701417906,18.08883972182416,12000,6000.0,686.1101279258728
8.445759254455567,-5.561748752593994,-1.7963216104507447,0.06650857603549958,6500.0,0.005734790784306824,1.7805118579864503,1.7804975638389586,1.780869924068451,13.0,1000.0,46.03760745024637,18.216398718911037,13000,6500.0,741.0057208538055
8.440295337677002,-5.5564899826049805,-1.9754257159233093,0.07011317655444145,7000.0,0.0059542632205411795,1.9634086351394653,1.9634051451683043,1.9633283309936524,14.0,1000.0,41.53871100414583,17.025647022477656,14000,7000.0,799.7406432628632
8.43482646560669,-5.551195539474487,-2.1290361070632935,0.07059367918968201,7500.0,0.007280847343616188,2.1186296339035033,2.118639120578766,2.1187704668045044,15.0,1000.0,45.68756657944816,18.162731178159728,15000,7500.0,854.7984426021576
8.429352561950683,-5.5454520454406735,-2.27922642993927,0.07149563905596733,8000.0,0.007939704310148954,2.26932799243927,2.2693168992996218,2.2695259675979615,16.0,1000.0,5.925696838506095,17.71677476305098,16000,8000.0,911.2421262264252
8.423873683929443,-5.540815837860108,-2.3190503206253053,0.0675985922217369,8500.0,0.009295653965324164,2.312204878807068,2.3122055473327636,2.3123043088912962,17.0,1000.0,5.384606569876219,18.27760762934147,17000,8500.0,965.9538826942444
8.4183897895813,-5.535205123901367,-2.3722006335258485,0.06574773259460925,9000.0,0.009789858892560005,2.3680898122787477,2.368081628322601,2.3682399215698244,18.0,1000.0,45.941006164187264,18.052540387447184,18000,9000.0,1021.347749710083
8.41290087890625,-5.529971885681152,-2.4928822584152224,0.06622947339713574,9500.0,0.010344518626108766,2.4879509925842287,2.487943434715271,2.48817288684845,19.0,1000.0,8.246472417175173,17.574714652825488,19000,9500.0,1078.2476797103882
8.407406944274902,-5.524265882492066,-2.505761625289917,0.06302573874592782,10000.0,0.01303538060002029,2.502524900436401,2.502520887374878,2.5025031967163085,20.0,1000.0,45.84170420254175,17.38897199852069,20000,10000.0,1135.7553935050964
8.401907958984374,-5.519882165908814,-2.6403612356185913,0.06454127496480942,10500.0,0.013185068188235163,2.6358734998703004,2.635913486480713,2.635875330924988,21.0,1000.0,5.903895151399271,6.788416316228476,21000,10500.0,1283.0651712417603
8.396403945922852,-5.515551446914673,-2.8840208549499513,0.06337052594125271,11000.0,0.02767781088501215,2.8166655921936035,2.816635058403015,2.8173849620819094,22.0,1000.0,34.1051585153858,18.68212963335793,22000,11000.0,1336.592260837555
8.390894874572753,-5.510373741149903,-3.173438069343567,0.0627328998297453,11500.0,0.012631361803039908,3.0930079479217527,3.092992358207703,3.0934025506973266,23.0,1000.0,28.62077744427533,18.16331903226476,23000,11500.0,1391.648278951645
8.385380722045898,-5.505600370407104,-3.4641296882629393,0.06235526379942894,12000.0,0.010248168990015984,3.3820158309936525,3.382045015335083,3.3826773376464843,24.0,1000.0,43.92648713174324,18.66405863435939,24000,12000.0,1445.2271945476532
8.37986151123047,-5.499549806594849,-3.7081783838272093,0.0631173309236765,12500.0,0.007564840183593333,3.6402531929016115,3.640245740890503,3.6405454750061037,25.0,1000.0,47.02105301124985,18.654645655248085,25000,12500.0,1498.8331456184387
8.374337253570557,-5.494130281448364,-3.8959137897491454,0.06483185957372188,13000.0,0.0064649079330265525,3.8479848613739014,3.847998680114746,3.8480855960845948,26.0,1000.0,34.2740434030599,19.049707412433335,26000,13000.0,1551.3273916244507
8.368807857513428,-5.48879940032959,-4.048866508483886,0.06478389894962311,13500.0,0.008394991864450276,4.014107999801635,4.0141086664199825,4.014403999328613,27.0,1000.0,62.32949352118809,19.201224423782186,27000,13500.0,1603.4074051380157
8.36327338027954,-5.483050216674805,-4.189590677261353,0.0670326818972826,14000.0,0.008587708319537342,4.154908508300781,4.15490233039856,4.155143533706665,28.0,1000.0,48.379686630820515,18.38414587976566,28000,14000.0,1657.8021008968353
8.357733833312988,-5.478011558532715,-4.333824392318726,0.0676687076985836,14500.0,0.008266884872689843,4.29797642326355,4.297985057830811,4.298068832397461,29.0,1000.0,47.16909763829326,17.863019725464433,29000,14500.0,1713.7836782932281
8.352189083099365,-5.472676433563232,-4.4782483158111575,0.06929233948886394,15000.0,0.011005969639867543,4.443957273483276,4.443928123474121,4.444121437072754,30.0,1000.0,48.51601619383233,18.994558729599763,30000,15000.0,1766.430335521698
8.34663924407959,-5.467301055908203,-4.618216121673584,0.07013943372666835,15500.0,0.012994475346058607,4.583203449249267,4.5832143287658695,4.583433387756347,31.0,1000.0,47.67577014308076,6.798417570824842,31000,15500.0,1913.52339053154
8.34108427810669,-5.461541673660278,-4.779284029006958,0.07069177241623402,16000.0,0.015521434782072902,4.73974934387207,4.73972456741333,4.739910305023193,32.0,1000.0,46.16129959547341,18.59485900496962,32000,16000.0,1967.3016963005066
8.335524158477783,-5.456284223556518,-4.925929763793945,0.07092062209546567,16500.0,0.015926675261929632,4.888541229248047,4.88855407333374,4.888836290359497,33.0,1000.0,48.60155483766748,18.332056082864817,33000,16500.0,2021.8509526252747
8.329958869934082,-5.450858154296875,-5.077498096466065,0.07263298892974854,17000.0,0.01746104360371828,5.038063919067382,5.038074237823486,5.038354177474975,34.0,1000.0,57.23157390559019,18.86699084620971,34000,17000.0,2074.8535766601562
8.324388427734375,-5.445475629806518,-5.259402565002441,0.07361573949456215,17500.0,0.025579506581649186,5.213904872894287,5.213881231307983,5.214196258544922,35.0,1000.0,50.99391735024939,19.024538892140782,35000,17500.0,2127.417270421982
8.31881280899048,-5.440577800750733,-5.4194818649292,0.07406763732433319,18000.0,0.024761721469461918,5.373392610549927,5.373384532928466,5.373428951263428,36.0,1000.0,50.39711888845541,19.017084841503518,36000,18000.0,2180.0015666484833
8.313231998443603,-5.434774946212769,-5.582152515411377,0.07484403279423714,18500.0,0.025817414458841087,5.536358295440674,5.536390604019165,5.537243877410889,37.0,1000.0,48.63311180543355,18.7970162199815,37000,18500.0,2233.201501607895
8.307646003723145,-5.429755123138428,-5.724573471069336,0.07574312202632427,19000.0,0.025112161483615638,5.680034929275513,5.679992033004761,5.679805389404297,38.0,1000.0,51.084940138958814,18.67277639790738,38000,19000.0,2286.755402803421
8.302054790496825,-5.424614912033081,-5.873354057312012,0.07624913512170314,19500.0,0.02841700790077448,5.829306676864624,5.829281665802002,5.829760614395141,39.0,1000.0,50.56287842729076,18.142451985235365,39000,19500.0,2341.8747448921204
8.29645837020874,-5.418914417266846,-6.034284440994263,0.07669693501293659,20000.0,0.03557245642691851,5.989965635299683,5.989971229553222,5.990161918640137,40.0,1000.0,48.95114134201515,18.66135450729522,40000,20000.0,2395.461425304413
8.29085671234131,-5.4132751121521,-6.181226655960083,0.07738061898946762,20500.0,0.03611725987493992,6.138007440567017,6.137986087799073,6.13817621421814,41.0,1000.0,49.121079196493874,6.759217574231272,41000,20500.0,2543.4075441360474
8.285249820709229,-5.407987781524659,-6.3031254005432125,0.07823910272121429,21000.0,0.03643139769881964,6.26467279624939,6.26464972114563,6.264726144790649,42.0,1000.0,52.9450189837268,18.393000641778862,42000,21000.0,2597.7760536670685
8.279637683868408,-5.402940687179566,-6.421352725982666,0.07844827793538571,21500.0,0.03501681849732995,6.381716428756714,6.3817154350280765,6.382089712142944,43.0,1000.0,62.973955593997246,18.428701586358063,43000,21500.0,2652.039237976074
8.274020317077637,-5.396924825668335,-6.582702655792236,0.07944963420927524,22000.0,0.04856547971069813,6.54566556930542,6.545682216644287,6.54576238822937,44.0,1000.0,51.03712219607107,18.447373778287627,44000,22000.0,2706.247497320175
8.268397636413575,-5.391909851074219,-6.749632171630859,0.07990596102178096,22500.0,0.055386827256530526,6.709705900192261,6.709696298599243,6.709975378036499,45.0,1000.0,47.58640012091306,19.260488502243703,45000,22500.0,2758.167261838913
8.26276974105835,-5.386487098693848,-6.895491571426391,0.08081495359539986,23000.0,0.05799335174262524,6.851035875320434,6.8510035781860354,6.851200733184815,46.0,1000.0,45.44367475201635,18.999547898798458,46000,23000.0,2810.800094127655
8.25713653564453,-5.38127484703064,-7.020172409057617,0.08089263597130776,23500.0,0.05735957083106041,6.974823194503784,6.974815408706665,6.975014274597168,47.0,1000.0,51.306545163050245,18.47689361877962,47000,23500.0,2864.921746969223
8.251498027801514,-5.375854907989502,-7.137344083786011,0.0814442625939846,24000.0,0.058580509074032304,7.096982105255127,7.096965826034546,7.097171586990356,48.0,1000.0,52.81519359389229,17.72788960996571,48000,24000.0,2921.330041885376
8.245854225158691,-5.370089149475097,-7.27901548576355,0.08163432720303536,24500.0,0.06427748091518878,7.235314514160156,7.2353258838653565,7.235456829071045,49.0,1000.0,74.82470859835672,18.008560547841675,49000,24500.0,2976.859190225601
8.240205131530761,-5.3644747581481935,-7.440913402557373,0.08309912464022637,25000.0,0.06433284798264503,7.395681907653809,7.395678983688354,7.395943780899048,50.0,1000.0,54.893256433819765,18.38619396683635,50000,25000.0,3031.24782705307
8.234550682067871,-5.359419914245605,-7.589773773193359,0.08329707777500153,25500.0,0.061438688069581984,7.547050733566284,7.547048219680786,7.547106605529785,51.0,1000.0,37.459727779350764,6.5232683007148635,51000,25500.0,3184.545217514038
8.228890895843506,-5.354134550094605,-7.710448162078857,0.08356655499339104,26000.0,0.06265093603730201,7.6643224029541015,7.664372442245483,7.664726739883423,52.0,1000.0,65.06772999955089,17.956648616733585,52000,26000.0,3240.234898328781
8.22322582244873,-5.348990194320678,-7.893320613861084,0.08418513917922973,26500.0,0.0666502759307623,7.843830820083618,7.843815607070923,7.844178079605102,53.0,1000.0,63.797220347329656,17.82107082409621,53000,26500.0,3296.348250389099
8.217555297851563,-5.343443281173706,-8.066774473190307,0.08523595681786537,27000.0,0.072016251668334,8.010572965621948,8.010558420181274,8.01073937034607,54.0,1000.0,63.579388773787784,18.03202641843476,54000,27000.0,3351.8051364421844
8.211879489898681,-5.3379659194946285,-8.248617038726806,0.08565942633152009,27500.0,0.07238953846693039,8.185242910385131,8.185256671905517,8.185519025802613,55.0,1000.0,98.01526656282736,18.015613370658944,55000,27500.0,3407.3125460147858
8.20619826889038,-5.332369010925293,-8.471748302459718,0.08771542555093766,28000.0,0.08347562921047211,8.402512969970703,8.402473979949951,8.402711902618409,56.0,1000.0,77.39388983875655,17.807220160065288,56000,28000.0,3463.4695432186127
8.200511646270751,-5.326809186935424,-8.707891880035401,0.08892890000343323,28500.0,0.08787943793833256,8.628606227874755,8.62851061630249,8.62874157333374,57.0,1000.0,83.44951383900485,17.870977358912544,57000,28500.0,3519.4261932373047
8.194819683074952,-5.32140726852417,-8.984547492980957,0.09072685837745667,29000.0,0.09645419253408909,8.892894340515136,8.892981204986572,8.89313981628418,58.0,1000.0,74.59308935404964,17.586645805010345,58000,29000.0,3576.2875204086304
8.189122310638428,-5.3156987628936765,-9.25682511138916,0.09110834908485413,29500.0,0.10161878149211406,9.159989967346192,9.159982250213623,9.160330024719238,59.0,1000.0,67.3449428013998,17.56519088464998,59000,29500.0,3633.218300819397
8.183419479370118,-5.310653091430664,-9.529604572296142,0.0919529424905777,30000.0,0.10255266666412353,9.434813663482666,9.434813365936279,9.435124713897705,60.0,1000.0,58.72341748154432,17.986362068275028,60000,30000.0,3688.815982103348
8.177711238861084,-5.305832862854004,-9.777710426330566,0.09245088517665863,30500.0,0.10599888932704926,9.683675552368165,9.683617744445801,9.68383508682251,61.0,1000.0,55.16050198690272,6.270356373076547,61000,30500.0,3848.2965519428253
8.17199758529663,-5.302922508239746,-9.9951040725708,0.09281069421768189,31000.0,0.1093504875600338,9.908579593658446,9.908565196990967,9.908816543579102,62.0,1000.0,76.08984173100168,17.855909719162522,62000,31000.0,3904.3004212379456
8.166278625488282,-5.299414005279541,-10.272287406921386,0.09375513157248497,31500.0,0.11909480929374695,10.172618106842041,10.172586380004883,10.17319062423706,63.0,1000.0,74.45673252064779,17.993777221257133,63000,31500.0,3959.8751904964447
8.160553882598878,-5.293512912750244,-10.533831005096436,0.09515000915527344,32000.0,0.11851376357674599,10.432270572662354,10.432190795898437,10.432515083312989,64.0,1000.0,76.23488151351432,18.01346597527171,64000,32000.0,4015.3892166614532
8.15482384109497,-5.287724700927734,-10.787918659210206,0.09549058002233506,32500.0,0.12939693665504456,10.68791851425171,10.687938140869141,10.68838984298706,65.0,1000.0,68.85285850641655,18.433364672030375,65000,32500.0,4069.638674020767
8.149088340759278,-5.2825707321166995,-11.020663394927979,0.09643128207325935,33000.0,0.1373494574725628,10.916892345428467,10.916866828918456,10.917084129333496,66.0,1000.0,68.99419569501512,18.54920812584827,66000,33000.0,4123.549332618713
8.143347312927245,-5.277965236663818,-11.278197261810302,0.09724567434191704,33500.0,0.1399390052855015,11.172589275360107,11.172557502746582,11.172913261413575,67.0,1000.0,85.40016229859664,19.018804216554155,67000,33500.0,4176.128874778748
8.137600788116455,-5.2735345096588135,-11.51276568222046,0.09819837957620621,34000.0,0.14680515110492706,11.41299694442749,11.413026966094971,11.413504692077638,68.0,1000.0,80.71101930860927,19.325776313708282,68000,34000.0,4227.873240470886
8.131848793029786,-5.269171936035156,-11.775330013275147,0.0987085890173912,34500.0,0.15057289215922356,11.672376644134522,11.672384380340576,11.672797458648681,69.0,1000.0,63.33028341445441,19.48572816140365,69000,34500.0,4279.192852735519
8.126091270446777,-5.263692134857178,-11.992788089752198,0.09961242181062699,35000.0,0.1516887511909008,11.884952590942383,11.884930534362793,11.885411220550537,70.0,1000.0,87.21743543559353,19.1933368932242,70000,35000.0,4331.294268608093
8.120328189849854,-5.258993257522583,-12.243875782012939,0.10013376954197883,35500.0,0.15142231151461602,12.129266868591309,12.129205554962159,12.129356525421143,71.0,1000.0,81.51065313829434,7.0387169743011375,71000,35500.0,4473.3656170368195
8.114559574127197,-5.254985601425171,-12.509994995117188,0.10110572245717049,36000.0,0.15952792936563492,12.391709259033203,12.391694278717042,12.392123794555664,72.0,1000.0,97.25985189040212,19.39928191783108,72000,36000.0,4524.913918018341
8.108785442352294,-5.2500838317871095,-12.807992584228515,0.10254987236857414,36500.0,0.15976214921474458,12.684620906829833,12.684651851654053,12.685118370056152,73.0,1000.0,83.21307805160204,19.404524325948916,73000,36500.0,4576.448292732239
8.1030057182312,-5.244319942474365,-13.043219367980956,0.10402967524528503,37000.0,0.15543728053569794,12.924660053253174,12.92467643737793,12.924988571166992,74.0,1000.0,57.21240925028477,19.461522644174327,74000,37000.0,4627.831734895706
8.097220439910888,-5.239199954986573,-13.321361637115478,0.10419122585654259,37500.0,0.15288589492440224,13.19912470626831,13.199092224121094,13.199518684387208,75.0,1000.0,93.58460378053513,19.28294322523149,75000,37500.0,4679.691039085388
8.091429496765137,-5.2339043655395505,-13.600624202728271,0.10459429323673249,38000.0,0.15674375200271606,13.47153791809082,13.471538581848144,13.472232818603516,76.0,1000.0,88.57962925408697,19.017630223714278,76000,38000.0,4732.273827791214
8.085633083343506,-5.228014156341553,-13.878379978179932,0.10572859969735146,38500.0,0.1653174121081829,13.74857981109619,13.748587825775147,13.74883782196045,77.0,1000.0,81.21468485681446,19.195477979348333,77000,38500.0,4784.369431734085
8.079831024169922,-5.2223610553741455,-14.15463000869751,0.10690536007285117,39000.0,0.1667521635591984,14.025989032745361,14.025947586059571,14.02635788345337,78.0,1000.0,88.32762154292395,18.809416423557035,78000,39000.0,4837.534293651581
8.07402332687378,-5.217856706619263,-14.41391766357422,0.10753789713978767,39500.0,0.16692948812246322,14.286131546020508,14.28616972732544,14.286417526245117,79.0,1000.0,98.55089497269617,19.078966640884182,79000,39500.0,4889.948035478592
8.068209991455078,-5.21194344329834,-14.6351828956604,0.10840393233299256,40000.0,0.16907595187425614,14.5141548538208,14.514128959655762,14.514639446258546,80.0,1000.0,101.72964793336271,19.200659846894947,80000,40000.0,4942.029579877853
8.062391048431396,-5.206442094802856,-14.88512355041504,0.10980233663320542,40500.0,0.17022228008508683,14.7585899848938,14.75852705001831,14.759219394683837,81.0,1000.0,99.90820082931691,6.8361265573446826,81000,40500.0,5088.311249494553
8.056566444396973,-5.202015995025635,-15.133447845458985,0.11075228309631348,41000.0,0.17319227114319802,15.007634147644042,15.007629131317138,15.007724578857422,82.0,1000.0,93.53299382964754,19.237710915386863,82000,41000.0,5140.292487382889
8.050736190795899,-5.195415113449097,-15.397789321899413,0.11099265399575234,41500.0,0.17562580704689026,15.264830764770508,15.26481254196167,15.265152950286865,83.0,1000.0,124.85021279350208,19.374336956873954,83000,41500.0,5191.907157897949
8.044900241851806,-5.190703662872314,-15.660814476013183,0.11325510463118553,42000.0,0.17679705715179445,15.531012943267822,15.531011600494384,15.531789882659911,84.0,1000.0,92.35487924954644,18.98875665938565,84000,42000.0,5244.569902181625
8.039058628082275,-5.18554005241394,-15.896376300811768,0.11450812405347824,42500.0,0.177908584266901,15.767060043334961,15.767088649749756,15.767205150604248,85.0,1000.0,65.62232612391936,19.261412888291687,85000,42500.0,5296.487174749374
8.033211318969727,-5.179964336395264,-16.141242855072022,0.11451033380627632,43000.0,0.1834242599606514,16.008811794281005,16.008782566070558,16.009401035308837,86.0,1000.0,104.73817137421501,19.483248516970754,86000,43000.0,5347.813319444656
8.027358306884766,-5.1758319606781,-16.383410621643065,0.11568490475416184,43500.0,0.18120352578163146,16.247127563476564,16.247170654296873,16.247649501800538,87.0,1000.0,84.95444936968322,19.028282439217605,87000,43500.0,5400.366671323776
8.021499576568603,-5.171343997955322,-16.640798095703126,0.11628662928938865,44000.0,0.1812568507194519,16.503063690185545,16.502959449768067,16.503054206848145,88.0,1000.0,102.71470501354773,19.09740625434245,88000,44000.0,5452.7298176288605
8.01563514328003,-5.167348207473755,-16.883795669555663,0.11684993782639504,44500.0,0.18652798557281494,16.747451454162597,16.74755439758301,16.74793862915039,89.0,1000.0,85.86410013862755,19.094356052344917,89000,44500.0,5505.1013152599335
8.0097649269104,-5.162967885971069,-17.104081550598146,0.1177963333427906,45000.0,0.18940064966678619,16.97352593231201,16.973534454345703,16.974152503967286,90.0,1000.0,103.39862496871733,19.24372344510468,90000,45000.0,5557.066311836243
8.003889003753661,-5.157572574615479,-17.31052992248535,0.11891669288277626,45500.0,0.19119675970077515,17.182059295654298,17.18195316314697,17.182270874023438,91.0,1000.0,92.38961873187478,6.917644261076056,91000,45500.0,5701.62419462204
7.99800729560852,-5.153874647140503,-17.533002716064452,0.1198634761273861,46000.0,0.1919397975206375,17.402390502929688,17.402435729980468,17.402693199157714,92.0,1000.0,84.45226122741973,18.91471728157147,92000,46000.0,5754.49308013916
7.992119817733765,-5.149962121963501,-17.722558891296387,0.11954782566428185,46500.0,0.19719306284189225,17.591425666809084,17.59138634490967,17.592070556640625,93.0,1000.0,113.31599602597282,19.108411734595524,93000,46500.0,5806.826055049896
7.986226564407349,-5.144188196182251,-17.934039070129394,0.12144524458050728,47000.0,0.20156749325990678,17.803079956054688,17.803140777587892,17.803586669921874,94.0,1000.0,111.91118710575113,19.124529109132883,94000,47000.0,5859.114925146103
7.980327486038208,-5.139725599288941,-18.122059928894043,0.12221369931101798,47500.0,0.20056544756889344,17.994701309204103,17.994727783203125,17.994863929748536,95.0,1000.0,98.65472479688543,18.318352396119487,95000,47500.0,5913.704988956451
7.974422647476196,-5.134606128692627,-18.33895390319824,0.12308623877167701,48000.0,0.20325470238924026,18.20888599395752,18.208823600769044,18.209049774169923,96.0,1000.0,112.17618677318553,18.121011109375036,96000,48000.0,5968.8895490169525
7.968511985778808,-5.130684354782105,-18.561231788635254,0.12368017262220382,48500.0,0.20236828500032425,18.421943321228028,18.422023750305176,18.422414512634276,97.0,1000.0,106.18456049871148,18.260924517034315,97000,48500.0,6023.651289701462
7.962595483779907,-5.126156072616578,-18.78805065917969,0.12585801899433136,49000.0,0.21001404905319213,18.651311141967774,18.651276237487792,18.651697746276856,98.0,1000.0,80.58164295961498,18.364006217862773,98000,49000.0,6078.10563993454
7.956673133850098,-5.11890553855896,-18.963592292785645,0.12504685428738593,49500.0,0.21737869077920913,18.824136405944824,18.824171646118163,18.824513481140137,99.0,1000.0,105.06251095704596,18.35053621726853,99000,49500.0,6132.5999619960785
7.950744972229004,-5.114459236145019,-19.186074256896973,0.12646048724651338,50000.0,0.21778754276037215,19.042587158203126,19.042580360412597,19.043193717956544,100.0,1000.0,120.09430592403392,18.262128834221574,100000,50000.0,6187.358092069626
7.944810894012451,-5.1063053398132325,-19.40570435333252,0.12717160394787788,50500.0,0.21387118715047837,19.260249404907228,19.260185836791994,19.26044664001465,101.0,1000.0,116.88805678708992,6.350545370183775,101000,50500.0,6344.824884653091
7.938870977401733,-5.102284679412842,-19.61946044921875,0.12848243802785875,51000.0,0.20991414833068847,19.477432823181154,19.47751904296875,19.47799153137207,102.0,1000.0,113.713141612956,18.263077802074147,102000,51000.0,6399.580169677734
7.932925138473511,-5.096780694961548,-19.833688499450684,0.12938845628499984,51500.0,0.21169540214538574,19.68941651916504,19.689415451049804,19.68970093536377,103.0,1000.0,104.24036976835242,18.075149230484104,103000,51500.0,6454.904748678207
7.926973432540893,-5.092388605117798,-20.056240829467775,0.13045354872941972,52000.0,0.21523986160755157,19.91620009613037,19.916228660583496,19.916524238586426,104.0,1000.0,101.55881463420641,18.0698716633642,104000,52000.0,6510.245486021042
7.921015825271606,-5.0863017616271975,-20.276210441589356,0.13118307182192804,52500.0,0.21080689269304276,20.131471153259277,20.131404983520508,20.132128601074218,105.0,1000.0,130.93099973380836,18.208170639086948,105000,52500.0,6565.165886640549
7.915052270889282,-5.079871234893798,-20.479122825622557,0.1321298810839653,53000.0,0.2204921820163727,20.332702056884767,20.33272833251953,20.332659873962402,106.0,1000.0,75.5659495781257,18.10149869157531,106000,53000.0,6620.409932613373
7.909082818984985,-5.075037755966187,-20.698188415527344,0.13258183628320694,53500.0,0.22050008940696716,20.551336853027344,20.55134206390381,20.552118309020997,107.0,1000.0,117.26474106103991,18.12397971690814,107000,53500.0,6675.585453748703
7.90310735321045,-5.071380228042602,-20.900590553283692,0.13310845437645913,54000.0,0.21680686116218567,20.755025390625,20.755039993286132,20.755411125183105,108.0,1000.0,98.89629040015372,17.976304387869295,108000,54000.0,6731.214241743088
7.897125984191894,-5.064424242019653,-21.08877850341797,0.1339600831270218,54500.0,0.22078779733181,20.943360305786133,20.943329063415526,20.943435150146485,109.0,1000.0,105.63076101745806,18.07849056493171,109000,54500.0,6786.528595209122
7.891138631820679,-5.05815837097168,-21.29134783935547,0.13410738801956176,55000.0,0.2222900530099869,21.1420191116333,21.14200644683838,21.14273934173584,110.0,1000.0,125.85415458468543,18.03004693731339,110000,55000.0,6841.991569280624
7.885145311355591,-5.052256299972534,-21.50769027709961,0.13606561681628226,55500.0,0.2219568448662758,21.360137306213378,21.360160385131834,21.360405349731444,111.0,1000.0,107.20753408321553,6.770494833127696,111000,55500.0,6989.69126200676
7.879145978927612,-5.047631320953369,-21.696452629089354,0.13662449863553047,56000.0,0.21688332998752594,21.550305717468262,21.550302391052245,21.55098152923584,112.0,1000.0,116.69592606811251,19.385612596536554,112000,56000.0,7041.275911331177
7.873140642166137,-5.04112271118164,-21.88867473602295,0.13781232672929764,56500.0,0.220540824174881,21.738783256530763,21.738786949157713,21.739279724121094,113.0,1000.0,120.36630104658862,18.981055568787177,113000,56500.0,7093.960021734238
7.867129318237304,-5.03524881362915,-22.08031364440918,0.1384708437025547,57000.0,0.2236271201968193,21.929309608459473,21.9293519821167,21.929680709838866,114.0,1000.0,118.55418642140133,19.001824677208493,114000,57000.0,7146.5865478515625
7.861111942291259,-5.0283662147521975,-22.275043197631835,0.13924525943398475,57500.0,0.22584514182806015,22.12427904510498,22.124268074035644,22.124329307556152,115.0,1000.0,116.86283652068308,19.28552466306483,115000,57500.0,7198.4389107227325
7.8550885372161865,-5.0229013023376465,-22.471683898925782,0.13961634731292724,58000.0,0.2267969338297844,22.321278633117675,22.321324363708495,22.321690956115724,116.0,1000.0,98.94095574197718,19.277871824258266,116000,58000.0,7250.311857700348
7.849059061050415,-5.016477485656738,-22.668007377624512,0.14055089741945268,58500.0,0.2311844325065613,22.515847854614258,22.51586703491211,22.516577819824217,117.0,1000.0,95.95371453535698,19.117510695093667,117000,58500.0,7302.619923830032
7.8430235385894775,-5.012218545913696,-22.84274490356445,0.1413774564564228,59000.0,0.23527374666929246,22.695842781066894,22.695759269714355,22.69604273223877,118.0,1000.0,109.19899819896149,18.996938163723097,118000,59000.0,7355.259987354279
7.836981889724732,-5.007337162017822,-23.02517985534668,0.14089514604210854,59500.0,0.23825714111328125,22.86999146270752,22.86996865081787,22.870403038024904,119.0,1000.0,100.43674471284461,19.16105705781192,119000,59500.0,7407.449176073074
7.830934213638305,-5.000728054046631,-23.215608772277832,0.1424443049132824,60000.0,0.23845971006155015,23.061592254638672,23.06162624359131,23.062026008605958,120.0,1000.0,111.94567043076079,19.17008935443306,120000,60000.0,7459.613775014877
7.824880424499511,-4.995166681289673,-23.421578201293947,0.14289099583029746,60500.0,0.23978197997808456,23.26789566040039,23.26781342315674,23.26827500152588,121.0,1000.0,136.14790193784924,6.822040903218877,121000,60500.0,7606.197476387024
7.818820503234863,-4.98750465965271,-23.59230152130127,0.14323395329713823,61000.0,0.23830603337287903,23.438561485290528,23.43853455352783,23.438860969543455,122.0,1000.0,116.14155413281293,18.98181381681937,122000,61000.0,7658.8794820308685
7.812754474639893,-4.981864763259888,-23.78191911315918,0.14398597049713135,61500.0,0.23969810593128205,23.628791763305664,23.628909538269042,23.62907765197754,123.0,1000.0,128.6858530374627,19.117709021043144,123000,61500.0,7711.1870057582855
7.806682285308838,-4.976432222366333,-23.973928916931154,0.1452083431482315,62000.0,0.24175453186035156,23.81787717437744,23.81792406463623,23.818514305114746,124.0,1000.0,113.32902712112003,19.096697171937695,124000,62000.0,7763.552083015442
7.800603916168213,-4.970292476654053,-24.163671333312987,0.14614509230852127,62500.0,0.24712069010734558,24.007991477966307,24.007851287841795,24.00810962677002,125.0,1000.0,113.64598197458179,19.11821574684653,125000,62500.0,7815.858220338821
7.794519449234008,-4.964471563339234,-24.33934619140625,0.14652175372838974,63000.0,0.25058258533477784,24.182916885375978,24.182946044921874,24.183499404907227,126.0,1000.0,125.07658567064993,18.84467899971247,126000,63000.0,7868.923599243164
7.788428787231445,-4.957351278305054,-24.515770637512208,0.14770439609885216,63500.0,0.24348083370923995,24.35871371459961,24.35874899291992,24.35887446594238,127.0,1000.0,120.92487445263754,19.097296171389388,127000,63500.0,7921.287034034729
7.782331926345825,-4.9513409748077395,-24.70227438354492,0.14801248615980148,64000.0,0.2502613999247551,24.54709314727783,24.547112281799315,24.547295600891115,128.0,1000.0,125.01264594637308,19.25727617463212,128000,64000.0,7973.215459346771
7.7762288475036625,-4.945587148666382,-24.85275768280029,0.14821079528331757,64500.0,0.24819523179531097,24.696464614868162,24.696434753417968,24.69687661743164,129.0,1000.0,124.03681562694113,18.989403585158673,129000,64500.0,8025.876408576965
7.770119585037231,-4.942104663848877,-25.03618575286865,0.15007415759563447,65000.0,0.25831536585092546,24.881214332580566,24.881363639831545,24.881706031799318,130.0,1000.0,112.32933471411877,19.139789247497244,130000,65000.0,8078.1235892772675
7.764004072189331,-4.934149742126465,-25.199440925598143,0.1502330551147461,65500.0,0.2623432634472847,25.04249033355713,25.042486518859864,25.042645767211916,131.0,1000.0,116.2749323851225,6.553596866561498,131000,65500.0,8230.71155500412
7.757882326126099,-4.930051073074341,-25.375375785827636,0.1512833217382431,66000.0,0.2601610557436943,25.216705833435057,25.21654955291748,25.21712692260742,132.0,1000.0,124.53726472055622,17.841711606173128,132000,66000.0,8286.759990215302
7.751754350662232,-4.922851713180542,-25.55632848358154,0.1511670543551445,66500.0,0.2517237322926521,25.393545394897462,25.39356001281738,25.393944999694824,133.0,1000.0,129.224862977727,17.817689757482157,133000,66500.0,8342.883991003036
7.745620077133179,-4.91648436164856,-25.71591661834717,0.15196749609708787,67000.0,0.2607650237083435,25.556215286254883,25.556182258605958,25.556521614074708,134.0,1000.0,121.68215626265389,17.67439754688715,134000,67000.0,8399.463006734848
7.7394795455932615,-4.912640361785889,-25.901401473999023,0.15345051139593124,67500.0,0.25768952643871307,25.741567611694336,25.74156526184082,25.741670845031738,135.0,1000.0,138.98653573013482,17.749490039605746,135000,67500.0,8455.80265545845
7.733332662582398,-4.908077077865601,-26.055335342407226,0.15412886917591095,68000.0,0.2552926280498505,25.90012455749512,25.90013954925537,25.900626708984376,136.0,1000.0,129.75125638293062,18.189112301696074,136000,68000.0,8510.780601263046
7.7271795711517335,-4.9017155036926265,-26.185930221557616,0.1555806839466095,68500.0,0.2571290251016617,26.03033306121826,26.030334129333497,26.030740257263183,137.0,1000.0,139.0345104094977,17.45421689990882,137000,68500.0,8568.07334780693
7.721020133972168,-4.894763162612915,-26.367961959838865,0.15623084235191345,69000.0,0.25904944771528243,26.20821250152588,26.20815877532959,26.208569496154784,138.0,1000.0,110.57065683975001,17.920313747680574,138000,69000.0,8623.87594294548
7.714854337692261,-4.8898169212341305,-26.522797706604003,0.15678169113397597,69500.0,0.25700354427099226,26.367672782897948,26.3676753616333,26.368029754638673,139.0,1000.0,116.64877745596819,20.97632882338276,139000,69500.0,8671.548730134964
7.708682233810425,-4.88473091506958,-26.662848709106445,0.15685702228546142,70000.0,0.2532135023474693,26.50665299987793,26.506713417053223,26.50707417297363,140.0,1000.0,132.61154941452222,24.348814951452685,140000,70000.0,8712.618492364883
7.702503761291504,-4.877977077484131,-26.808056282043456,0.15780943530797958,70500.0,0.2622778934240341,26.651755989074708,26.651743782043457,26.651671852111818,141.0,1000.0,120.76105436168638,9.655944274478275,141000,70500.0,8816.181642770767
7.696318922042846,-4.872849382400513,-26.963245895385743,0.15848110783100128,71000.0,0.26756029868125913,26.8047473526001,26.80484100341797,26.805298431396483,142.0,1000.0,104.04705860973105,24.191996703574667,142000,71000.0,8857.517628908157
7.690127681732178,-4.865748722076416,-27.103900428771972,0.15835041165351868,71500.0,0.27238213968276975,26.946017852783203,26.94613026428223,26.946445625305177,143.0,1000.0,145.58009928057808,24.23029866236609,143000,71500.0,8898.78827214241
7.683930034637451,-4.859660718917847,-27.252687408447265,0.1592492316365242,72000.0,0.2737150799036026,27.097031776428224,27.096786705017088,27.097204025268553,144.0,1000.0,131.22627356360468,24.31542488896297,144000,72000.0,8939.914430856705
7.67772603225708,-4.855143354415894,-27.385903213500978,0.15986779963970185,72500.0,0.2744027606844902,27.231526718139648,27.231605560302736,27.231880165100097,145.0,1000.0,128.55262648291608,24.51502777426146,145000,72500.0,8980.705737829208
7.671515556335449,-4.850515661239624,-27.533326400756835,0.16080724555253983,73000.0,0.27918031471967697,27.377404861450195,27.37740675354004,27.377427955627443,146.0,1000.0,115.13747051363192,24.445004710334548,146000,73000.0,9021.613892555237
7.665298692703247,-4.842974489212036,-27.655099014282225,0.1605597437620163,73500.0,0.28652352052927016,27.495123397827147,27.49510214996338,27.49582080078125,147.0,1000.0,102.09447967590329,24.500114007228646,147000,73500.0,9062.430029630661
7.65907533454895,-4.837675359725952,-27.822592658996584,0.1614984977245331,74000.0,0.2846087344288826,27.661252128601074,27.661320945739746,27.661354988098143,148.0,1000.0,139.14969205165468,24.63571012879196,148000,74000.0,9103.021513700485
7.6528455371856685,-4.833466033935547,-27.947355018615724,0.16225344616174697,74500.0,0.28964283138513564,27.78693101501465,27.786914459228516,27.787177307128907,149.0,1000.0,124.92175229125012,24.53671585529675,149000,74500.0,9143.776765346527
7.646609262466431,-4.826488613128662,-28.089893516540528,0.1630596261024475,75000.0,0.2974981333017349,27.933187553405762,27.933173805236816,27.93406879425049,150.0,1000.0,117.27689057021948,24.65827251890207,150000,75000.0,9184.33110833168
7.640366500854492,-4.8189844951629635,-28.2441891708374,0.16395475155115127,75500.0,0.3082492740750313,28.083796646118163,28.083711631774904,28.08348134613037,151.0,1000.0,170.3201047041966,10.0302401300043,151000,75500.0,9284.029619455338
7.634117233276367,-4.814785015106201,-28.38309997558594,0.1641105513572693,76000.0,0.302375031709671,28.221532524108888,28.2215665435791,28.222014869689943,152.0,1000.0,128.30232092986628,24.81920792664968,152000,76000.0,9324.320995092392
7.627861427307129,-4.807415578842163,-28.53045092010498,0.16573410373926162,76500.0,0.3030979799032211,28.368317657470705,28.36828897857666,28.368170753479003,153.0,1000.0,130.14934452562588,24.82591511729223,153000,76500.0,9364.601485013962
7.621599145889283,-4.801947824478149,-28.659674331665038,0.1656422217488289,77000.0,0.3075323820114136,28.496891296386718,28.496982696533202,28.49785287475586,154.0,1000.0,140.96548580006794,25.859875969881607,154000,77000.0,9403.271431684494
7.615330308914184,-4.795113059997559,-28.812315971374513,0.16652179622650146,77500.0,0.30844439822435377,28.652464195251465,28.65241941833496,28.65277367401123,155.0,1000.0,120.20361772418298,25.9995188516013,155000,77500.0,9441.733683109283
7.609054878234863,-4.789526693344116,-28.924461601257324,0.16690240854024888,78000.0,0.3143149073123932,28.764739837646484,28.76479521179199,28.764776168823243,156.0,1000.0,128.20472357611627,26.07137423336275,156000,78000.0,9480.089928627014
7.602772920608521,-4.784104219436646,-29.077442199707033,0.16765505057573318,78500.0,0.31646263259649277,28.913738861083985,28.913648345947266,28.91437890625,157.0,1000.0,137.06490672100875,25.90989157026809,157000,78500.0,9518.685227870941
7.596484352111816,-4.776294439315796,-29.22420644378662,0.1691557229757309,79000.0,0.31581969374418256,29.05730876159668,29.057354209899902,29.057042182922363,158.0,1000.0,126.43082691158358,26.10949596165048,158000,79000.0,9556.985470294952
7.590189182281494,-4.770338171005249,-29.3476332321167,0.168763396859169,79500.0,0.3141957507133484,29.181605056762695,29.181591636657714,29.182328247070313,159.0,1000.0,144.32475257888157,25.81535654467503,159000,79500.0,9595.722104787827
7.583887392044067,-4.765994707107544,-29.491767715454102,0.17013336235284807,80000.0,0.3149665578603745,29.326541198730467,29.326616333007813,29.326996101379393,160.0,1000.0,136.19338592679603,25.794572535116867,160000,80000.0,9634.489951372147
7.57757900428772,-4.75870414352417,-29.629010581970213,0.17017379248142242,80500.0,0.3170581859946251,29.463688987731935,29.463560691833496,29.463542030334473,161.0,1000.0,146.035234688852,10.734548649539505,161000,80500.0,9727.647106170654
7.571263954162598,-4.752042070388794,-29.761015029907227,0.17100517916679384,81000.0,0.31944790053367617,29.595198150634765,29.595262092590332,29.595157287597655,162.0,1000.0,148.73875176825294,25.90350787929882,162000,81000.0,9766.251916885376
7.564942260742187,-4.748788158416748,-29.897856994628906,0.17120021522045137,81500.0,0.31705948495864866,29.73457830810547,29.734686920166016,29.735239974975585,163.0,1000.0,133.99055284033443,25.92621569113555,163000,81500.0,9804.822916030884
7.558613937377929,-4.743618518829345,-30.023870483398436,0.17245605516433715,82000.0,0.3125010738968849,29.861725944519044,29.861641311645506,29.862338920593263,164.0,1000.0,137.18121388272226,25.862212910472447,164000,82000.0,9843.48936843872
7.552278881072998,-4.73637483215332,-30.144407958984374,0.1733141413331032,82500.0,0.3195762681365013,29.98589833831787,29.9860443649292,29.985942207336425,165.0,1000.0,129.8939127166697,25.877913853066538,165000,82500.0,9882.132360935211
7.545937120437622,-4.731423374176026,-30.25162190246582,0.17363553017377853,83000.0,0.3304189285039902,30.08969588470459,30.089509346008303,30.090118377685545,166.0,1000.0,148.4523732418508,25.74966110401338,166000,83000.0,9920.967824459076
7.539588691711426,-4.725596643447876,-30.377313453674315,0.1744145735502243,83500.0,0.3323266730308533,30.216179649353027,30.216195663452147,30.216200958251953,167.0,1000.0,135.6595968865524,25.68077075767104,167000,83500.0,9959.90746665001
7.533233512878418,-4.720503644943237,-30.48698715209961,0.1750130098462105,84000.0,0.3370472056865692,30.326641258239746,30.326591232299805,30.327280654907227,168.0,1000.0,146.61752651922197,25.81323649168276,168000,84000.0,9998.647282361984
7.5268716144561765,-4.713418497085572,-30.620148544311522,0.17519526612758637,84500.0,0.3391786534786224,30.45457719421387,30.45460298919678,30.45431632232666,169.0,1000.0,143.8223763338391,25.222513313803677,169000,84500.0,10038.294402599335
7.520502935409546,-4.70795297241211,-30.74930570983887,0.1763448551893234,85000.0,0.3441037427186966,30.582373336791992,30.58234294128418,30.58294063568115,170.0,1000.0,168.04158451866252,25.67592529704308,170000,85000.0,10077.241393566132
7.514127508163452,-4.701443614959717,-30.8748143157959,0.17716866904497147,85500.0,0.34969778478145597,30.7095767288208,30.709745941162108,30.709763565063476,171.0,1000.0,140.00945728680853,10.834491595770404,171000,85500.0,10169.53921866417
7.507745286941528,-4.694670700073242,-31.016325119018553,0.17756992572546004,86000.0,0.3456208766698837,30.846181838989256,30.845982040405275,30.846957237243654,172.0,1000.0,152.47770695335734,25.83009452618246,172000,86000.0,10208.25375032425
7.5013562793731685,-4.688942741394043,-31.148408157348634,0.17865348505973816,86500.0,0.35134795475006103,30.978822273254394,30.97902838897705,30.97854983520508,173.0,1000.0,107.04943160617631,25.79558497818546,173000,86500.0,10247.020075082779
7.494960487365723,-4.682249792098999,-31.272931732177735,0.17850837445259093,87000.0,0.3485527423620224,31.102756362915038,31.10261400604248,31.103156410217284,174.0,1000.0,125.46684381255687,25.806809032361013,174000,87000.0,10285.769539117813
7.488557830810547,-4.6762615509033205,-31.414614067077636,0.17948321408033371,87500.0,0.35023686254024505,31.24146569061279,31.241496101379393,31.241927894592287,175.0,1000.0,141.187909518294,25.776334260187802,175000,87500.0,10324.564816713333
7.482148330688476,-4.670926082611084,-31.521973503112793,0.17925170707702637,88000.0,0.35262815141677856,31.353393882751465,31.35348355102539,31.353877113342286,176.0,1000.0,148.02069970018815,26.043945631336108,176000,88000.0,10362.961457014084
7.475732004165649,-4.664366638183593,-31.651261138916016,0.1804148232936859,88500.0,0.3463966176509857,31.484994789123537,31.484863021850586,31.485036308288574,177.0,1000.0,142.5925221506658,25.899366419839634,177000,88500.0,10401.572440862656
7.469308801651001,-4.658205181121827,-31.763616554260253,0.18084182846546173,89000.0,0.34228552305698395,31.597782325744628,31.59780603027344,31.597878486633302,178.0,1000.0,142.22948496477014,25.909312661547744,178000,89000.0,10440.168603420258
7.462878667831421,-4.653458137512207,-31.88465227508545,0.18144179803133012,89500.0,0.35379619991779326,31.715422439575196,31.715462455749513,31.715720924377443,179.0,1000.0,137.08734365218538,25.867301873203335,179000,89500.0,10478.82744884491
7.456441711425781,-4.647760257720948,-31.99479236602783,0.18159905833005904,90000.0,0.34973291659355166,31.825108673095702,31.824943450927734,31.825794898986818,180.0,1000.0,133.2711853136234,25.730822007173238,180000,90000.0,10517.69134569168
7.449997804641724,-4.641014200210571,-32.13127220153809,0.18312936395406723,90500.0,0.3502053235769272,31.95787328338623,31.95791943359375,31.95828377532959,181.0,1000.0,71.10710239854825,10.695459701744118,181000,90500.0,10611.188964128494
7.443546991348267,-4.634856624603271,-32.24540979766846,0.18252208721637725,91000.0,0.3500389859676361,32.075186065673826,32.07522403717041,32.07508033752441,182.0,1000.0,149.6380917516939,25.928892267629408,182000,91000.0,10649.755980968475
7.437089223861694,-4.629212940216065,-32.36844758605957,0.1830318969488144,91500.0,0.35096603631973267,32.19408759307861,32.19414666748047,32.19462335205078,183.0,1000.0,154.929744007498,25.853230371707248,183000,91500.0,10688.435868024826
7.43062448310852,-4.6234226875305175,-32.47360285949707,0.18292902398109437,92000.0,0.354659360408783,32.30548739624023,32.30538341522217,32.30560824584961,184.0,1000.0,151.91656595333743,25.961329125938658,184000,92000.0,10726.954697847366
7.424152791976929,-4.616503938674927,-32.60127345275879,0.18442245709896088,92500.0,0.34606495666503906,32.43118992614746,32.43122361755371,32.43129675292969,185.0,1000.0,165.7575711707441,25.83264803353335,185000,92500.0,10765.665403366089
7.417674076080322,-4.611520185470581,-32.694238418579104,0.18498334062099456,93000.0,0.3549028391838074,32.52845722961426,32.52843830871582,32.52874234008789,186.0,1000.0,136.20912278708036,25.56645121086652,186000,93000.0,10804.779163599014
7.4111884059906,-4.604890844345093,-32.802071640014645,0.18594721287488938,93500.0,0.3626775571107864,32.630733489990234,32.63060675048828,32.63148590087891,187.0,1000.0,155.91813976303416,25.793754801847598,187000,93500.0,10843.548238515854
7.404695671081543,-4.599627571105957,-32.91213383483887,0.18646937161684035,94000.0,0.3688165016174316,32.743892852783205,32.74392631530762,32.7441402130127,188.0,1000.0,148.02386982182182,25.809202140009894,188000,94000.0,10882.29410982132
7.39819595336914,-4.5930271797180175,-33.03340773010254,0.1866820952296257,94500.0,0.36982205033302307,32.85604933166504,32.8560152130127,32.85585873413086,189.0,1000.0,153.8989266968201,25.68188876515519,189000,94500.0,10921.232056379318
7.391689126968384,-4.586794216156006,-33.1425383605957,0.18805359661579132,95000.0,0.3784722902774811,32.96882704162598,32.968767150878904,32.969437957763674,190.0,1000.0,143.46837545484834,25.72847229350185,190000,95000.0,10960.09950375557
7.385175279617309,-4.580978681564331,-33.283838790893554,0.18848813247680665,95500.0,0.38371956086158754,33.107957092285154,33.10787504577637,33.10801448059082,191.0,1000.0,128.30173287043644,10.647645200481339,191000,95500.0,11054.016984939575
7.37865432548523,-4.576191143035889,-33.386273513793945,0.18832043159008027,96000.0,0.3837896173000336,33.21141847229004,33.2115228729248,33.21181321716308,192.0,1000.0,163.15788860026467,25.920075917946967,192000,96000.0,11092.597119569778
7.372126314163208,-4.570614030838013,-33.488857177734374,0.18924065226316453,96500.0,0.37826474916934966,33.318080642700195,33.31814086914063,33.31828901672363,193.0,1000.0,161.13203130462844,25.81297150954222,193000,96500.0,11131.3373336792
7.365591150283813,-4.561604322433472,-33.59896110534668,0.19005722892284393,97000.0,0.38630942940711976,33.424604431152346,33.42463050842285,33.42457719421387,194.0,1000.0,140.62657928342767,25.84408781886976,194000,97000.0,11170.030903577805
7.3590488986969,-4.556945003509521,-33.71477537536621,0.19054660522937775,97500.0,0.38947564554214475,33.539678131103514,33.53961738586426,33.54021682739258,195.0,1000.0,143.1337448558367,25.676380178803498,195000,97500.0,11208.977204084396
7.35249948310852,-4.551362977981567,-33.82440316772461,0.1906893754005432,98000.0,0.38894607293605804,33.64165058898926,33.64166146850586,33.64209922790528,196.0,1000.0,156.01681671933622,25.755092216780238,196000,98000.0,11247.804478168488
7.34594289970398,-4.544026145935058,-33.96974664306641,0.1914818373322487,98500.0,0.3947007751464844,33.788289916992184,33.788220977783205,33.78827914428711,197.0,1000.0,146.9333110484022,25.795826916568824,197000,98500.0,11286.570439577103
7.339379173278808,-4.539100954055786,-34.100793655395506,0.1922664431333542,99000.0,0.39802419209480283,33.91799148559571,33.918017578125,33.918350708007814,198.0,1000.0,149.46110304188153,25.695492851402836,198000,99000.0,11325.487771511078
7.332808238983154,-4.533702669143676,-34.203495086669925,0.1927847807407379,99500.0,0.3994544621706009,34.02466494750976,34.02471641540527,34.02500225830078,199.0,1000.0,163.32648267863476,25.729138162598133,199000,99500.0,11364.354212760925
7.326230108261108,-4.526309576034546,-34.31807814025879,0.19335741478204727,100000.0,0.4016466077566147,34.139650299072265,34.1396669921875,34.13973210144043,200.0,1000.0,161.5907575332557,25.651776382138507,200000,100000.0,11403.33786869049
7.319644752502441,-4.519059650421142,-34.434222091674805,0.1934406770467758,100500.0,0.404593371629715,34.25187269592285,34.25174284362793,34.25223210144043,201.0,1000.0,177.0517568120237,10.603083623945428,201000,100500.0,11497.650056123734
7.313052169799804,-4.513000379562378,-34.56406292724609,0.19459939795732498,101000.0,0.40491836321353913,34.38292387390137,34.38295327758789,34.38305668640137,202.0,1000.0,157.09153329058208,25.660130280388245,202000,101000.0,11536.621020317078
7.306452320098877,-4.506509960174561,-34.66710504150391,0.19534662234783173,101500.0,0.4143814216852188,34.48611688232422,34.4861106262207,34.48676091003418,203.0,1000.0,157.26972784797331,25.50866313647248,203000,101500.0,11575.823389291763
7.299845218658447,-4.500848220825195,-34.785430969238284,0.19573280429840087,102000.0,0.4088295127153397,34.607293502807615,34.607217178344726,34.607537353515625,204.0,1000.0,154.2702774347161,24.46585686272347,204000,102000.0,11616.696677446365
7.293230850219727,-4.495178382873535,-34.88413557434082,0.1961152029633522,102500.0,0.4067842607498169,34.70477561950683,34.704865737915036,34.705059951782225,205.0,1000.0,163.17947141564593,24.382123639030837,205000,102500.0,11657.71033334732
7.286609146118164,-4.489293180465698,-34.99058155822754,0.19739726239442826,103000.0,0.4135133397579193,34.813302108764645,34.81316094970703,34.81334922790527,206.0,1000.0,155.45239679081402,24.655128612791735,206000,103000.0,11698.269847154617
7.2799801368713375,-4.482638231277466,-35.10700657653808,0.1978614005446434,103500.0,0.41346218073368074,34.924601989746094,34.92462980651855,34.92535234069824,207.0,1000.0,148.82130116782884,24.51443501288975,207000,103500.0,11739.062140464783
7.273343818664551,-4.476932361602783,-35.21320477294922,0.1975468671321869,104000.0,0.42104890632629394,35.03424835205078,35.03421855163574,35.033954666137696,208.0,1000.0,140.95583231402549,24.481686597541092,208000,104000.0,11779.909000873566
7.266700094223022,-4.470788402557373,-35.325249053955076,0.19865973591804503,104500.0,0.41438642942905424,35.145401077270506,35.145514572143554,35.14585287475586,209.0,1000.0,133.22962233348537,24.666672665279577,209000,104500.0,11820.449532747269
7.260049053192139,-4.465946016311645,-35.445804595947266,0.19842878198623656,105000.0,0.42331274127960206,35.25983334350586,35.25975225830078,35.26008345031738,210.0,1000.0,159.93677184636294,24.52122088565271,210000,105000.0,11861.23053765297
7.253390625,-4.461296674728394,-35.55896026611328,0.19928558319807052,105500.0,0.42313111925125124,35.375843475341796,35.37577825927735,35.37616926574707,211.0,1000.0,170.06772990116565,10.028132083879747,211000,105500.0,11960.950007200241
7.24672479057312,-4.454325048446655,-35.687897735595705,0.19913671493530274,106000.0,0.42430175352096555,35.50380296325684,35.50380696105957,35.50425082397461,212.0,1000.0,158.18629967335167,24.63493716255695,212000,106000.0,12001.54276418686
7.240051555633545,-4.448623559951782,-35.79246267700195,0.2009027310013771,106500.0,0.43149242746829986,35.60615309143066,35.606180114746095,35.606588256835934,213.0,1000.0,140.297668380051,24.376491037595805,213000,106500.0,12042.56589770317
7.233370901107788,-4.4402811832427975,-35.924623794555664,0.20089155733585357,107000.0,0.42364299154281615,35.73424688720703,35.73417488098144,35.73439562988281,214.0,1000.0,172.25700332735275,24.517484808561665,214000,107000.0,12083.35311627388
7.2266827583312985,-4.436278825759888,-36.01620721435547,0.20153937393426896,107500.0,0.43051915419101716,35.8297509765625,35.82980247497559,35.82981756591797,215.0,1000.0,147.93594748111093,24.467510865669194,215000,107500.0,12124.223641633987
7.219987161636353,-4.430211233139038,-36.133431930541995,0.2023592764735222,108000.0,0.4314359118938446,35.949465393066404,35.94937176513672,35.94962480163574,216.0,1000.0,192.65034919716484,24.512186734867868,216000,108000.0,12165.01967716217
7.213284093856812,-4.4240383052825925,-36.246568405151365,0.20240923649072648,108500.0,0.4320045472383499,36.06251809692383,36.06269049072266,36.06304608154297,217.0,1000.0,168.04685228219563,24.540615164992754,217000,108500.0,12205.768452167511
7.2065735492706295,-4.416908767700195,-36.35289836120605,0.20261600095033647,109000.0,0.4304893593788147,36.161909042358396,36.161841979980466,36.16197337341308,218.0,1000.0,176.09986812403736,24.594446507384934,218000,109000.0,12246.428039073944
7.19985544013977,-4.411084615707398,-36.46182354736328,0.20402713936567307,109500.0,0.4457692984342575,36.274853515625,36.27479322814941,36.27535917663574,219.0,1000.0,173.61008443420656,24.617957172953805,219000,109500.0,12287.04879450798
7.193129877090454,-4.403429515838623,-36.56151048278809,0.20501889646053315,110000.0,0.44749190533161165,36.37947836303711,36.37945068359375,36.37999871826172,220.0,1000.0,174.04777770350685,24.552887820009634,220000,110000.0,12327.777202129364
7.18639670753479,-4.398955839157105,-36.67508151245117,0.20502195912599563,110500.0,0.45139389765262605,36.49049731445312,36.49050936889648,36.49031640625,221.0,1000.0,188.9115425337687,10.000402347539938,221000,110500.0,12427.773179769516
7.179655982971191,-4.393270845413208,-36.79160935974121,0.2049689902663231,111000.0,0.4468010138273239,36.602940933227536,36.602855789184574,36.60295979309082,222.0,1000.0,146.45644729161458,24.7095848902685,222000,111000.0,12468.24330663681
7.172907695770264,-4.385971538543701,-36.9201455078125,0.20708571076393129,111500.0,0.44496309792995453,36.731657821655276,36.73177394104004,36.73208676147461,223.0,1000.0,143.21005079149182,24.69070685135468,223000,111500.0,12508.744375944138
7.166151777267456,-4.379468196868896,-37.03853221130371,0.20688916397094725,112000.0,0.449535347700119,36.84492190551758,36.844975280761716,36.84534643554687,224.0,1000.0,162.34311189702763,24.674109899379577,224000,112000.0,12549.272688150406
7.159388277053833,-4.375456909179688,-37.14128817749023,0.20687555885314943,112500.0,0.44706054055690764,36.95335760498047,36.953251068115236,36.95388426208496,225.0,1000.0,178.45872101020439,24.81513986787647,225000,112500.0,12589.570668458939
7.152617126464844,-4.369152235031128,-37.245264862060544,0.20769984978437422,113000.0,0.4546925562620163,37.056369277954104,37.05628234863281,37.05637628173828,226.0,1000.0,158.0661100753483,25.85043205612734,226000,113000.0,12628.254742383957
7.145838346481323,-4.362993579864502,-37.3568143157959,0.20936343282461167,113500.0,0.4585189189910889,37.16728582763672,37.167492141723635,37.167946975708006,227.0,1000.0,160.53127424152422,25.874121344535098,227000,113500.0,12666.90339922905
7.139051866531372,-4.355804319381714,-37.45471173095703,0.20926132780313492,114000.0,0.45306994450092314,37.26629820251465,37.266059829711914,37.26623356628418,228.0,1000.0,183.11227561422706,25.86633292429583,228000,114000.0,12705.563692569733
7.1322577209472655,-4.349164333343506,-37.568156692504886,0.2101379945874214,114500.0,0.4571775072813034,37.378435775756834,37.37847019958496,37.37883255004883,229.0,1000.0,161.04710559678315,25.789344377915068,229000,114500.0,12744.339398622513
7.125455867767334,-4.339166622161866,-37.696783935546875,0.21058118855953217,115000.0,0.44865764951705933,37.506743377685545,37.50676457214355,37.50723181152344,230.0,1000.0,155.98248727045302,25.8246450947955,230000,115000.0,12783.062100172043
7.118646291732788,-4.334342601776123,-37.77401014709473,0.21091824501752854,115500.0,0.46798713052272795,37.583128967285155,37.58309063720703,37.58338278198242,231.0,1000.0,186.6623798492257,10.644602781036172,231000,115500.0,12877.006423473358
7.111828985214234,-4.329475540161133,-37.88301316833496,0.2115323007106781,116000.0,0.47609976220130923,37.69418504333496,37.6941153717041,37.694498641967776,232.0,1000.0,195.79359383397957,25.96196419579728,232000,116000.0,12915.524311304092
7.105003932952881,-4.323405494689942,-38.01271073913574,0.21305840784311295,116500.0,0.4641257618665695,37.823295623779295,37.823442047119144,37.82349523925781,233.0,1000.0,173.0196640939096,25.855105496040725,233000,116500.0,12954.20139336586
7.098171104431152,-4.318721546173096,-38.08997415161133,0.21228997427225113,117000.0,0.4656358038187027,37.90068591308594,37.900614364624026,37.90106394958496,234.0,1000.0,166.7756622670767,25.74149068650581,234000,117000.0,12993.049183130264
7.091330471038819,-4.310775056838989,-38.19089930725097,0.21338590073585512,117500.0,0.46961930656433104,37.99893717956543,37.99890200805664,37.999070388793946,235.0,1000.0,177.15268083460714,25.791962473828036,235000,117500.0,13031.820952415466
7.084482036590576,-4.304270561218262,-38.28102827453613,0.21304500806331633,118000.0,0.4751987169981003,38.08733316040039,38.08732566833496,38.08763613891602,236.0,1000.0,175.9472808916723,25.818923321699717,236000,118000.0,13070.552235126495
7.077625772476196,-4.297531566619873,-38.38979002380371,0.21412591576576234,118500.0,0.46604246425628665,38.19638920593262,38.19659114074707,38.19660958862305,237.0,1000.0,169.86720816702868,25.697681303423288,237000,118500.0,13109.466252565384
7.070761770248413,-4.292181877136231,-38.51600309753418,0.21569752472639084,119000.0,0.4683273352384567,38.32382926940918,38.32360656738281,38.32434820556641,238.0,1000.0,170.77883719647429,25.588109900006668,238000,119000.0,13148.546905040741
7.063889713287353,-4.283569576263428,-38.60778750610351,0.21567115080356597,119500.0,0.4756987540721893,38.416776504516605,38.416722137451174,38.41663827514648,239.0,1000.0,173.59310216806998,25.69218577046665,239000,119500.0,13187.4692466259
7.057009860992432,-4.2779516563415525,-38.70985629272461,0.21630448043346406,120000.0,0.4840707484483719,38.518086807250974,38.51806893920899,38.51885710144043,240.0,1000.0,200.66586521692926,25.333855661777022,240000,120000.0,13226.94211769104
7.050122144699096,-4.271911336898803,-38.82559585571289,0.21719335800409317,120500.0,0.48731250631809236,38.6335001373291,38.63355107116699,38.63314398193359,241.0,1000.0,181.36044978628487,10.571974798067421,241000,120500.0,13321.531826257706
7.043226488113404,-4.265061370849609,-38.92700372314453,0.21668571585416793,121000.0,0.49076480650901794,38.73388919067383,38.73384429931641,38.73435401916504,242.0,1000.0,141.11659057885095,25.615702907427448,242000,121000.0,13360.570380926132
7.036322883605957,-4.259862957000732,-39.016736892700195,0.21738658046722412,121500.0,0.4903500728607178,38.82036083984375,38.820497756958005,38.82116154479981,243.0,1000.0,151.74970755739756,25.477867803784072,243000,121500.0,13399.820134878159
7.029411354064941,-4.253625236511231,-39.1206904296875,0.21795500123500824,122000.0,0.490566260099411,38.92441683959961,38.92436592102051,38.92431829833984,244.0,1000.0,179.678685661371,25.411296617095207,244000,122000.0,13439.172712564468
7.022491828918457,-4.246899131774902,-39.219770141601565,0.21796070635318757,122500.0,0.4869335894584656,39.02418388366699,39.02419691467285,39.02453861999512,245.0,1000.0,148.0674789889492,25.326470103785955,245000,122500.0,13478.657094478607
7.015564323425293,-4.238678237915039,-39.31832501220703,0.21872090089321136,123000.0,0.4923405747413635,39.12218649291992,39.12214949035644,39.12285536193848,246.0,1000.0,157.09640742564923,25.24373408993404,246000,123000.0,13518.27088713646
7.008628841400147,-4.2334016437530515,-39.40460040283203,0.21872187447547914,123500.0,0.487095144033432,39.209331115722655,39.209295013427734,39.20919850158691,247.0,1000.0,165.11915490815286,24.971706737337787,247000,123500.0,13558.316208839417
7.001685276031494,-4.225347742080689,-39.520324203491214,0.21992412716150284,124000.0,0.49173133850097656,39.327534591674805,39.32753419494629,39.32783087158203,248.0,1000.0,175.06663443511616,24.714429526217067,248000,124000.0,13598.778402328491
6.994733688354493,-4.219912162780762,-39.5930174407959,0.22012026864290238,124500.0,0.48876559925079344,39.397534942626955,39.39742724609375,39.39791871643067,249.0,1000.0,147.09766981924963,24.639460470407816,249000,124500.0,13639.36370754242
6.987774080276489,-4.2151807556152345,-39.71289598083496,0.2212634153366089,125000.0,0.48629334354400633,39.51817750549316,39.51826245117188,39.51831301879883,250.0,1000.0,174.05805525795458,24.790314935640726,250000,125000.0,13679.702043533325
6.980806343078613,-4.207775777816773,-39.80347018432617,0.22128821325302123,125500.0,0.4980036363601685,39.609017211914065,39.60897627258301,39.60879623413086,251.0,1000.0,148.09519286877313,9.77040165038589,251000,125500.0,13782.051981687546
6.973830501556397,-4.202193651199341,-39.902524642944336,0.22126952475309372,126000.0,0.4928783059120178,39.708991500854495,39.70898747253418,39.709743713378906,252.0,1000.0,155.56463734313508,24.782911609348087,252000,126000.0,13822.40236711502
6.9668465557098385,-4.196505819320679,-39.99481129455567,0.2223086392879486,126500.0,0.49959350025653837,39.796147277832034,39.79616703796387,39.79613473510742,253.0,1000.0,152.07571079677226,24.741687834888893,253000,126500.0,13862.819982528687
6.959854467391968,-4.193086847305298,-40.098944091796874,0.22223955953121186,127000.0,0.5026846536397934,39.902539108276365,39.90257968139648,39.90333319091797,254.0,1000.0,182.15331097417197,25.086103573863518,254000,127000.0,13902.682690620422
6.952854221343994,-4.185494262695313,-40.203853515625,0.22234853833913804,127500.0,0.5124128737449646,40.004865829467775,40.00474346923828,40.00441870117187,255.0,1000.0,168.75738006644863,25.105804407001532,255000,127500.0,13942.514117956161
6.945845792770386,-4.179946792602539,-40.29691732788086,0.2236450178027153,128000.0,0.5178006389141083,40.09973341369629,40.0997428894043,40.100295791625975,256.0,1000.0,205.27727350108103,24.927132053434715,256000,128000.0,13982.631048202515
6.93882918548584,-4.172083864212036,-40.388330505371094,0.22427449148893355,128500.0,0.5083540548086166,40.192944091796875,40.19302914428711,40.192913665771485,257.0,1000.0,182.0007479385025,24.753622957468785,257000,128500.0,14023.02917599678
6.9318043403625484,-4.167243793487549,-40.48147047424317,0.22499855321645737,129000.0,0.5016978571414947,40.28493571472168,40.28500634765625,40.28559483337402,258.0,1000.0,177.52615904209225,24.548897106600084,258000,129000.0,14063.764204740524
6.924771284103394,-4.160584127426147,-40.57409130859375,0.2243350712656975,129500.0,0.5063186552524567,40.37735737609863,40.377139221191406,40.37743591308594,259.0,1000.0,165.05359424913684,24.526139938291816,259000,129500.0,14104.537030220032
6.917729961395263,-4.1542294216156,-40.66541743469238,0.22574231654405594,130000.0,0.5139377073049546,40.46947918701172,40.46951686096192,40.46965489196777,260.0,1000.0,183.72759847361874,24.497791804456515,260000,130000.0,14145.357036828995
6.910680360794068,-4.146325244903564,-40.72821708679199,0.22524842250347138,130500.0,0.5225734474658966,40.532366989135745,40.53225148010254,40.5332364654541,261.0,1000.0,215.16427424411592,9.951071159082785,261000,130500.0,14245.848732233047
6.903622482299805,-4.1410372333526615,-40.83378898620605,0.22618511396646498,131000.0,0.5112002201080322,40.63526194763183,40.635479415893556,40.635348236083985,262.0,1000.0,188.08800297835168,24.432490517775957,262000,131000.0,14286.777839183807
6.896556285858154,-4.1319805488586425,-40.931693405151364,0.22712400275468828,131500.0,0.5139048997163772,40.73234629821777,40.73219299316406,40.7329172668457,263.0,1000.0,154.59005692313332,24.52741727033667,263000,131500.0,14327.548542022705
6.8894817276000975,-4.126389106750488,-41.00432899475098,0.2282398079633713,132000.0,0.5162851268053055,40.807647872924804,40.80779414367676,40.80750648498535,264.0,1000.0,163.47391514885388,24.520889444650233,264000,132000.0,14368.330097675323
6.882398866653443,-4.12003394317627,-41.09103117370606,0.22766580933332442,132500.0,0.5139088085889816,40.89632725524903,40.89617909240722,40.89681069946289,265.0,1000.0,167.08113552140205,24.52607167232535,265000,132500.0,14409.103037118912
6.875307611465454,-4.112611644744873,-41.19111019897461,0.22903465169668197,133000.0,0.5278693342208862,40.99353742980957,40.99354669189453,40.99352873229981,266.0,1000.0,176.27005344093286,24.44203672932469,266000,133000.0,14450.016158819199
6.868207983016967,-4.104231916427612,-41.25380822753906,0.2290750439763069,133500.0,0.5379938778877258,41.05512315368652,41.05515481567383,41.05526794433594,267.0,1000.0,207.52154975038962,24.49491255815704,267000,133500.0,14490.840963602066
6.861099908828735,-4.100099838256836,-41.34725807189941,0.22997176188230514,134000.0,0.5312795808315277,41.147029876708984,41.14705938720703,41.14700979614258,268.0,1000.0,181.70268980245112,24.642361060131538,268000,134000.0,14531.421491861343
6.853983438491821,-4.092031820297241,-41.45283572387695,0.23025393283367157,134500.0,0.5359664670228959,41.24975675964355,41.24967660522461,41.250357955932614,269.0,1000.0,149.8156107076827,24.850076590928463,269000,134500.0,14571.66281747818
6.846858509063721,-4.0875726146698,-41.56222248840332,0.23020470821857453,135000.0,0.5455082827806472,41.3590239868164,41.3591725769043,41.35951937866211,270.0,1000.0,172.1948295616971,25.15388395436454,270000,135000.0,14611.418110370636
6.8397251262664795,-4.0817738552093505,-41.64415190124512,0.23021765023469926,135500.0,0.5367637248039245,41.44454357910156,41.44448374938965,41.44521104431152,271.0,1000.0,176.70162855519717,10.767960959980043,271000,135500.0,14704.286204338074
6.832583164215088,-4.07569495010376,-41.708010208129885,0.23086582607030867,136000.0,0.5387181289196015,41.50965196228027,41.50947700500488,41.5090122833252,272.0,1000.0,181.0956520200629,26.000730546496737,272000,136000.0,14742.746663093567
6.825432779312134,-4.071163579940796,-41.82166453552246,0.2317134168148041,136500.0,0.5435407122373581,41.6169069519043,41.616955917358396,41.61812507629394,273.0,1000.0,212.02288283615846,25.838786884312544,273000,136500.0,14781.448171138763
6.81827384185791,-4.062079162597656,-41.89741111755371,0.2320279848575592,137000.0,0.5531494522094726,41.694663360595705,41.69477278137207,41.69426817321777,274.0,1000.0,158.09968348121055,26.046797162674782,274000,137000.0,14819.840608358383
6.811106363296509,-4.05732320022583,-41.99643190002441,0.23297638350725175,137500.0,0.5433749375343323,41.795571426391604,41.79546942138672,41.79576625061035,275.0,1000.0,164.8141457399453,25.875863011462307,275000,137500.0,14858.486663341522
6.803930301666259,-4.048882373809814,-42.061408721923826,0.2334315044283867,138000.0,0.550360710144043,41.861547958374025,41.86161277770996,41.86194944763184,276.0,1000.0,177.80994425820896,25.78683477808554,276000,138000.0,14897.266142845154
6.796745635986328,-4.042985118865967,-42.149675354003904,0.23340903294086457,138500.0,0.53183937728405,41.95148031616211,41.95155987548828,41.95150527954102,277.0,1000.0,180.98959029639542,25.919079947014712,277000,138500.0,14935.8477602005
6.789552400588989,-4.035975440979004,-42.23358779907227,0.23398417067527771,139000.0,0.5394317489862442,42.03282063293457,42.032771530151365,42.03313249206543,278.0,1000.0,171.1681753513042,25.8483186634728,278000,139000.0,14974.534997463226
6.78235046005249,-4.029645383834839,-42.29792771911621,0.23426262748241425,139500.0,0.5453593045473099,42.099063690185545,42.09907774353027,42.09953486633301,279.0,1000.0,171.06055850630324,25.73457909446592,279000,139500.0,15013.39322090149
6.775139909744262,-4.022456615447998,-42.37723628234863,0.23451647663116454,140000.0,0.5408425958156585,42.17647964477539,42.17654928588867,42.17678102111817,280.0,1000.0,182.50425604009672,25.878681525530872,280000,140000.0,15052.035067081451
6.767920598983765,-4.016131696701049,-42.45707699584961,0.23536987167596818,140500.0,0.5537347602844238,42.25335234069824,42.253284591674806,42.25356024169922,281.0,1000.0,194.62632990984807,10.718764858861796,281000,140500.0,15145.329399347305
6.760692733764649,-4.0113748264312745,-42.54104286193848,0.23665898352861403,141000.0,0.5520118508338928,42.34618589782715,42.3461594543457,42.34649049377441,282.0,1000.0,196.16505927670724,25.747497771996123,282000,141000.0,15184.168126106262
6.753456081390381,-4.004573931694031,-42.62454582214355,0.2356986174583435,141500.0,0.5506675281524658,42.42121614074707,42.421132385253905,42.42155227661133,283.0,1000.0,184.11892123445108,25.984885574860417,283000,141500.0,15222.652036905289
6.746210721969605,-3.9982498435974123,-42.702064849853514,0.2364650559425354,142000.0,0.5520495245456696,42.50418305969238,42.504185806274414,42.50430331420898,284.0,1000.0,179.02977838750303,25.66437663890336,284000,142000.0,15261.61655330658
6.738956548690796,-3.990166851043701,-42.789127044677734,0.23760601776838303,142500.0,0.5512038850784302,42.59040954589844,42.59050199890137,42.590878479003905,285.0,1000.0,200.82945161854835,25.92980066621528,285000,142500.0,15300.182218790054
6.731693609237671,-3.9843392372131348,-42.854508819580076,0.2373247939944267,143000.0,0.5535355154275894,42.6548927154541,42.65501547241211,42.65531394958496,286.0,1000.0,202.09590073312765,25.7288496519177,286000,143000.0,15339.049095630646
6.724421880722046,-3.9743260736465453,-42.924815414428714,0.23812361150979997,143500.0,0.5505572973489762,42.72612515258789,42.7258977355957,42.726089599609374,287.0,1000.0,166.13018107831925,25.528476326890637,287000,143500.0,15378.221039295197
6.717141317367553,-3.969805443763733,-43.01685209655762,0.23886023736000062,144000.0,0.5568211724758149,42.81262397766113,42.8127119140625,42.81256016540527,288.0,1000.0,160.8626156351,25.917491165025307,288000,144000.0,15416.805022001266
6.709851961135865,-3.96468790435791,-43.07647395324707,0.23811327344179153,144500.0,0.5607373367547989,42.874275344848634,42.87420251464844,42.87479183959961,289.0,1000.0,178.6457083119344,22.87009662280812,289000,144500.0,15460.530242443085
6.702553674697876,-3.957232732772827,-43.151039108276365,0.23977102321386337,145000.0,0.5705113279819488,42.946536483764646,42.94656399536133,42.9469037322998,290.0,1000.0,187.4709752086486,25.774054309321233,290000,145000.0,15499.328951120377
6.6952465019226075,-3.9504156179428103,-43.223642120361326,0.23827477478981018,145500.0,0.575961699128151,43.021573089599606,43.0215941619873,43.021889556884766,291.0,1000.0,153.25448830840574,10.67710631750233,291000,145500.0,15592.98728775978
6.687930433273316,-3.9443966789245604,-43.30395446777344,0.24018313056230545,146000.0,0.5682046111822129,43.10274391174316,43.10246630859375,43.10296855163574,292.0,1000.0,210.8186528539579,22.841418818294173,292000,146000.0,15636.767406225204
6.680605459213257,-3.9389436168670655,-43.364704467773436,0.24045212864875792,146500.0,0.5584888098239899,43.161550506591794,43.161765243530276,43.16178823852539,293.0,1000.0,201.47858220471804,25.681255215629392,293000,146500.0,15675.706314086914
6.673271511077881,-3.932210045814514,-43.47178576660156,0.24186939960718154,147000.0,0.5673406989574432,43.268611740112306,43.26864979553223,43.26867356872559,294.0,1000.0,185.60883326055693,25.738405510766366,294000,147000.0,15714.558760881424
6.665928564071655,-3.925865316390991,-43.52934265136719,0.24072211706638336,147500.0,0.5839972121715545,43.32482601928711,43.324774765014645,43.32482424926758,295.0,1000.0,207.1356776403961,25.56938462591419,295000,147500.0,15753.668032884598
6.658576627731323,-3.9177879457473757,-43.60860263061524,0.2419883499145508,148000.0,0.5886727169752121,43.404932907104495,43.40494909667969,43.405968490600586,296.0,1000.0,184.44565408633676,22.89025237135432,296000,148000.0,15797.354751586914
6.651215705871582,-3.9106948347091675,-43.69593406677246,0.24270953577756882,148500.0,0.5732254856824874,43.49535194396972,43.49553469848633,43.49590579223633,297.0,1000.0,220.71218089005586,25.782601688548265,297000,148500.0,15836.140597581863
6.643845706939698,-3.9030213165283203,-43.77195344543457,0.24436966371536256,149000.0,0.5833453240394593,43.57394546508789,43.5736954498291,43.57321907043457,298.0,1000.0,192.87449506770346,25.661340533862443,298000,149000.0,15875.1097240448
6.636466667175293,-3.895500671386719,-43.82838403320312,0.24405626440048217,149500.0,0.5762255009412766,43.62428372192383,43.624337966918944,43.624819473266605,299.0,1000.0,206.67668102531167,20.705406966303663,299000,149500.0,15923.406289100647
6.629078535079956,-3.8901318197250365,-43.91231275939941,0.2438778983950615,150000.0,0.5869348750114441,43.707340057373045,43.707347854614255,43.70765203857422,300.0,1000.0,249.46139142365783,20.71163373377005,300000,150000.0,15971.688333511353
6.621681262969971,-3.8838573179244995,-43.986844268798826,0.24361033886671066,150500.0,0.5753465191125869,43.778336883544924,43.7782186126709,43.77894917297363,301.0,1000.0,220.7217023886588,9.680847104957817,301000,150500.0,16074.985080003738
6.614274909973145,-3.8752508850097658,-44.093868545532224,0.24629540634155273,151000.0,0.5822017325162887,43.890330841064454,43.890489471435544,43.890368896484375,302.0,1000.0,208.02260348041133,23.005259096051542,302000,151000.0,16118.453402519226
6.606859405517578,-3.8688960914611816,-44.17383219909668,0.24576355427503585,151500.0,0.577083531498909,43.96664065551758,43.96669552612305,43.966567825317384,303.0,1000.0,181.452561853074,20.663383696278196,303000,151500.0,16166.848187685013
6.599434671401977,-3.8648138055801393,-44.24637719726562,0.24690845316648483,152000.0,0.569954882144928,44.04201748657226,44.041918899536135,44.042446228027345,304.0,1000.0,219.03702245948296,22.87775419005371,304000,152000.0,16210.558772325516
6.592000831604004,-3.8552628593444824,-44.32364585876465,0.2473043954372406,152500.0,0.5928261653184891,44.12043768310547,44.12041110229492,44.12086224365235,305.0,1000.0,208.4897693136087,20.70481690542961,305000,152500.0,16258.856713056564
6.584557643890381,-3.8494140329360964,-44.40394342041016,0.24773414158821105,153000.0,0.589636387705803,44.20132504272461,44.20128483581543,44.20170104980469,306.0,1000.0,192.9993162674052,22.922835043779003,306000,153000.0,16302.481335639954
6.577105270385742,-3.845327820777893,-44.45353326416016,0.24770716172456742,153500.0,0.6067776083946228,44.24942765808105,44.24952391052246,44.24982638549805,307.0,1000.0,195.55407471655252,20.506931970040302,307000,153500.0,16351.245334863663
6.569643632888794,-3.8373756275177002,-44.552534103393555,0.24781887817382814,154000.0,0.5937210216522216,44.35004066467285,44.35002261352539,44.34964192199707,308.0,1000.0,181.25375490162367,22.794931350789778,308000,154000.0,16395.11473751068
6.562172714233398,-3.8319706535339355,-44.64331604003906,0.2495691466331482,154500.0,0.6105625733137131,44.43234100341797,44.4322765045166,44.432614791870115,309.0,1000.0,207.4593040056837,20.541075799705197,309000,154500.0,16443.79768061638
6.554692438125611,-3.8250905323028563,-44.72568923950195,0.2498939067721367,155000.0,0.6070029917955398,44.5162511138916,44.51626986694336,44.51657284545898,310.0,1000.0,180.47070837998416,22.945573461294195,310000,155000.0,16487.37907218933
6.547202898025513,-3.8158743667602537,-44.7997292175293,0.25098299062252044,155500.0,0.6148770688772202,44.591690856933596,44.59162763977051,44.59165057373047,311.0,1000.0,252.19665799132983,9.28278050196917,311000,155500.0,16595.105416297913
6.5397039299011235,-3.810776385307312,-44.891092224121095,0.251788016974926,156000.0,0.6276338073015213,44.68142289733887,44.68154458618164,44.68208093261719,312.0,1000.0,187.99584177663817,22.96433276182716,312000,156000.0,16638.651206731796
6.532195657730102,-3.8022240648269654,-44.987227844238284,0.25153070175647735,156500.0,0.6164065949916839,44.777486404418944,44.77749270629883,44.77801918029785,313.0,1000.0,209.57623887857721,22.789321015748676,313000,156500.0,16682.53140926361
6.524677875518798,-3.796685110092163,-45.07460481262207,0.2522000533342361,157000.0,0.6102846066951751,44.866193893432616,44.866108520507815,44.86638153076172,314.0,1000.0,206.48487736113313,25.711217808405053,314000,157000.0,16721.424939393997
6.517150714874267,-3.791434958457947,-45.14919320678711,0.2525396563410759,157500.0,0.6126498908996582,44.93982354736328,44.94005726623535,44.93995036315918,315.0,1000.0,177.42670959546325,25.587100877782586,315000,157500.0,16760.50713276863
6.5096141052246095,-3.7846764163970947,-45.234645233154296,0.25287288427352905,158000.0,0.6154885044097901,45.025173767089846,45.02496699523926,45.0259243927002,316.0,1000.0,209.5864714816517,23.08780220659135,316000,158000.0,16803.820048332214
6.5020680103302,-3.778510682106018,-45.30882162475586,0.25306027120351793,158500.0,0.6235309253931045,45.10310397338867,45.102968231201174,45.103019393920896,317.0,1000.0,216.62876057416474,25.63206871546327,317000,158500.0,16842.83367729187
6.494512393951416,-3.7701248216629026,-45.374879501342775,0.25382566154003144,159000.0,0.6240199806690216,45.16746598815918,45.16765028381348,45.16752949523926,318.0,1000.0,229.07668377842114,25.883955874596175,318000,159000.0,16881.46764922142
6.486947269439697,-3.7615375661849977,-45.482197036743166,0.2557021465301514,159500.0,0.625078622341156,45.27280369567871,45.2726410369873,45.27302514648437,319.0,1000.0,192.6748159130314,25.62267960582957,319000,159500.0,16920.495574712753
6.4793725624084475,-3.7542771434783937,-45.56693814086914,0.255082144677639,160000.0,0.6249495837688446,45.35149691772461,45.3516774597168,45.351689865112306,320.0,1000.0,229.2544140927127,25.969114249790383,320000,160000.0,16959.00285744667
6.471788341522217,-3.7468611717224123,-45.64872082519531,0.25506613111495974,160500.0,0.6208173108100891,45.431474609375,45.43120606994629,45.4323045501709,321.0,1000.0,230.68162337059758,9.237665849178544,321000,160500.0,17067.25531244278
6.464194480895996,-3.7397734661102295,-45.734368591308595,0.25516687554121015,161000.0,0.614729153752327,45.51893728637695,45.51905070495606,45.518582595825194,322.0,1000.0,209.62992251600903,25.82527095081497,322000,161000.0,17105.977075576782
6.4565910091400145,-3.733734082221985,-45.8598419342041,0.2571236433982849,161500.0,0.6138452569246292,45.64770143127441,45.6478480682373,45.648050231933595,323.0,1000.0,213.93524725420318,25.770326855084974,323000,161500.0,17144.78139615059
6.448977891921997,-3.7253557043075562,-45.91730598449707,0.2568252238035202,162000.0,0.6174908114671707,45.70747569274902,45.70739398193359,45.70762985229492,324.0,1000.0,236.97486728285546,25.66961771413077,324000,162000.0,17183.737956762314
6.44135510635376,-3.718619010925293,-45.99793550109863,0.2568822913169861,162500.0,0.6245211176872253,45.78394297790528,45.7839727935791,45.78420880126953,325.0,1000.0,213.49531305295548,25.76394907233256,325000,162500.0,17222.55188369751
6.433722570419311,-3.713816044807434,-46.095799697875975,0.25826543605327607,163000.0,0.6223379909992218,45.88208444213867,45.88188160705566,45.88238809204102,326.0,1000.0,215.13068188335913,25.564466888942352,326000,163000.0,17261.668678998947
6.426080379486084,-3.7050239973068235,-46.17284884643555,0.2586906870007515,163500.0,0.6317303998470306,45.96121395874023,45.961205078125,45.96131622314453,327.0,1000.0,233.57536237392782,25.20107319469674,327000,163500.0,17301.349529743195
6.418428407669067,-3.7007662534713743,-46.26675817871094,0.2597641994357109,164000.0,0.6343013210296631,46.05245838928223,46.05244779968262,46.0533639831543,328.0,1000.0,244.22105325062978,24.267286651479942,328000,164000.0,17342.557269096375
6.410766681671142,-3.692201726913452,-46.37468438720703,0.26116072738170626,164500.0,0.6386160907745362,46.156555206298826,46.15668392944336,46.15664877319336,329.0,1000.0,238.67453480244868,24.541775966150485,329000,164500.0,17383.304117679596
6.403095123291016,-3.686592077255249,-46.47313673400879,0.26139315629005433,165000.0,0.6301444272994995,46.25364779663086,46.25374220275879,46.253758514404296,330.0,1000.0,228.86608700253572,24.741959593421264,330000,165000.0,17423.721289157867
6.395413812637329,-3.6787027654647826,-46.55524089050293,0.2608660113811493,165500.0,0.6346431019306182,46.33774627685547,46.3378106842041,46.33844970703125,331.0,1000.0,261.3843232984412,9.102937103055307,331000,165500.0,17533.57594394684
6.387722602844239,-3.6733311309814454,-46.64940724182129,0.26250583386421206,166000.0,0.6488097602128983,46.43269519042969,46.432609954833985,46.43299072265625,332.0,1000.0,201.0136173675003,24.215195013162955,332000,166000.0,17574.872329473495
6.380021556854248,-3.66449093914032,-46.73330232238769,0.2621548678874969,166500.0,0.6536038513183594,46.514670211791994,46.5145015411377,46.514593643188476,333.0,1000.0,270.7726966446613,24.422182417195994,333000,166500.0,17615.81871175766
6.372310598373413,-3.659124807357788,-46.85810810852051,0.2637878282666206,167000.0,0.6533033630847931,46.63945451354981,46.63939469909668,46.639275451660154,334.0,1000.0,213.32511301190792,24.40294570031218,334000,167000.0,17656.797372579575
6.364589702606201,-3.651761293411255,-46.931085845947266,0.2635617378950119,167500.0,0.6557520904541015,46.71083479309082,46.710946228027346,46.71179335021973,335.0,1000.0,219.44238880174805,24.499868286244872,335000,167500.0,17697.613919258118
6.356858871459961,-3.644863699913025,-47.03723793029785,0.26433982110023496,168000.0,0.6598441233634948,46.814019348144534,46.81408840942383,46.81386888122559,336.0,1000.0,206.03514306920405,24.585714862755914,336000,168000.0,17738.28794646263
6.349118061065674,-3.642090482711792,-47.14522688293457,0.2653598919510841,168500.0,0.6706658592224121,46.921159332275394,46.921050140380856,46.921484832763674,337.0,1000.0,239.5366635651414,24.08435496080277,337000,168500.0,17779.808676958084
6.341367254257202,-3.6295684175491334,-47.28513134765625,0.26560328364372254,169000.0,0.67410742020607,47.05813833618164,47.058225311279294,47.058160919189454,338.0,1000.0,257.65447203828063,24.42321343313074,338000,169000.0,17820.75333094597
6.333606424331665,-3.62378928565979,-47.3716142578125,0.26602112263441086,169500.0,0.6809411115646362,47.14671592712402,47.14665896606445,47.14723587036133,339.0,1000.0,203.41867794875446,24.510503052890897,339000,169500.0,17861.552168369293
6.325835525512695,-3.6161400995254516,-47.484048461914064,0.26715331810712817,170000.0,0.6836334276199341,47.25782781982422,47.257730056762696,47.2581494140625,340.0,1000.0,223.0429920531341,24.569119111078955,340000,170000.0,17902.253669261932
6.318054567337036,-3.6092332124710085,-47.57067919921875,0.2675268809199333,170500.0,0.6727648930549621,47.34664886474609,47.34672625732422,47.34672537231445,341.0,1000.0,224.55839788693703,9.088264714569736,341000,170500.0,18012.285676717758
6.310263523101806,-3.6000394344329836,-47.66080725097656,0.26774817311763766,171000.0,0.6722745218276978,47.43863272094727,47.4386216583252,47.439284347534176,342.0,1000.0,242.6668243963606,21.855441475015528,342000,171000.0,18058.04087305069
6.302462324142456,-3.5946152009963988,-47.79468566894531,0.2695518138408661,171500.0,0.684432219028473,47.5705518951416,47.57065644836426,47.57107658386231,343.0,1000.0,227.94736522629415,24.53768550636066,343000,171500.0,18098.79451394081
6.294650943756103,-3.5882956285476686,-47.87961962890625,0.26857976484298707,172000.0,0.6713741199970246,47.65630413818359,47.65625796508789,47.65628414916992,344.0,1000.0,227.15521502446705,24.54370609140405,344000,172000.0,18139.53815793991
6.286829442977905,-3.5834632110595703,-47.978677322387696,0.26899823570251463,172500.0,0.6943270788192749,47.75039268493652,47.75029565429688,47.75101844787598,345.0,1000.0,239.1109355110674,24.445239216541992,345000,172500.0,18180.445920467377
6.278997674942016,-3.5752619667053223,-48.096144104003905,0.26950586450099945,173000.0,0.6956689105033874,47.864910552978515,47.8647875213623,47.86500082397461,346.0,1000.0,248.75632135441052,24.247754360510154,346000,173000.0,18221.686854600906
6.271155696868896,-3.5690127048492433,-48.21746893310547,0.2716023331284523,173500.0,0.6968489744663239,47.98796565246582,47.98815498352051,47.98833023071289,347.0,1000.0,227.55838924276722,24.475435169443603,347000,173500.0,18262.544147729874
6.263303430557251,-3.5600928745269775,-48.31011361694336,0.2713181691169739,174000.0,0.7064524612426758,48.07512646484375,48.075015899658204,48.07510260009766,348.0,1000.0,229.08835615779043,25.253256937311665,348000,174000.0,18302.143001556396
6.255440832138062,-3.5547943687438965,-48.4482996673584,0.27176133209466935,174500.0,0.7021534950733185,48.21485905456543,48.21480955505371,48.21508924865723,349.0,1000.0,257.81890967656386,25.835585406039133,349000,174500.0,18340.849305152893
6.2475680751800535,-3.5463493757247924,-48.5524267578125,0.27166260117292407,175000.0,0.7026839389801025,48.31656115722656,48.31674757385254,48.31711842346191,350.0,1000.0,213.35502139844255,25.671928091983798,350000,175000.0,18379.802360534668
6.2396848697662355,-3.540134386062622,-48.680751708984374,0.2726363642215729,175500.0,0.7171559813022613,48.44564993286133,48.44549174499512,48.446147872924804,351.0,1000.0,223.43064586331909,9.574352864427679,351000,175500.0,18484.248062849045
6.231791315078735,-3.5336218223571776,-48.79783856201172,0.2736176325678825,176000.0,0.7101424295902252,48.56432466125488,48.564415161132814,48.56387406921387,352.0,1000.0,229.41835324653792,22.629989317627942,352000,176000.0,18528.437214374542
6.223887348175049,-3.524872783660889,-48.91971453857422,0.27430253601074217,176500.0,0.7288507633209228,48.68476808166504,48.684789596557614,48.68537216186523,353.0,1000.0,238.55497733421475,20.330652200331365,353000,176500.0,18577.62402868271
6.215972948074341,-3.5180396671295164,-49.01452124023437,0.2740489685535431,177000.0,0.7135772619247437,48.77671492004394,48.7766383972168,48.77730291748047,354.0,1000.0,230.2549618801572,25.312812820892766,354000,177000.0,18617.129714488983
6.208048124313354,-3.514137783050537,-49.12007221984863,0.27514789295196534,177500.0,0.7315075485706329,48.885009490966794,48.885000411987306,48.88520741271973,355.0,1000.0,219.59645397095912,25.24709647381111,355000,177500.0,18656.73823094368
6.200112819671631,-3.50318097782135,-49.24830586242676,0.27629708367586137,178000.0,0.7428784673213958,49.01368609619141,49.013771865844724,49.013664520263674,356.0,1000.0,234.34317992116894,25.04475843913748,356000,178000.0,18696.666746139526
6.192166965484619,-3.496513690948486,-49.35562184143066,0.2763178225159645,178500.0,0.7461897468566895,49.11931970214844,49.119267578125,49.11974963378906,357.0,1000.0,235.01808043810527,25.25130770650236,357000,178500.0,18736.268656730652
6.184210605621338,-3.4885196809768675,-49.47398851013184,0.27648754954338073,179000.0,0.7413354377746582,49.23438935852051,49.23431921386719,49.23432672119141,358.0,1000.0,245.42852354590465,25.045265708262455,358000,179000.0,18776.196363449097
6.176243667602539,-3.4831427516937254,-49.59190333557129,0.2768404973745346,179500.0,0.731947984457016,49.35264683532715,49.35277406311035,49.353367752075194,359.0,1000.0,234.7165279702041,25.342550682666385,359000,179500.0,18815.655692338943
6.168266147613525,-3.47471697807312,-49.6968023223877,0.2773962317705154,180000.0,0.7523820497989655,49.45726689147949,49.45732383728027,49.45777558898926,360.0,1000.0,208.99682035087997,25.024181278306365,360000,180000.0,18855.617040872574
6.160277988433838,-3.4651863832473753,-49.807172897338866,0.27734687030315397,180500.0,0.7426403474807739,49.56757284545898,49.567365829467775,49.56704931640625,361.0,1000.0,266.5293691202424,9.342429589703773,361000,180500.0,18962.65558028221
6.152279186248779,-3.458777666091919,-49.947560546875,0.2792418154478073,181000.0,0.7418342912197113,49.707129837036135,49.70723770141601,49.707740112304684,362.0,1000.0,227.43575004205113,22.791509062179664,362000,181000.0,19006.531569957733
6.144269695281983,-3.451377140045166,-50.0347108001709,0.27838789236545564,181500.0,0.744459418296814,49.792883056640626,49.792740768432616,49.793048538208005,363.0,1000.0,264.9900466674685,25.568806648914844,363000,181500.0,19045.64172577858
6.136249536514282,-3.443530249595642,-50.16457447814941,0.2794271297454834,182000.0,0.766787761926651,49.91657481384277,49.91667222595215,49.917317138671876,364.0,1000.0,210.34195687595223,25.957437912532598,364000,182000.0,19084.166330337524
6.128218656539917,-3.4367715539932253,-50.30936175537109,0.28081603837013247,182500.0,0.7527308466434479,50.06772096252441,50.067464675903324,50.067939849853516,365.0,1000.0,231.14912331566964,26.067667867264877,365000,182500.0,19122.528028726578
6.120176961898804,-3.4313213758468626,-50.42329370117187,0.2818799101114273,183000.0,0.7609412350654602,50.179154342651366,50.17940199279785,50.179212600708006,366.0,1000.0,253.67955856060686,25.707401204191065,366000,183000.0,19161.42733359337
6.112124481201172,-3.426457102775574,-50.535732955932616,0.2819578122496605,183500.0,0.7613058171272278,50.29098384094238,50.29098007202148,50.29181967163086,367.0,1000.0,237.31387108633683,25.869123993646674,367000,183500.0,19200.083455324173
6.10406120300293,-3.416413736343384,-50.67956022644043,0.2829452196359634,184000.0,0.7636043457984925,50.434494415283204,50.434459732055664,50.43447889709473,368.0,1000.0,279.6167632210191,25.626859714379105,368000,184000.0,19239.105014801025
6.095987066268921,-3.409381646156311,-50.77547439575196,0.28269349229335783,184500.0,0.7828859734535217,50.53180953979492,50.531774765014646,50.53187437438965,369.0,1000.0,260.62309812101074,24.341717717987642,369000,184500.0,19280.186750888824
6.087902021408081,-3.403738299369812,-50.9008303527832,0.28389755725860594,185000.0,0.7564654569625855,50.65595043945312,50.65603918457031,50.6566656036377,370.0,1000.0,205.0648642614191,25.13939681244644,370000,185000.0,19319.964953660965
6.079806089401245,-3.393434058189392,-51.01229286193848,0.28442440605163577,185500.0,0.7783278260231018,50.76767610168457,50.76751902770996,50.76727508544922,371.0,1000.0,269.991294251328,9.152634767677686,371000,185500.0,19429.22311067581
6.071699226379395,-3.3863384160995484,-51.112773864746096,0.2840420689582825,186000.0,0.7582056021690369,50.867856567382816,50.86795455932617,50.86874635314941,372.0,1000.0,250.4061762026277,21.737967474044577,372000,186000.0,19475.225572824478
6.063581396102905,-3.3792500782012937,-51.204009185791016,0.28399968254566194,186500.0,0.7770635659694671,50.96162791442871,50.96156491088867,50.96171766662598,373.0,1000.0,241.05842239347965,24.46602397979554,373000,186500.0,19516.098581552505
6.055452548980713,-3.371367296218872,-51.33435231018066,0.2863265959024429,187000.0,0.7798677639961242,51.0914100189209,51.09137289428711,51.091569595336914,374.0,1000.0,235.4937640734457,24.478255409794045,374000,187000.0,19556.95116710663
6.047312671661377,-3.3666089239120485,-51.41160243225097,0.2865772030353546,187500.0,0.7894110379219055,51.16676347351074,51.166768447875974,51.167085754394535,375.0,1000.0,238.14226179695527,24.486458711680033,375000,187500.0,19597.790066242218
6.039161714553833,-3.356656907081604,-51.5516086730957,0.28638015925884247,188000.0,0.7861938648223877,51.30232560729981,51.3022600402832,51.3024782409668,376.0,1000.0,244.93176613963143,24.425719378038607,376000,188000.0,19638.730520248413
6.030999753952027,-3.3504009952545166,-51.658171966552736,0.2876599671840668,188500.0,0.7808433532714844,51.411474822998045,51.4115778503418,51.41192678833008,377.0,1000.0,239.70907945935488,24.410016322855206,377000,188500.0,19679.697310209274
6.022826620101929,-3.3437025747299196,-51.77542744445801,0.2889839767217636,189000.0,0.7905261113643646,51.52680052185059,51.52675538635254,51.527065658569335,378.0,1000.0,230.99662926581576,24.34618866941429,378000,189000.0,19720.771502494812
6.014642364501953,-3.336393325805664,-51.89884024047851,0.2882063730955124,189500.0,0.7818073172569275,51.65002517700195,51.649902618408206,51.65081782531738,379.0,1000.0,236.28348792713422,24.379543873892285,379000,189500.0,19761.78949856758
6.006446855545044,-3.3295379695892335,-51.987829925537106,0.2883719797134399,190000.0,0.7964068336486816,51.74205816650391,51.74239106750488,51.742361831665036,380.0,1000.0,241.88427730312756,24.6698295283644,380000,190000.0,19802.324842453003
5.9982402153015135,-3.321477615356445,-52.118858276367185,0.2899461145401001,190500.0,0.7832590789794922,51.87216679382324,51.872002685546875,51.87221252441406,381.0,1000.0,258.57715673612796,9.228651747038239,381000,190500.0,19910.683033704758
5.990022302627564,-3.3147751731872557,-52.203336318969725,0.28972880566120146,191000.0,0.7857093434333802,51.955194793701175,51.95512551879883,51.955294586181644,382.0,1000.0,269.1794399843434,22.888524071797917,382000,191000.0,19954.373051166534
5.981793136596679,-3.306951121330261,-52.29984020996094,0.2897877142429352,191500.0,0.785994035243988,52.04806617736816,52.04802250671387,52.04829772949219,383.0,1000.0,255.92004294462996,22.867527036900825,383000,191500.0,19998.103186130524
5.97355265045166,-3.298024175643921,-52.41865124511719,0.29138215494155884,192000.0,0.7986433622837067,52.170430282592775,52.17047079467773,52.17082966613769,384.0,1000.0,238.4092246928956,25.676303158989118,384000,192000.0,20037.049603700638
5.965300838470459,-3.288265615463257,-52.532240951538085,0.2905855497121811,192500.0,0.8009714338779449,52.28119828796387,52.2811471862793,52.2815291595459,385.0,1000.0,241.5232967951345,25.954892923034492,385000,192500.0,20075.577985286713
5.957037656784058,-3.2809057550430296,-52.623776718139645,0.2921321052312851,193000.0,0.8203530516624451,52.37425259399414,52.374276229858395,52.375016754150394,386.0,1000.0,236.77545668837843,25.98835829479628,386000,193000.0,20114.056754350662
5.948763095855713,-3.2748767833709715,-52.74718257141113,0.29276986622810364,193500.0,0.8236692297458649,52.49729981994629,52.49711546325683,52.49721292114258,387.0,1000.0,229.30191988844294,25.833113576851108,387000,193500.0,20152.766761541367
5.940477111816406,-3.2675859117507935,-52.86386148071289,0.2932926197052002,194000.0,0.8259976925849914,52.607574920654294,52.607694290161135,52.60773867797852,388.0,1000.0,245.50389541319765,25.903131619112905,388000,194000.0,20191.372133255005
5.932179634094238,-3.261370099067688,-52.97422306823731,0.29347979867458346,194500.0,0.8287870624065399,52.721225357055665,52.72126139831543,52.721139450073245,389.0,1000.0,257.76829283122487,25.899403842517426,389000,194500.0,20229.98306131363
5.923870687484741,-3.255934838294983,-53.106514419555666,0.29421027946472167,195000.0,0.8399105033874512,52.84964842224121,52.84972619628906,52.85002822875977,390.0,1000.0,265.5100097457459,25.684145832974977,390000,195000.0,20268.917586565018
5.915550199508667,-3.2467675199508665,-53.192493743896485,0.2946373455524445,195500.0,0.8402178308963776,52.93720095825195,52.93693424987793,52.93758401489258,391.0,1000.0,253.11907922667945,9.259060254338413,391000,195500.0,20376.919909238815
5.907218183517456,-3.2369471549987794,-53.3396661529541,0.29502383470535276,196000.0,0.8505437717437744,53.08059794616699,53.08060557556152,53.080802200317386,392.0,1000.0,268.1080102904358,25.827234580143337,392000,196000.0,20415.638728380203
5.898874549865723,-3.2299939184188844,-53.4648796081543,0.2951782058477402,196500.0,0.834071464061737,53.20669204711914,53.206814010620114,53.207198501586916,393.0,1000.0,263.7616552344007,25.901270955621488,393000,196500.0,20454.246872901917
5.890519346237182,-3.2240982055664062,-53.571111236572264,0.2966060825586319,197000.0,0.8340712890625,53.315963912963866,53.316036987304685,53.316011825561525,394.0,1000.0,214.50511853570404,25.749320441254394,394000,197000.0,20493.082850456238
5.882152435302735,-3.215555953025818,-53.70636418151855,0.2967029037475586,197500.0,0.8314100124835968,53.44742269897461,53.447206146240234,53.448167297363284,395.0,1000.0,263.08942253062787,25.8986167096619,395000,197500.0,20531.694952249527
5.873773880004883,-3.2054140367507933,-53.78514874267578,0.2967927131652832,198000.0,0.8355417361259461,53.52491719055176,53.52518904113769,53.525286483764646,396.0,1000.0,248.3124362171997,25.377352301430456,396000,198000.0,20571.100167274475
5.86538360786438,-3.200184081077576,-53.908758209228516,0.29818158280849455,198500.0,0.8606447296142579,53.65073989868164,53.65032583618164,53.65035719299316,397.0,1000.0,244.60240841446074,25.992352208647564,397000,198500.0,20609.573023080826
5.856981569290161,-3.191218381881714,-54.01973466491699,0.2984517842531204,199000.0,0.8469580419063568,53.761590927124026,53.76179975891113,53.762238433837894,398.0,1000.0,232.54245619879995,25.763047034797612,398000,199000.0,20648.388308286667
5.848567735671997,-3.1841885032653807,-54.15131106567383,0.2991481498479843,199500.0,0.8555221650600433,53.89301252746582,53.89320802307129,53.89360798645019,399.0,1000.0,232.97547351237932,25.540330187689737,399000,199500.0,20687.542070627213
5.840142105102539,-3.1780104446411133,-54.25729734802246,0.2992469930648804,200000.0,0.8485828514099121,53.99621012878418,53.99602380371094,53.996895736694334,400.0,1000.0,257.22473931149244,25.714687916176143,400000,200000.0,20726.43035197258
5.83170461845398,-3.1710950956344606,-54.35982221984863,0.29976484370231626,200500.0,0.8481837525367737,54.0989130859375,54.09882754516602,54.098645065307615,401.0,1000.0,242.6990105811232,9.610752014150988,401000,200500.0,20830.480483531952
5.823255279541016,-3.1606882572174073,-54.476837615966794,0.2994417645931244,201000.0,0.8725142631530761,54.21408827209473,54.21418112182617,54.214291748046875,402.0,1000.0,230.65329627889588,25.755311887545894,402000,201000.0,20869.307426452637
5.814793998718262,-3.1513868465423585,-54.59924327087403,0.30091846227645874,201500.0,0.8693748428821564,54.33803550720215,54.33791862487793,54.33851921081543,403.0,1000.0,233.75104041716457,25.8777083710972,403000,201500.0,20907.950726270676
5.806320772171021,-3.1452648277282713,-54.68541996765137,0.3005736426115036,202000.0,0.8572123456001282,54.42937942504883,54.4293296661377,54.42987396240235,404.0,1000.0,253.9583800824758,25.98911079416966,404000,202000.0,20946.428380727768
5.797835563659668,-3.1401647186279296,-54.78179689025879,0.30113377475738523,202500.0,0.8643120310306549,54.51776545715332,54.51784114074707,54.517834228515625,405.0,1000.0,276.2012099654661,25.853119778783356,405000,202500.0,20985.108433008194
5.7893383502960205,-3.133300951004028,-54.914089416503906,0.3027618325948715,203000.0,0.8793930771350861,54.650974655151366,54.65097511291504,54.65112826538086,406.0,1000.0,266.27698990243493,25.404935250578443,406000,203000.0,21024.470865249634
5.780829048156738,-3.1261800079345705,-55.01670100402832,0.30288365972042086,203500.0,0.8669767973423004,54.75277813720703,54.75276329040528,54.75275212097168,407.0,1000.0,239.51978564620987,25.68827380813594,407000,203500.0,21063.39913392067
5.772307703018188,-3.1207593984603883,-55.133815795898435,0.30334144282341,204000.0,0.8985241634845733,54.86842037963867,54.86854934692383,54.86883642578125,408.0,1000.0,285.10246949430405,25.85679503016389,408000,204000.0,21102.073688030243
5.763774213790893,-3.1091504230499267,-55.2411258392334,0.3030750503540039,204500.0,0.8850696458816528,54.97671495056152,54.97668893432617,54.977192138671874,409.0,1000.0,280.6485802777413,25.72638053031243,409000,204500.0,21140.944294691086
5.755228582382202,-3.101787638664246,-55.363769256591794,0.30448870050907134,205000.0,0.8744905092716218,55.09774923706055,55.0976494140625,55.09838998413086,410.0,1000.0,221.04362403391346,25.782708667699733,410000,205000.0,21179.72998070717
5.746670783996582,-3.09597691822052,-55.489992858886716,0.3042154167890549,205500.0,0.8899782688617707,55.22348425292969,55.223561004638675,55.2230711517334,411.0,1000.0,265.2791907445954,9.63732029343233,411000,205500.0,21283.493265628815
5.738100742340088,-3.0863825674057006,-55.58344664001465,0.3055423607826233,206000.0,0.9033229165077209,55.318229431152346,55.31825236511231,55.31922079467773,412.0,1000.0,276.0897119160347,25.674518943572203,412000,206000.0,21322.442389965057
5.729518449783325,-3.079831686973572,-55.71851968383789,0.3060093013048172,206500.0,0.88642746925354,55.45149034118652,55.451424026489256,55.451502365112304,413.0,1000.0,258.3729437230636,25.746218848826718,413000,206500.0,21361.283045768738
5.720923818588257,-3.0741708192825317,-55.83886045837402,0.3062709645032883,207000.0,0.8787943270206452,55.570998626708985,55.57087310791016,55.571353500366214,414.0,1000.0,259.13737764427964,25.60861539844215,414000,207000.0,21400.33240532875
5.712316909790039,-3.065774666786194,-55.9576114654541,0.3070671105384827,207500.0,0.8930883328914643,55.69282792663574,55.693211975097654,55.6937544708252,415.0,1000.0,246.84152504091657,25.7057242045084,415000,207500.0,21439.23424720764
