cmpe-260-team-4/drqv2/src/main/tex/experiments/215829-walker-run-train-1e-2.csv
actor_ent,actor_logprob,actor_loss,batch_reward,buffer_size,critic_loss,critic_q1,critic_q2,critic_target_q,episode,episode_length,episode_reward,fps,frame,step,total_time
8.489292400360107,-5.604326435089112,0.09538333775103092,0.0499467945098877,2500.0,0.7698251042745542,-0.0652793891094625,-0.04463278384227306,-0.09092716028541327,5.0,1000.0,17.75835967072278,5.940451550169927,5000,2500.0,168.3373761177063
8.483867996215821,-5.598630397796631,0.07013035532087088,0.04789362686872482,3000.0,0.00194303387706168,-0.05015403615613468,-0.05019761512801051,-0.050071759596467015,6.0,1000.0,19.404929505198243,21.088378508012948,6000,3000.0,215.7568600177765
8.47843869781494,-5.593200836181641,0.007762689701456111,0.04666485999524593,3500.0,0.0016928932454902679,0.00917516886955127,0.009106840184947942,0.009177772146183998,7.0,1000.0,21.75363274709735,20.948801757701833,7000,3500.0,263.49228858947754
8.473004383087158,-5.588101434707641,-0.059033016431028956,0.04590081745386124,4000.0,0.0013816125013399868,0.07133849094621837,0.07126570831052959,0.07149717665463685,8.0,1000.0,23.349543814776833,20.909633861209148,8000,4000.0,311.3171353340149
8.46756530380249,-5.582585737228394,-0.150352002710104,0.04549981431663036,4500.0,0.0017423046247567982,0.1621876537501812,0.16220613977313042,0.1623112319111824,9.0,1000.0,27.22757962513333,21.269610615024078,9000,4500.0,358.3325719833374
8.46212124633789,-5.577506540298462,-0.23765340316295624,0.046270718485116956,5000.0,0.002689813002943993,0.2500215526819229,0.2499250186085701,0.25022370809316635,10.0,1000.0,26.483647303602883,21.27899768634815,10000,5000.0,405.32726860046387
8.456672191619873,-5.5720454044342045,-0.3418541201353073,0.04709808433055878,5500.0,0.0030787196918390693,0.3547848904132843,0.3545077934265137,0.3550684159994125,11.0,1000.0,25.86423965573358,7.673269127654045,11000,5500.0,535.649819612503
8.451218204498291,-5.566996387481689,-0.43077268481254577,0.04754869097471237,6000.0,0.002952021561097354,0.440817915558815,0.4408656401634216,0.44112432897090914,12.0,1000.0,21.968031160733634,20.915002538964096,12000,6000.0,583.4623899459839
8.445759254455567,-5.561857503890991,-0.5011586451530456,0.04731359376013279,6500.0,0.0037688115229830145,0.5118163456916809,0.5119454956054688,0.5123623919486999,13.0,1000.0,17.187184950934036,20.938200622585267,13000,6500.0,631.2219870090485
8.440295337677002,-5.556425037384034,-0.5608588572740555,0.046675912424921986,7000.0,0.004235353669151664,0.5746061030626297,0.5745839899778367,0.5750744185447693,14.0,1000.0,26.097657594998324,20.915711860984047,14000,7000.0,679.0329358577728
8.43482646560669,-5.551185401916504,-0.6423154797554016,0.04675796194374561,7500.0,0.005283735958859325,0.6528247849941253,0.6527365953922272,0.653397673368454,15.0,1000.0,25.90362407631328,20.94683656199789,15000,7500.0,726.7728433609009
8.429352561950683,-5.54600977897644,-0.7279682657718658,0.04691082987189293,8000.0,0.0043993462789803746,0.7383843636512757,0.7383632440567016,0.7386474874019623,16.0,1000.0,37.78378750201604,21.33342361149315,16000,8000.0,773.6476459503174
8.423873683929443,-5.540745859146118,-0.814649611234665,0.04888604937493801,8500.0,0.006462958429008722,0.8244982969760895,0.8246178441047668,0.8250831246376038,17.0,1000.0,26.996166813274183,21.130707125595315,17000,8500.0,820.9721403121948
8.4183897895813,-5.535372587203979,-0.8936527369022369,0.04941775727272034,9000.0,0.005215028284117579,0.903453024148941,0.9031734230518341,0.9036102561950684,18.0,1000.0,26.515223340474222,21.150831248105312,18000,9000.0,868.2516076564789
8.41290087890625,-5.530102088928222,-0.9791233863830566,0.04954037790000439,9500.0,0.006457653664983809,0.9895108828544616,0.9892571713924408,0.9896944215297699,19.0,1000.0,27.417218524221052,21.021725977935844,19000,9500.0,915.8214428424835
8.407406944274902,-5.5248883514404294,-1.0692486155033112,0.04983060479164123,10000.0,0.007551788694225251,1.0830818510055542,1.083153514623642,1.083685152053833,20.0,1000.0,26.050196047131045,21.201695464753758,20000,10000.0,962.9874837398529
8.401907958984374,-5.519325183868408,-1.1536353302001954,0.04983094018697739,10500.0,0.006322750701569021,1.1627920513153076,1.1626179780960082,1.1629457054138184,21.0,1000.0,26.83268218901824,7.683299035281328,21000,10500.0,1093.1399102210999
8.396403945922852,-5.51400754737854,-1.246407871723175,0.050131703749299046,11000.0,0.005336728087626397,1.2518923768997192,1.2518252863883972,1.2522135944366455,22.0,1000.0,27.665419802711774,21.09610526473193,22000,11000.0,1140.5420262813568
8.390894874572753,-5.508958229064941,-1.325076784133911,0.05033399863541126,11500.0,0.005761374610476196,1.3334458255767823,1.3333740077018739,1.3336980519294739,23.0,1000.0,25.093260179528425,21.001590181830295,23000,11500.0,1188.1574699878693
8.385380722045898,-5.503893846511841,-1.4112535614967345,0.05048302635550499,12000.0,0.006165335702709854,1.4165457754135131,1.4166182351112366,1.4169057927131652,24.0,1000.0,19.539496589028072,21.127009508228184,24000,12000.0,1235.4902474880219
8.37986151123047,-5.498086639404297,-1.4740646753311157,0.04984857012331486,12500.0,0.006021970289759338,1.4778393902778626,1.4778202266693115,1.4780356702804565,25.0,1000.0,27.96729518159446,21.091259721516185,25000,12500.0,1282.9032542705536
8.374337253570557,-5.492908349990845,-1.5448870615959167,0.04996338355541229,13000.0,0.006230864985845983,1.5522520833015443,1.552252564907074,1.5526500458717347,26.0,1000.0,26.487418031575764,20.760545009645753,26000,13000.0,1331.0715489387512
8.368807857513428,-5.487945795059204,-1.6227301149368285,0.050088934615254405,13500.0,0.00529533115029335,1.626732168197632,1.6267473812103272,1.626983648300171,27.0,1000.0,26.363789307749173,20.86276501382854,27000,13500.0,1379.0038378238678
8.36327338027954,-5.48199977684021,-1.6960355911254883,0.05020393548905849,14000.0,0.005638998438604176,1.7024791240692139,1.7024791860580444,1.702634681224823,28.0,1000.0,26.415347984310728,21.184622258842147,28000,14000.0,1426.2078909873962
8.357733833312988,-5.477106367111206,-1.7701773543357848,0.05032723657786846,14500.0,0.005369532037060708,1.7755333728790283,1.7755991101264954,1.775982355594635,29.0,1000.0,26.404617076188956,20.845112527766993,29000,14500.0,1474.180768251419
8.352189083099365,-5.471648950576782,-1.8418207206726074,0.05044300766289234,15000.0,0.005340051173698157,1.8500213785171509,1.8500654344558716,1.8502159428596496,30.0,1000.0,27.96582200150979,21.066408264091493,30000,15000.0,1521.6497070789337
8.34663924407959,-5.466141471862793,-1.9159460496902465,0.050636539131402966,15500.0,0.005627184269018471,1.9201846675872802,1.92012069606781,1.9204063186645508,31.0,1000.0,23.144257668049114,7.6449294042943015,31000,15500.0,1652.4553635120392
8.34108427810669,-5.460980655670166,-1.9708623504638672,0.050429113924503326,16000.0,0.00743454619590193,1.9756712226867676,1.9758627452850341,1.9762018632888794,32.0,1000.0,25.399344849422846,21.09160081089668,32000,16000.0,1699.8676035404205
8.335524158477783,-5.455423307418823,-2.0446152510643008,0.05038981175422669,16500.0,0.0061632786793634296,2.0481986980438234,2.0481953473091123,2.0482454776763914,33.0,1000.0,19.184023502880272,20.930643081980186,33000,16500.0,1747.6444454193115
8.329958869934082,-5.45003231048584,-2.0912187128067017,0.050271359577775,17000.0,0.0071740655433386565,2.0993113493919373,2.09929080581665,2.099505445957184,34.0,1000.0,29.70986691186964,20.727751383493185,34000,17000.0,1795.8889470100403
8.324388427734375,-5.444595531463623,-2.1524301524162293,0.050413184747099875,17500.0,0.007562584110535681,2.1605917172431948,2.160526274681091,2.1607509994506837,35.0,1000.0,24.143099727163005,21.04966836729035,35000,17500.0,1843.3956351280212
8.31881280899048,-5.439587985992431,-2.211082320213318,0.0502150989472866,18000.0,0.007760562196373939,2.215791784286499,2.2159814291000366,2.2162393226623536,36.0,1000.0,28.643143390067912,20.859663185119274,36000,18000.0,1891.3350489139557
8.313231998443603,-5.433534337997436,-2.2813943376541137,0.05057085748016834,18500.0,0.008512747764587403,2.284507761955261,2.2845264778137206,2.2847508850097658,37.0,1000.0,24.904889215385822,20.858516069003922,37000,18500.0,1939.2770998477936
8.307646003723145,-5.428483631134033,-2.340448886871338,0.05053516037762165,19000.0,0.008909863037988543,2.345481080055237,2.345435471534729,2.3455108919143677,38.0,1000.0,16.229962384345175,20.924117875640988,38000,19000.0,1987.0688412189484
8.302054790496825,-5.4231674861907955,-2.373791787147522,0.05002924899756908,19500.0,0.010807792311534286,2.380170889854431,2.380321108818054,2.380447947502136,39.0,1000.0,26.572222886665948,20.788297661196076,39000,19500.0,2035.1728298664093
8.29645837020874,-5.417896158218384,-2.4374229803085328,0.05013966931402683,20000.0,0.009691309116780757,2.4401960487365724,2.440293348312378,2.4406053428649903,40.0,1000.0,21.67829173087383,20.69788546798026,40000,20000.0,2083.4869453907013
8.29085671234131,-5.412087511062622,-2.479460502624512,0.04992380963265896,20500.0,0.010863869195804,2.4824519243240357,2.482388993263245,2.482409139633179,41.0,1000.0,26.387592124974972,7.668309039444828,41000,20500.0,2213.8937935829163
8.285249820709229,-5.407129119873047,-2.5419260997772217,0.049938826233148575,21000.0,0.010593567848205566,2.5470918970108034,2.547070288658142,2.547282864570618,42.0,1000.0,26.937449547665214,20.910720720308856,42000,21000.0,2261.7161543369293
8.279637683868408,-5.401634191513062,-2.597578451156616,0.05019315688312054,21500.0,0.011201020110398531,2.604205993652344,2.604293507575989,2.6042591981887817,43.0,1000.0,25.199238345959333,21.102674387478643,43000,21500.0,2309.1035146713257
8.274020317077637,-5.396247812271119,-2.6475046405792235,0.05006508475542069,22000.0,0.013223435513675212,2.6564206657409666,2.656433867454529,2.6566221342086793,44.0,1000.0,26.11983833185161,20.93307692754948,44000,22000.0,2356.874801635742
8.268397636413575,-5.390798215866089,-2.705804639816284,0.05014916957914829,22500.0,0.012386309698224067,2.710725390434265,2.710786971092224,2.710961672782898,45.0,1000.0,27.15016391069315,21.198709752221017,45000,22500.0,2404.0474853515625
8.26276974105835,-5.385432750701904,-2.7630096435546876,0.05041599766910076,23000.0,0.012269853131845594,2.7659602909088137,2.7659860820770263,2.7661068773269655,46.0,1000.0,25.146877783617104,20.93527162394672,46000,23000.0,2451.813764810562
8.25713653564453,-5.380110664367676,-2.7938772716522218,0.050137533441185954,23500.0,0.013793697657063604,2.8047478523254394,2.804846975326538,2.804929594039917,47.0,1000.0,24.98833366818107,20.913498739340007,47000,23500.0,2499.629773378372
8.251498027801514,-5.37471040725708,-2.843538890838623,0.05025151762366295,24000.0,0.0144296665340662,2.8485067462921143,2.848357012748718,2.84859503364563,48.0,1000.0,27.610777172559562,20.868493811191186,48000,24000.0,2547.548901319504
8.245854225158691,-5.3685255661010745,-2.894354480743408,0.05037864384055138,24500.0,0.01481988206319511,2.8998218193054197,2.899885422706604,2.8999357643127444,49.0,1000.0,19.47611228395626,20.949708420575003,49000,24500.0,2595.2822637557983
8.240205131530761,-5.363644123077393,-2.9313829259872435,0.05013954502344131,25000.0,0.016637967953458427,2.9347988023757936,2.9347844915390016,2.934838309288025,50.0,1000.0,26.684829137912743,21.703835404495344,50000,25000.0,2641.3570709228516
8.234550682067871,-5.358259683609009,-2.967736840248108,0.05014482334256172,25500.0,0.015665186125785113,2.973813519477844,2.9738335838317873,2.974022777557373,51.0,1000.0,26.889053082286527,11.847228012140727,51000,25500.0,2725.76500248909
8.228890895843506,-5.352828266143799,-3.013902250289917,0.05029631321132183,26000.0,0.01576962023228407,3.0195681419372558,3.019556573867798,3.019638672828674,52.0,1000.0,33.755507724422394,28.264640723556862,52000,26000.0,2761.144898414612
8.22322582244873,-5.347329500198364,-3.0535960702896117,0.05073231916129589,26500.0,0.017597049495205283,3.0662724027633668,3.066210162162781,3.0663906269073484,53.0,1000.0,26.425979749081623,28.130007821372775,53000,26500.0,2796.6941256523132
8.217555297851563,-5.341926940917968,-3.100668116569519,0.050589504659175874,27000.0,0.019533631779253484,3.110058842658997,3.110425079345703,3.110472520828247,54.0,1000.0,25.47757724469601,28.148831507837638,54000,27000.0,2832.219579935074
8.211879489898681,-5.336289772033691,-3.146927430152893,0.05060448694229126,27500.0,0.017591824939474462,3.1528284130096433,3.1526526803970336,3.1528191289901732,55.0,1000.0,28.73035904232831,27.988048834951453,55000,27500.0,2867.9491171836853
8.20619826889038,-5.330931535720826,-3.1883731451034545,0.05073016910254955,28000.0,0.019410630408674478,3.193786264419556,3.193870425224304,3.1940934648513792,56.0,1000.0,24.59450611686019,28.185825882282103,56000,28000.0,2903.427943944931
8.200511646270751,-5.325164144515991,-3.2172450313568115,0.050726608872413634,28500.0,0.01986385067179799,3.226740460395813,3.226774386405945,3.226863680839539,57.0,1000.0,24.849243010811104,28.098638124092414,57000,28500.0,2939.0168585777283
8.194819683074952,-5.319969295501709,-3.255755185127258,0.05097967001795769,29000.0,0.01862561699748039,3.2605298500061037,3.2605217275619505,3.2606558237075807,58.0,1000.0,35.22300777639064,28.18487413197434,58000,29000.0,2974.4968831539154
8.189122310638428,-5.314514427185059,-3.2981957721710207,0.05103515250980854,29500.0,0.018883675571531058,3.300887558937073,3.3008183183670043,3.3008225288391113,59.0,1000.0,24.106489667315532,28.066601889754494,59000,29500.0,3010.1264209747314
8.183419479370118,-5.309047945022583,-3.3240361118316653,0.05103629995882511,30000.0,0.02187889727205038,3.330574692726135,3.330632175445557,3.3308375301361086,60.0,1000.0,27.82313243110535,28.23003851189293,60000,30000.0,3045.5496826171875
8.177711238861084,-5.303565721511841,-3.3635222663879394,0.051073119804263115,30500.0,0.021545150224119423,3.36931551361084,3.3695539617538453,3.3695556859970095,61.0,1000.0,17.379588723880424,11.83400415903215,61000,30500.0,3130.0519359111786
8.17199758529663,-5.29802984046936,-3.3883021221160887,0.05097995238006115,31000.0,0.02138070710003376,3.3944353313446043,3.394229298591614,3.394513096809387,62.0,1000.0,26.70108838542175,28.09951572380218,62000,31000.0,3165.639740228653
8.166278625488282,-5.292617572784424,-3.4153773603439332,0.050754857674241066,31500.0,0.021176711197942497,3.423495923042297,3.4234268417358398,3.423462162017822,63.0,1000.0,26.496214575989704,28.148859278011674,63000,31500.0,3201.165159225464
8.160553882598878,-5.287153106689453,-3.4526867237091063,0.051137699991464614,32000.0,0.01916113103181124,3.4572612218856813,3.457294081687927,3.457394720077515,64.0,1000.0,26.787467667892802,28.016732699269916,64000,32000.0,3236.8581161499023
8.15482384109497,-5.281530818939209,-3.486595584869385,0.0508619771450758,32500.0,0.02033386640250683,3.490530191421509,3.4905764236450194,3.490631597518921,65.0,1000.0,25.969367231843513,28.091903589975487,65000,32500.0,3272.4555633068085
8.149088340759278,-5.276313398361206,-3.52456831741333,0.0511351188570261,33000.0,0.02211504302918911,3.530153645515442,3.5302990036010744,3.5303872756958006,66.0,1000.0,26.582826118183,27.994743563574545,66000,33000.0,3308.176556110382
8.143347312927245,-5.270694694519043,-3.5562874126434325,0.05099603271484375,33500.0,0.01954290182515979,3.5602207546234133,3.560144218444824,3.5604143505096437,67.0,1000.0,26.09336073153151,26.872923854297724,67000,33500.0,3345.3887345790863
8.137600788116455,-5.265224451065063,-3.5837883739471437,0.05100389072299004,34000.0,0.020732026029378174,3.59314617729187,3.593119065284729,3.593185057640076,68.0,1000.0,23.921242834009746,27.434739030032883,68000,34000.0,3381.8388736248016
8.131848793029786,-5.259472423553467,-3.6022795543670654,0.05081215399503708,34500.0,0.021332284409552812,3.6129762601852415,3.6130155000686646,3.613145793914795,69.0,1000.0,26.94628745656671,27.033688540609987,69000,34500.0,3418.829757452011
8.126091270446777,-5.253978977203369,-3.639446404457092,0.050851299971342086,35000.0,0.020340127166360616,3.651678147315979,3.6515354919433594,3.6518149156570434,70.0,1000.0,26.920870018899326,27.782916133376894,70000,35000.0,3454.8231003284454
8.120328189849854,-5.247928350448609,-3.6650944108963013,0.050817737981677054,35500.0,0.018965058367699385,3.6767165842056273,3.6767971696853636,3.6767916164398193,71.0,1000.0,20.91969227927154,11.75592487692286,71000,35500.0,3539.886593103409
8.114559574127197,-5.242328161239624,-3.679819306373596,0.05092572325468064,36000.0,0.020505941912531852,3.689924832344055,3.689914439201355,3.6901173915863037,72.0,1000.0,25.92828177960431,26.132584431319728,72000,36000.0,3578.1529960632324
8.108785442352294,-5.237435548782349,-3.7053150749206543,0.05073693126440048,36500.0,0.01931467666476965,3.716881390571594,3.716883321762085,3.7170970373153684,73.0,1000.0,27.522416059124357,28.001629931911967,73000,36500.0,3613.8652045726776
8.1030057182312,-5.231519540786743,-3.7343214874267576,0.050937566444277764,37000.0,0.019695913005620243,3.74436114692688,3.7443941926956175,3.7444644470214845,74.0,1000.0,20.251146763892674,27.981536699858854,74000,37000.0,3649.603057384491
8.097220439910888,-5.226174201965332,-3.740415775299072,0.050808016136288645,37500.0,0.019048211596906187,3.7471948547363283,3.747297985076904,3.7473670196533204,75.0,1000.0,33.32953293543903,28.151169683911252,75000,37500.0,3685.1255609989166
8.091429496765137,-5.220637437820435,-3.7682540893554686,0.050833731800317764,38000.0,0.020536219984292985,3.7822275400161742,3.7819315690994264,3.7823321437835693,76.0,1000.0,25.798965759206542,28.08722980020967,76000,38000.0,3720.7289311885834
8.085633083343506,-5.214956485748291,-3.7965677947998047,0.050896783709526064,38500.0,0.018537591729313137,3.803932138442993,3.8040210990905763,3.8040580320358277,77.0,1000.0,25.21665934492371,28.1846398502648,77000,38500.0,3756.20925116539
8.079831024169922,-5.209294322967529,-3.827644245147705,0.051019177377223966,39000.0,0.017463166795670986,3.83591561794281,3.8360693492889406,3.836177145957947,78.0,1000.0,21.90101816173915,28.05652140484514,78000,39000.0,3791.851589679718
8.07402332687378,-5.203888851165772,-3.840391731262207,0.05086424967646599,39500.0,0.018780142519623042,3.8493223772048952,3.849243197441101,3.8493061809539797,79.0,1000.0,27.150144340664433,27.92428717870656,79000,39500.0,3827.662710905075
8.068209991455078,-5.198095500946045,-3.854346528053284,0.05097798848152161,40000.0,0.018300497967749834,3.8642912769317626,3.8642469596862794,3.864384328842163,80.0,1000.0,26.641541501878063,28.28951877195588,80000,40000.0,3863.011492729187
8.062391048431396,-5.192674667358398,-3.8820547609329226,0.051012834310531614,40500.0,0.018191314592957496,3.8900981092453004,3.890041953086853,3.8901730737686155,81.0,1000.0,26.609458141262646,11.86586093107129,81000,40500.0,3947.286879301071
8.056566444396973,-5.187080312728882,-3.9122631235122682,0.05103053367137909,41000.0,0.01802426998689771,3.9213447122573855,3.9214205226898193,3.921553246498108,82.0,1000.0,26.911200267859485,28.1767364035805,82000,41000.0,3982.7771515846252
8.050736190795899,-5.1813297996521,-3.935793296813965,0.051030809253454205,41500.0,0.016697727171704174,3.9409911479949953,3.941051065444946,3.941065092086792,83.0,1000.0,26.784029575274033,28.36589920491021,83000,41500.0,4018.0307507514954
8.044900241851806,-5.175774431228637,-3.956504723548889,0.051078342646360395,42000.0,0.01806800651177764,3.9601900186538694,3.9602172145843504,3.9602642860412596,84.0,1000.0,17.694362354072986,28.223138678781147,84000,42000.0,4053.462672472
8.039058628082275,-5.17053098487854,-3.9513195343017578,0.05102362884581089,42500.0,0.01982420898973942,3.960446124076843,3.960876188278198,3.9609383001327516,85.0,1000.0,25.042457515267103,28.293207144252282,85000,42500.0,4088.8068463802338
8.033211318969727,-5.164837045669556,-3.9713536348342897,0.050968698367476466,43000.0,0.019430301032960416,3.982473850250244,3.9822052850723266,3.9824184169769286,86.0,1000.0,25.846890856294216,28.348174155746584,86000,43000.0,4124.082487821579
8.027358306884766,-5.158917062759399,-3.9895381288528444,0.05084630623459816,43500.0,0.017536525903269647,3.995323729515076,3.995284382820129,3.995345627784729,87.0,1000.0,25.444796125018403,28.14960191435097,87000,43500.0,4159.606970071793
8.021499576568603,-5.153089204788208,-4.022123337745667,0.05103845123946667,44000.0,0.017823588121682405,4.025122221946717,4.025101552963257,4.025186593055725,88.0,1000.0,26.685707351545023,28.166685238274262,88000,44000.0,4195.109906435013
8.01563514328003,-5.147786703109741,-4.0453567914962765,0.05101889070868492,44500.0,0.017564053444191815,4.049438677787781,4.049437403678894,4.049580298423767,89.0,1000.0,25.749171946688403,28.37425771922085,89000,44500.0,4230.353120565414
8.0097649269104,-5.142210195541382,-4.058031332015991,0.0509162861853838,45000.0,0.018360600391402842,4.066040140151977,4.0661251916885375,4.066142154693604,90.0,1000.0,28.199848924772883,28.22770792367622,90000,45000.0,4265.77930688858
8.003889003753661,-5.136405488967895,-4.076404999732971,0.05104603298008442,45500.0,0.017289589267224074,4.087151819229126,4.087285713195801,4.087326110839844,91.0,1000.0,26.026378220126738,11.874025158057965,91000,45500.0,4349.996747493744
7.99800729560852,-5.130482564926147,-4.096384894371033,0.05106829725205898,46000.0,0.01703541640006006,4.1037762079238895,4.103747190475464,4.103954821586609,92.0,1000.0,22.353613338691478,28.247218303565802,92000,46000.0,4385.398464679718
7.992119817733765,-5.125057849884033,-4.101126910209656,0.05081513820588589,46500.0,0.018209908179938793,4.1069477853775025,4.106895930290222,4.106866806983947,93.0,1000.0,34.381363252942236,28.246041746267053,93000,46500.0,4420.801656961441
7.986226564407349,-5.119598369598389,-4.131907855987548,0.05117084424197674,47000.0,0.01711719873175025,4.135677487373352,4.135674745559692,4.135758162498474,94.0,1000.0,25.42054118985966,28.278669337065505,94000,47000.0,4456.164000511169
7.980327486038208,-5.114016178131103,-4.151743113517761,0.05120203875005245,47500.0,0.017045897105708717,4.154702265739441,4.1547343540191655,4.154900994300842,95.0,1000.0,27.00683431938553,28.403556544727675,95000,47500.0,4491.370860338211
7.974422647476196,-5.108243192672729,-4.1674930877685545,0.0511335598230362,48000.0,0.0179438504204154,4.172089912414551,4.172124717712403,4.172180429458618,96.0,1000.0,26.602154580211362,28.389258894916985,96000,48000.0,4526.595451116562
7.968511985778808,-5.102461170196533,-4.1740998287200926,0.051119948551058766,48500.0,0.017190899390727283,4.184664178848267,4.184720088005066,4.184798438072205,97.0,1000.0,22.823597370706292,28.31352721536398,97000,48500.0,4561.914258956909
7.962595483779907,-5.0971844787597655,-4.187057898521424,0.05102429266273975,49000.0,0.016715843915939332,4.194529626846314,4.194511082649231,4.1946683025360105,98.0,1000.0,26.548880891027068,28.121468079093425,98000,49000.0,4597.474281311035
7.956673133850098,-5.09122442817688,-4.207460849761963,0.05118348751962185,49500.0,0.017123118184506892,4.213118322372437,4.213134334564209,4.213096324920654,99.0,1000.0,26.69484195141798,28.179597771645827,99000,49500.0,4632.96094918251
7.950744972229004,-5.085524740219117,-4.224992786407471,0.05110367745161057,50000.0,0.01653907829709351,4.228293478965759,4.228253519058227,4.2284230699539185,100.0,1000.0,33.48580817944408,28.408959831815974,100000,50000.0,4668.161112546921
7.944810894012451,-5.079754320144653,-4.250123434066772,0.051372679367661475,50500.0,0.01690299728512764,4.253708442687988,4.253729196548462,4.253819318771362,101.0,1000.0,22.10086046053177,11.85667265893129,101000,50500.0,4752.5018084049225
7.938870977401733,-5.074035497665405,-4.255774133682251,0.05133362294733524,51000.0,0.017855924712494017,4.262699759483337,4.262579906463623,4.262661609649658,102.0,1000.0,25.59882150625199,28.152470434145073,102000,51000.0,4788.022671699524
7.932925138473511,-5.068512416839599,-4.263992128372192,0.05123582938313484,51500.0,0.01857370694540441,4.27203691291809,4.272270104408264,4.272370216369629,103.0,1000.0,26.262620068503704,28.137164005464466,103000,51500.0,4823.562856912613
7.926973432540893,-5.062524864196777,-4.282593588829041,0.05130577525496483,52000.0,0.016942434471100568,4.287734836578369,4.28758388710022,4.287711494445801,104.0,1000.0,27.051898224820444,28.08739362461439,104000,52000.0,4859.166019201279
7.921015825271606,-5.05672406578064,-4.2980452728271485,0.05128210209310055,52500.0,0.016673171192407608,4.302075561523438,4.302107276916504,4.302155652999878,105.0,1000.0,34.394420381319485,28.21519047280422,105000,52500.0,4894.607921600342
7.915052270889282,-5.051008676528931,-4.321114501953125,0.05147719232738018,53000.0,0.01704731641896069,4.3265613803863525,4.3265881290435795,4.326748653411865,106.0,1000.0,24.84023153353187,28.202167180133262,106000,53000.0,4930.066191196442
7.909082818984985,-5.045489030838013,-4.329722240447998,0.05152036198973656,53500.0,0.017488641561940313,4.335786510467529,4.335757530212402,4.335880863189697,107.0,1000.0,23.776732559048273,28.21448460823738,107000,53500.0,4965.508981466293
7.90310735321045,-5.03947479057312,-4.336742355346679,0.051460798755288126,54000.0,0.018852147590368986,4.341249294281006,4.341312498092651,4.341270589828492,108.0,1000.0,27.129292003813372,28.14449417709538,108000,54000.0,5001.039910793304
7.897125984191894,-5.033838226318359,-4.3548413887023925,0.0513249234110117,54500.0,0.016988654036074878,4.360737823486328,4.360690519332886,4.36078493309021,109.0,1000.0,17.60646210135086,27.993860912044365,109000,54500.0,5036.762030363083
7.891138631820679,-5.028030061721802,-4.356292196273804,0.0513264537602663,55000.0,0.01897340469248593,4.359082620620727,4.359084623336792,4.35900931930542,110.0,1000.0,24.500062260384475,28.118265810643507,110000,55000.0,5072.326102256775
7.885145311355591,-5.022335554122924,-4.368835195541382,0.05134221854805946,55500.0,0.020373105324804783,4.3750363540649415,4.374966957092285,4.375234367370606,111.0,1000.0,26.46965886658059,11.809084038362776,111000,55500.0,5157.006676435471
7.879145978927612,-5.016252922058105,-4.380208009719849,0.05146457694470882,56000.0,0.019171725472435355,4.386347494125366,4.386440999984742,4.386380403518677,112.0,1000.0,21.017943639145344,28.21866792647989,112000,56000.0,5192.44421172142
7.873140642166137,-5.010731842041015,-4.378353073120117,0.05114036926627159,56500.0,0.01908380753546953,4.3850680103302,4.384971542358398,4.385103965759277,113.0,1000.0,27.14182931009748,27.970875159787216,113000,56500.0,5228.195686101913
7.867129318237304,-5.005486391067505,-4.391034400939941,0.05122387731075287,57000.0,0.016736701585352422,4.3975900974273685,4.397627561569214,4.3976194858551025,114.0,1000.0,26.01043819937898,28.073935362126313,114000,57000.0,5263.81591629982
7.861111942291259,-4.999534845352173,-4.405781744003296,0.05131659103929997,57500.0,0.018047525493428113,4.414670614242554,4.414707118988037,4.414915502548218,115.0,1000.0,33.112053242965814,28.224337259641327,115000,57500.0,5299.246332883835
7.8550885372161865,-4.993658004760742,-4.422237283706665,0.05123490861058235,58000.0,0.01807975345849991,4.432878358840942,4.432942548751831,4.432992835998535,116.0,1000.0,26.152036801966204,28.167383038315595,116000,58000.0,5334.748389959335
7.849059061050415,-4.987768751144409,-4.434395799636841,0.05137162236869335,58500.0,0.016678935872390867,4.442726448059082,4.442617736816406,4.442704936981201,117.0,1000.0,25.79194557579176,28.183456190588387,117000,58500.0,5370.230200052261
7.8430235385894775,-4.981985445022583,-4.442388210296631,0.05143356843292713,59000.0,0.017735567422583698,4.4523214321136475,4.452263509750366,4.452398263931275,118.0,1000.0,27.177288110369158,28.064355105347484,118000,59000.0,5405.862590074539
7.836981889724732,-4.976276672363281,-4.445173389434815,0.05143714536726475,59500.0,0.01742139619961381,4.456738380432129,4.456894884109497,4.456959667205811,119.0,1000.0,26.49260877351925,28.187573103278474,119000,59500.0,5441.33921790123
7.830934213638305,-4.970640798568725,-4.46455125617981,0.05148932239413261,60000.0,0.017283215584233402,4.469014085769653,4.469021844863891,4.469023490905761,120.0,1000.0,17.276000682134637,28.050361181076443,120000,60000.0,5476.989383935928
7.824880424499511,-4.964706150054932,-4.446656017303467,0.05123644931614399,60500.0,0.018643827613443135,4.4557473087310795,4.455919002532959,4.4560681915283205,121.0,1000.0,16.250892471007802,11.822532542805424,121000,60500.0,5561.573631286621
7.818820503234863,-4.958727468490601,-4.442321496963501,0.05098407207429409,61000.0,0.017830797037109734,4.45101516532898,4.450772371292114,4.45085842704773,122.0,1000.0,19.6467786712203,28.041730424832647,122000,61000.0,5597.234770536423
7.812754474639893,-4.952840951919556,-4.4351474514007565,0.05105955104529858,61500.0,0.01879392725788057,4.447378452301026,4.447185691833496,4.447322109222412,123.0,1000.0,19.455489992777526,27.955680354483793,123000,61500.0,5633.005678653717
7.806682285308838,-4.947114503860473,-4.431254735946656,0.05083183541893959,62000.0,0.01858527931571007,4.438328191757202,4.4383652267456055,4.43848764038086,124.0,1000.0,25.676424596536936,28.222355316577843,124000,62000.0,5668.438583612442
7.800603916168213,-4.940953409194946,-4.447373872756958,0.05090968580543995,62500.0,0.018191507371142508,4.452333534240723,4.452378520965576,4.4524213981628415,125.0,1000.0,25.37989935040385,28.11574425008173,125000,62500.0,5704.005845069885
7.794519449234008,-4.935572957992553,-4.459237634658813,0.0508955157995224,63000.0,0.017411941263824702,4.464194665908813,4.4641563415527346,4.464232961654663,126.0,1000.0,24.662088839073288,28.06064467996863,126000,63000.0,5739.642946481705
7.788428787231445,-4.929600715637207,-4.460013036727905,0.05095431120693684,63500.0,0.01835360520705581,4.4672110023498535,4.467237688064575,4.467265523910522,127.0,1000.0,26.60835101376746,28.147607029876774,127000,63500.0,5775.169946670532
7.782331926345825,-4.923697484970093,-4.4696156044006345,0.05105583755671978,64000.0,0.017774860095232724,4.475690797805786,4.475605705261231,4.4757390975952145,128.0,1000.0,20.707516062466805,28.12168999884826,128000,64000.0,5810.729688644409
7.7762288475036625,-4.918206575393676,-4.459685159683228,0.05092816242575646,64500.0,0.020556568901985883,4.471593420028687,4.4711715126037594,4.471586162567139,129.0,1000.0,27.695773470216345,28.10385897382706,129000,64500.0,5846.3119921684265
7.770119585037231,-4.91257769203186,-4.4738105716705325,0.05075902792811394,65000.0,0.016971666004508733,4.481397647857666,4.481549909591675,4.4815615501403805,130.0,1000.0,25.14646144423007,28.14514762831509,130000,65000.0,5881.842096567154
7.764004072189331,-4.906169012069702,-4.484230913162231,0.050982089325785636,65500.0,0.016970317047089338,4.491722843170166,4.491788869857788,4.49181216621399,131.0,1000.0,18.47732572929949,11.904459800677419,131000,65500.0,5965.8442299366
7.757882326126099,-4.900052820205689,-4.471972141265869,0.05097575388848782,66000.0,0.01893758569844067,4.480159187316895,4.480025457382202,4.480146268844605,132.0,1000.0,26.64028844122621,28.154122053745223,132000,66000.0,6001.363008737564
7.751754350662232,-4.894673446655274,-4.480363622665405,0.05078243237733841,66500.0,0.016859566912055014,4.486443935394287,4.4865939331054685,4.486569402694702,133.0,1000.0,33.907274398629724,28.30165520834102,133000,66500.0,6036.6966326236725
7.745620077133179,-4.888747396469117,-4.4947668552398685,0.050921538427472116,67000.0,0.016245682945474984,4.502456884384156,4.502416088104248,4.502480686187744,134.0,1000.0,26.509933295905185,28.27151703691435,134000,67000.0,6072.067923307419
7.7394795455932615,-4.8829338779449465,-4.508409427642822,0.051084093347191814,67500.0,0.017312540819868445,4.513241727828979,4.51328694152832,4.513392932891846,135.0,1000.0,21.84229876263915,28.23506292512644,135000,67500.0,6107.484881162643
7.733332662582398,-4.877020639419555,-4.513508825302124,0.05107135428488255,68000.0,0.018218666648492216,4.515364189147949,4.515335723876953,4.5153313331604,136.0,1000.0,26.39491990845963,28.171115313830008,136000,68000.0,6142.982234716415
7.7271795711517335,-4.8710354270935055,-4.508748662948609,0.050860073640942575,68500.0,0.017405081080272795,4.515151681900025,4.515111476898193,4.515201377868652,137.0,1000.0,25.34521364205815,28.20455158880782,137000,68500.0,6178.437506437302
7.721020133972168,-4.864728607177734,-4.524582298278808,0.05096917621791363,69000.0,0.017399813445284962,4.532062337875367,4.532157751083374,4.532158750534058,138.0,1000.0,24.43919322040662,28.133906831708032,138000,69000.0,6213.981806516647
7.714854337692261,-4.859244096755981,-4.510727066040039,0.050856877997517584,69500.0,0.01992120210453868,4.524438558578491,4.524669996261597,4.524725694656372,139.0,1000.0,15.729042562212651,28.22457296150129,139000,69500.0,6249.411927461624
7.708682233810425,-4.853437662124634,-4.5152722778320316,0.05098604792356491,70000.0,0.01779452454484999,4.522029539108276,4.521863174438477,4.522012954711914,140.0,1000.0,26.466777650026806,28.31650513723686,140000,70000.0,6284.727020978928
7.702503761291504,-4.847902721405029,-4.521955709457398,0.05087494795024395,70500.0,0.017597597325220704,4.52819602394104,4.528305538177491,4.528240699768066,141.0,1000.0,25.8157195160714,11.870631057999896,141000,70500.0,6368.968542337418
7.696318922042846,-4.842032831192016,-4.523688184738159,0.05070650903880596,71000.0,0.016610827315598726,4.52979612159729,4.52965029335022,4.5298014125823975,142.0,1000.0,20.669188602279593,28.23274918103532,142000,71000.0,6404.388402700424
7.690127681732178,-4.835858888626099,-4.526133743286133,0.05089977839589119,71500.0,0.01817197803966701,4.534117408752442,4.534198165893555,4.534237096786499,143.0,1000.0,28.317401376830258,28.282416479780128,143000,71500.0,6439.746061563492
7.683930034637451,-4.829926090240479,-4.533360073089599,0.050710449635982514,72000.0,0.016922461749985813,4.541320516586303,4.541267436981201,4.541264312744141,144.0,1000.0,26.189717144004945,28.16016874788621,144000,72000.0,6475.257213354111
7.67772603225708,-4.8237775001525875,-4.538907230377197,0.05081145197153091,72500.0,0.016543449819087983,4.545875171661377,4.545908004760742,4.545997819900513,145.0,1000.0,25.58537751124615,28.133476008146957,145000,72500.0,6510.802057981491
7.671515556335449,-4.817842380523682,-4.551875696182251,0.0506508337110281,73000.0,0.01749252220802009,4.558764869689941,4.558761274337768,4.558733139038086,146.0,1000.0,25.568820096187494,28.214751841864615,146000,73000.0,6546.244511842728
7.665298692703247,-4.811918619155883,-4.5488796768188475,0.050722021132707594,73500.0,0.018924959214404225,4.558464990615844,4.558668384552002,4.558848602294922,147.0,1000.0,26.099672861961015,28.195923506467867,147000,73500.0,6581.710633277893
7.65907533454895,-4.805682308197022,-4.555455547332763,0.05077689081430435,74000.0,0.015625779565423728,4.563331670761109,4.5632233047485355,4.563311689376831,148.0,1000.0,26.261605389681325,28.14958453345462,148000,74000.0,6617.235137224197
7.6528455371856685,-4.800156190872192,-4.56560506439209,0.05077945446968079,74500.0,0.016275444084778427,4.571594167709351,4.571658586502076,4.571710279464722,149.0,1000.0,28.79935280267444,28.207776766949074,149000,74500.0,6652.686355113983
7.646609262466431,-4.794012336730957,-4.567195421218872,0.05084177580475807,75000.0,0.0180718506462872,4.5754151554107665,4.575386100769043,4.5753636493682865,150.0,1000.0,26.42669852939684,28.19266787533689,150000,75000.0,6688.156571388245
7.640366500854492,-4.7875221214294434,-4.57440955734253,0.050835381731390954,75500.0,0.016362172899767758,4.583809232711792,4.583796497344971,4.583937387466431,151.0,1000.0,25.62295506341379,11.852705903231394,151000,75500.0,6772.525492668152
7.634117233276367,-4.782244310379029,-4.584792142868042,0.05072140504419804,76000.0,0.015846979297697544,4.588869995117188,4.588865814208984,4.588783506393432,152.0,1000.0,26.556777829146505,28.24281085534291,152000,76000.0,6807.932735204697
7.627861427307129,-4.776407363891601,-4.59175961303711,0.050800542458891866,76500.0,0.015639689588919283,4.595134239196778,4.595132726669312,4.595228700637818,153.0,1000.0,30.936463613827453,27.985133431638502,153000,76500.0,6843.665993928909
7.621599145889283,-4.770386005401611,-4.605293567657471,0.0509523151665926,77000.0,0.015690181653946637,4.608043600082397,4.608078096389771,4.608026395797729,154.0,1000.0,26.63863832055223,28.140054911665686,154000,77000.0,6879.202539682388
7.615330308914184,-4.764182880401611,-4.6158097591400145,0.050936638057231906,77500.0,0.015131320275366306,4.617612646102906,4.617613859176636,4.617693517684937,155.0,1000.0,26.95684082981475,28.18576337730482,155000,77500.0,6914.681445360184
7.609054878234863,-4.758309650421142,-4.619019769668579,0.05102758477628231,78000.0,0.014845967881381511,4.6213487033844,4.621373796463013,4.6213569202423095,156.0,1000.0,27.02514389838359,28.22125526460007,156000,78000.0,6950.115731477737
7.602772920608521,-4.752175146102905,-4.624021747589111,0.05091272783279419,78500.0,0.014642581289634108,4.626447378158569,4.626481878280639,4.626546821594238,157.0,1000.0,26.446920380407597,28.100700815119197,157000,78500.0,6985.702034473419
7.596484352111816,-4.74604930305481,-4.634931499481201,0.050976127594709396,79000.0,0.014140722325071693,4.636950365066529,4.636951580047607,4.637004072189331,158.0,1000.0,29.439877546036954,28.16259560328606,158000,79000.0,7021.2101266384125
7.590189182281494,-4.740137428283691,-4.621376920700073,0.0510899318009615,79500.0,0.017619743359275162,4.632839036941529,4.633048885345459,4.633040386199951,159.0,1000.0,26.321220423351047,28.177757645570043,159000,79500.0,7056.699111938477
7.583887392044067,-4.734026203155517,-4.623080255508423,0.05104907140135765,80000.0,0.015047245349735021,4.631987699508667,4.631989801406861,4.632097063064575,160.0,1000.0,28.192399563615545,28.193365257775895,160000,80000.0,7092.168450832367
7.57757900428772,-4.728029945373535,-4.6221959590911865,0.05116355931758881,80500.0,0.015451215475797654,4.629320064544678,4.6291775760650635,4.629220794677734,161.0,1000.0,19.545697284078635,11.826047869229203,161000,80500.0,7176.727555036545
7.571263954162598,-4.722417091369629,-4.619266317367554,0.05111140750348568,81000.0,0.015319186037406325,4.626305086135864,4.626294311523438,4.626302881240845,162.0,1000.0,29.21535168224787,27.93326527318901,162000,81000.0,7212.527166128159
7.564942260742187,-4.715657571792603,-4.62169320678711,0.050976629361510276,81500.0,0.01527302436903119,4.629466501235962,4.629434301376342,4.629589027404785,163.0,1000.0,28.444773018507018,27.889719593716535,163000,81500.0,7248.38267326355
7.558613937377929,-4.710332447052002,-4.63807470703125,0.05117582879960537,82000.0,0.014730225013568998,4.6449682197570805,4.645053720474243,4.645046051025391,164.0,1000.0,19.563201216701092,27.89145422165082,164000,82000.0,7284.2359499931335
7.552278881072998,-4.703942451477051,-4.627572217941284,0.05091303744912148,82500.0,0.01413710672967136,4.632899980545044,4.632887294769287,4.632869859695434,165.0,1000.0,28.124714211908675,28.004700415858355,165000,82500.0,7319.944243192673
7.545937120437622,-4.6976992244720455,-4.642356220245361,0.05104498566687107,83000.0,0.014466737745329738,4.647219457626343,4.647210723876953,4.647259279251099,166.0,1000.0,25.211993913855164,28.124308614758593,166000,83000.0,7355.500673532486
7.539588691711426,-4.692111890792846,-4.641855587005615,0.05091792458295822,83500.0,0.014187016068026423,4.645544233322144,4.645580394744873,4.645652585983276,167.0,1000.0,24.791709721246196,28.108729875718694,167000,83500.0,7391.076810836792
7.533233512878418,-4.6857888298034664,-4.642624324798584,0.05094692376255989,84000.0,0.014984686087816954,4.6448766708374025,4.644849065780639,4.64482865524292,168.0,1000.0,25.76764516530519,28.008452543988497,168000,84000.0,7426.780319452286
7.5268716144561765,-4.679950828552246,-4.658544013977051,0.051140704035758974,84500.0,0.01522094896622002,4.661115102767944,4.6611470737457275,4.6612136344909665,169.0,1000.0,25.59673853694276,28.080910195275454,169000,84500.0,7462.391701936722
7.520502935409546,-4.673569906234741,-4.662243961334228,0.05107132856547832,85000.0,0.014788291614502668,4.66485908126831,4.664830678939819,4.664901090621949,170.0,1000.0,17.499295971175243,28.10041898212009,170000,85000.0,7497.978361129761
7.514127508163452,-4.667149127960205,-4.654536619186401,0.050944360062479974,85500.0,0.013712571127340197,4.656526805877686,4.656534408569336,4.656620805740356,171.0,1000.0,27.035478269114833,11.840440751807057,171000,85500.0,7582.434677839279
7.507745286941528,-4.661157302856445,-4.654471837997437,0.051038067564368246,86000.0,0.014149649150669574,4.658033294677734,4.658001735687256,4.658012691497802,172.0,1000.0,25.41746072111017,27.97663923836272,172000,86000.0,7618.178786754608
7.5013562793731685,-4.655519372940064,-4.656252643585205,0.05091636443138123,86500.0,0.013950954835861921,4.6580989570617675,4.658145130157471,4.658157648086548,173.0,1000.0,25.878346400696508,28.02401372994296,173000,86500.0,7653.862470149994
7.494960487365723,-4.649028169631958,-4.665072208404541,0.050939327359199524,87000.0,0.013504993102513253,4.66695485496521,4.666959264755249,4.667048898696899,174.0,1000.0,25.53501339045539,28.054056502807782,174000,87000.0,7689.507940292358
7.488557830810547,-4.643057554244995,-4.6640237655639645,0.05085238328576088,87500.0,0.013185125235468149,4.66628974533081,4.666274066925049,4.666293291091919,175.0,1000.0,26.858504825231297,27.993067806316187,175000,87500.0,7725.231071472168
7.482148330688476,-4.636977237701416,-4.675909992218018,0.05109341052174568,88000.0,0.013183843474835158,4.676917922973633,4.6769293022155765,4.676964124679565,176.0,1000.0,23.96892002746593,28.049571248504666,176000,88000.0,7760.882241487503
7.475732004165649,-4.630460208892822,-4.673702766418457,0.05095210461318493,88500.0,0.013046201847493649,4.6760335006713865,4.676017185211181,4.676058132171631,177.0,1000.0,25.919371275715957,28.156187039795256,177000,88500.0,7796.398415327072
7.469308801651001,-4.6243152446746825,-4.67598394203186,0.050891889944672586,89000.0,0.01411863508541137,4.678572793960571,4.678580493927002,4.678581735610962,178.0,1000.0,26.544288734957725,28.04009271492639,178000,89000.0,7832.061636924744
7.462878667831421,-4.618796884536743,-4.677509149551391,0.051058956772089006,89500.0,0.012211290538311005,4.680363264083862,4.680421775817871,4.680452867507935,179.0,1000.0,24.90279039769372,28.404712212856555,179000,89500.0,7867.267064571381
7.456441711425781,-4.612294866561889,-4.680562364578247,0.05084456032514572,90000.0,0.012221966536715628,4.682990753173828,4.6829417552948,4.683021083831787,180.0,1000.0,34.068369912502185,28.365067806128465,180000,90000.0,7902.521696805954
7.449997804641724,-4.6060607089996335,-4.689437976837159,0.051058033585548404,90500.0,0.012788477288559079,4.694513477325439,4.694542676925659,4.69451358795166,181.0,1000.0,16.29936678366721,11.840682087680632,181000,90500.0,7986.976293325424
7.443546991348267,-4.600186407089233,-4.690122858047485,0.05110413300991058,91000.0,0.012339772572740913,4.693319604873658,4.693349878311158,4.693369882583618,182.0,1000.0,25.92109331489629,28.119374437670032,182000,91000.0,8022.538962364197
7.437089223861694,-4.5939719791412355,-4.690119031906128,0.05084081165492535,91500.0,0.012078307289630174,4.692128040313721,4.692095739364624,4.692176452636719,183.0,1000.0,33.31987682267555,28.35027556342883,183000,91500.0,8057.811989545822
7.43062448310852,-4.587362155914307,-4.6968056659698485,0.05115279710292816,92000.0,0.012177766655571758,4.69932523727417,4.6993220443725585,4.699327291488648,184.0,1000.0,27.314900913911448,28.084254961108403,184000,92000.0,8093.419130563736
7.424152791976929,-4.581369325637818,-4.69253830909729,0.05103794540464878,92500.0,0.013597681298851966,4.695266944885254,4.695246824264526,4.695407144546508,185.0,1000.0,25.56229250052126,28.149789893894795,185000,92500.0,8128.943375587463
7.417674076080322,-4.575464658737182,-4.698007259368897,0.05084837643802166,93000.0,0.011754641157574951,4.70067858505249,4.700701728820801,4.700558885574341,186.0,1000.0,27.056129621165837,28.184289476641567,186000,93000.0,8164.424136400223
7.4111884059906,-4.569112934112549,-4.703030170440674,0.05117256410419941,93500.0,0.01233073922805488,4.705003749847412,4.705020616531372,4.705085279464722,187.0,1000.0,28.77991970048621,28.114852444422308,187000,93500.0,8199.992526054382
7.404695671081543,-4.56303936958313,-4.712993728637695,0.05120556981861591,94000.0,0.01321400430239737,4.714529169082642,4.714507251739502,4.714539335250855,188.0,1000.0,26.710577512123173,28.0124342951826,188000,94000.0,8235.690960168839
7.39819595336914,-4.557044891357422,-4.708497631072998,0.05099297374486923,94500.0,0.012709978021681308,4.713130617141724,4.7130508003234866,4.7131294193267825,189.0,1000.0,28.217281580532134,28.126415439400404,189000,94500.0,8271.244727611542
7.391689126968384,-4.550846391677856,-4.712443593978882,0.051098884478211405,95000.0,0.012188666908070444,4.71750661277771,4.717604116439819,4.717615287780761,190.0,1000.0,23.0946872876095,28.06913643289124,190000,95000.0,8306.871047496796
7.385175279617309,-4.544171756744385,-4.7194577503204345,0.051081035405397414,95500.0,0.011664361347444356,4.7218327198028565,4.721797861099243,4.721877849578857,191.0,1000.0,17.214925456018527,11.908865936527409,191000,95500.0,8390.842100858688
7.37865432548523,-4.538006813049316,-4.683936864852905,0.05102521874010563,96000.0,0.015094475436024367,4.698137084960938,4.698306968688965,4.698413915634156,192.0,1000.0,26.680963496276462,28.343941436768112,192000,96000.0,8426.123010158539
7.372126314163208,-4.531738885879516,-4.686564868927002,0.05105246213078499,96500.0,0.01198855903930962,4.693113447189331,4.693140991210938,4.693142997741699,193.0,1000.0,28.193009319509663,28.178015665223107,193000,96500.0,8461.61167049408
7.365591150283813,-4.525377546310425,-4.692464658737182,0.05124462221562862,97000.0,0.011580261806026101,4.6992343788146975,4.6991877880096435,4.699214706420898,194.0,1000.0,26.91442344877102,28.075253415016,194000,97000.0,8497.230228424072
7.3590488986969,-4.519227821350098,-4.692674421310425,0.05125287848711014,97500.0,0.010769242680631577,4.698912870407105,4.6989000663757325,4.699005771636963,195.0,1000.0,29.77989211363905,28.20157592889033,195000,97500.0,8532.689241409302
7.35249948310852,-4.513520900726318,-4.6951288261413575,0.05106326906383037,98000.0,0.010836815655231476,4.700146919250488,4.70007423210144,4.7001178817749025,196.0,1000.0,32.57558111764552,28.023573346216384,196000,98000.0,8568.373485565186
7.34594289970398,-4.5068145198822025,-4.696277498245239,0.051208555564284323,98500.0,0.010940625890158116,4.702260715484619,4.70226869392395,4.702307655334472,197.0,1000.0,18.2766067597758,28.14276645472128,197000,98500.0,8603.906596422195
7.339379173278808,-4.500849708557129,-4.694615531921387,0.05119255830347538,99000.0,0.011351046105846762,4.700626501083374,4.700703567504883,4.700689987182617,198.0,1000.0,23.25480444586709,28.290523780980955,198000,99000.0,8639.25412273407
7.332808238983154,-4.494305021286011,-4.69616750907898,0.05135071298480034,99500.0,0.011913689084351062,4.702684589385987,4.702620872497558,4.702710294723511,199.0,1000.0,26.19660587009286,28.211544044118796,199000,99500.0,8674.700606584549
7.326230108261108,-4.488187919616699,-4.694462409973145,0.05096281087398529,100000.0,0.01065957261621952,4.700167436599731,4.700224569320679,4.70019497871399,200.0,1000.0,25.707697043493567,28.282298240168156,200000,100000.0,8710.05841422081
7.319644752502441,-4.482038175582885,-4.694077745437622,0.050976527035236356,100500.0,0.012635881962254644,4.703047191619873,4.70308540725708,4.703204113006592,201.0,1000.0,19.231156680690297,11.881286181386166,201000,100500.0,8794.224387168884
7.313052169799804,-4.47540625,-4.693698657989502,0.05104568392038345,101000.0,0.011148633839562536,4.699200782775879,4.6993271942138675,4.699297262191773,202.0,1000.0,24.832045204615696,28.438131031240243,202000,101000.0,8829.388443231583
7.306452320098877,-4.469618595123291,-4.69909091758728,0.051155345991253855,101500.0,0.01150021093711257,4.704863876342773,4.7047644691467285,4.7048635540008545,203.0,1000.0,16.674881155649096,28.42702090303416,203000,101500.0,8864.566242694855
7.299845218658447,-4.46318327331543,-4.694114486694336,0.05096205362677574,102000.0,0.011478734483942389,4.698947601318359,4.698933795928955,4.698974994659424,204.0,1000.0,17.287997529097414,28.29466745429066,204000,102000.0,8899.908591985703
7.293230850219727,-4.456870954513549,-4.681765550613403,0.0509864651709795,102500.0,0.011721736499108374,4.689235828399658,4.6891806659698485,4.689176229476929,205.0,1000.0,25.501355248000948,28.36627674587426,205000,102500.0,8935.161721944809
7.286609146118164,-4.4506559009552005,-4.682965362548829,0.050828693151474,103000.0,0.011746660814620554,4.68938589477539,4.689440998077393,4.68945636177063,206.0,1000.0,26.223620845472023,28.295843484675913,206000,103000.0,8970.502602815628
7.2799801368713375,-4.444306053161621,-4.685944972991943,0.05103508988022804,103500.0,0.011457980754785239,4.693079999923706,4.693063962936401,4.693147300720215,207.0,1000.0,26.59841208788271,28.28041493086624,207000,103500.0,9005.86276435852
7.273343818664551,-4.437983049392701,-4.689773704528808,0.05083297185599804,104000.0,0.01066239262651652,4.69605722618103,4.696103658676147,4.6961376667022705,208.0,1000.0,25.970210940489622,28.197093806975396,208000,104000.0,9041.327413320541
7.266700094223022,-4.431964393615723,-4.689121444702148,0.05088033631443977,104500.0,0.011498047408647835,4.695717136383057,4.695662218093872,4.6957239971160885,209.0,1000.0,27.11230190642563,28.178487041280896,209000,104500.0,9076.81547999382
7.260049053192139,-4.4255169563293455,-4.692628099441528,0.050928624004125594,105000.0,0.01176213022414595,4.697803400039673,4.697830808639527,4.697812137603759,210.0,1000.0,20.450397408476956,28.102890155339093,210000,105000.0,9112.399010658264
7.253390625,-4.418581146240235,-4.69441961479187,0.05085242456197739,105500.0,0.010202444927766919,4.698060319900513,4.6980548820495605,4.698125915527344,211.0,1000.0,25.123066287077464,11.855969512975735,211000,105500.0,9196.744708299637
7.24672479057312,-4.4125960884094235,-4.697434936523438,0.050842449113726616,106000.0,0.01011819537729025,4.699178436279297,4.699172107696533,4.6992768459320065,212.0,1000.0,34.299362337915504,28.31744075339187,212000,106000.0,9232.058635234833
7.240051555633545,-4.40660717010498,-4.706490707397461,0.051031325280666354,106500.0,0.010683282734826207,4.710929569244385,4.710895034790039,4.710919898986816,213.0,1000.0,26.616077239588286,28.170959404183737,213000,106500.0,9267.556185007095
7.233370901107788,-4.399981019973755,-4.7128678302764895,0.050969304636120795,107000.0,0.010360185547731817,4.717223571777343,4.717236272811889,4.717234962463379,214.0,1000.0,24.451649047058588,28.286860145197515,214000,107000.0,9302.908289194107
7.2266827583312985,-4.393427864074707,-4.7176157703399655,0.0510522628724575,107500.0,0.011027989698573947,4.721293977737426,4.721309684753418,4.721405149459839,215.0,1000.0,20.704713042061343,28.262265188443052,215000,107500.0,9338.29115819931
7.219987161636353,-4.386886003494262,-4.713875478744507,0.05098175422847271,108000.0,0.010646273327060043,4.7166149635314945,4.716602249145508,4.716569368362427,216.0,1000.0,28.971990929003976,28.097361730387465,216000,108000.0,9373.881689548492
7.213284093856812,-4.380502326965332,-4.72293417930603,0.050969406992197035,108500.0,0.010554202734492719,4.724974580764771,4.7249767875671385,4.725058208465576,217.0,1000.0,25.479758971659322,28.101958872099143,217000,108500.0,9409.46639919281
7.2065735492706295,-4.374494462966919,-4.724829570770264,0.05093079124391079,109000.0,0.010571968005038799,4.726873010635376,4.72686584854126,4.726918190002442,218.0,1000.0,26.881896495509356,28.083235408462144,218000,109000.0,9445.074832201004
7.19985544013977,-4.368097139358521,-4.721983350753784,0.05112524950504303,109500.0,0.010142034783028065,4.72438916015625,4.7243697032928464,4.724367752075195,219.0,1000.0,25.0134819837553,28.22801986239037,219000,109500.0,9480.500627279282
7.193129877090454,-4.361283267974853,-4.727535255432129,0.050995945513248445,110000.0,0.009778839763253928,4.729604202270508,4.729619550704956,4.729623023986816,220.0,1000.0,26.71875920580676,28.05033022823837,220000,110000.0,9516.150832414627
7.18639670753479,-4.355316669464111,-4.728843315124512,0.05100596496462822,110500.0,0.010600729865953326,4.730559228897095,4.730570611953735,4.730618864059449,221.0,1000.0,25.737407534184165,11.841672403137384,221000,110500.0,9600.598365068436
7.179655982971191,-4.348212524414063,-4.734807302474976,0.05104991103708744,111000.0,0.01048509221430868,4.736356328964233,4.736356870651245,4.7364339351654055,222.0,1000.0,24.69979760391413,28.260326470299976,222000,111000.0,9635.983661413193
7.172907695770264,-4.342092998504639,-4.735635723114013,0.05108353653550148,111500.0,0.01049000927247107,4.737256391525269,4.7372380657196045,4.737186935424805,223.0,1000.0,27.18364748745243,28.076690184779896,223000,111500.0,9671.600396871567
7.166151777267456,-4.335934286117554,-4.73404091835022,0.05093717992305755,112000.0,0.010629530111327768,4.741656118392944,4.741714406967163,4.741760482788086,224.0,1000.0,27.12986297714922,27.959359157407324,224000,112000.0,9707.366597414017
7.159388277053833,-4.329967651367188,-4.7341078186035155,0.05117446929216385,112500.0,0.010037366545759142,4.738762069702148,4.738682542800904,4.738750797271728,225.0,1000.0,25.639491514817433,28.099947013933434,225000,112500.0,9742.953854560852
7.152617126464844,-4.323262826919556,-4.7396253414154055,0.05108054696023464,113000.0,0.010042346745729446,4.742029655456543,4.742059638977051,4.742098924636841,226.0,1000.0,27.034595876109876,28.015492740402113,226000,113000.0,9778.648391485214
7.145838346481323,-4.317030075073242,-4.745317737579346,0.05099695721268654,113500.0,0.010006368549540639,4.7477288208007815,4.747725639343262,4.747802946090698,227.0,1000.0,26.756389814635643,28.111970293819844,227000,113500.0,9814.220428228378
7.139051866531372,-4.310353044509887,-4.746663061141968,0.05095013915002346,114000.0,0.00958814562112093,4.7486232585906984,4.74861849784851,4.74865424156189,228.0,1000.0,27.187381402852818,28.021567266415243,228000,114000.0,9849.907226800919
7.1322577209472655,-4.303911247253418,-4.752317142486572,0.051104071408510206,114500.0,0.00880190799292177,4.754131372451782,4.75413182258606,4.754128177642822,229.0,1000.0,26.809263842465903,28.125626309751826,229000,114500.0,9885.461992263794
7.125455867767334,-4.297196159362793,-4.756579498291016,0.051107416436076164,115000.0,0.009589415765367449,4.758069343566895,4.758065402984619,4.758047243118286,230.0,1000.0,26.94637254559953,28.001829026481488,230000,115000.0,9921.173946142197
7.118646291732788,-4.290922866821289,-4.758770555496215,0.05108387035131454,115500.0,0.008926044427789747,4.760228525161743,4.760224325180054,4.760314764022827,231.0,1000.0,25.156659200621704,11.838339205794655,231000,115500.0,10005.645255327225
7.111828985214234,-4.284445550918579,-4.7600591850280765,0.05118034540116787,116000.0,0.008859955850057303,4.762484741210938,4.762500314712525,4.762503955841065,232.0,1000.0,25.29022225632408,28.252363016955847,232000,116000.0,10041.040525913239
7.105003932952881,-4.277663845062256,-4.764165798187256,0.051018726021051404,116500.0,0.00864337994903326,4.765352521896363,4.7653427734375,4.7653586864471436,233.0,1000.0,22.688560302326408,28.010366583845514,233000,116500.0,10076.741595506668
7.098171104431152,-4.271418004989624,-4.75868533706665,0.05094899289309979,117000.0,0.008766628220677376,4.760115293502808,4.760107381820679,4.760063011169434,234.0,1000.0,25.622434822460196,27.996986129953992,234000,117000.0,10112.459726572037
7.091330471038819,-4.265003707885742,-4.764014938354492,0.05093785434961319,117500.0,0.008645260078366846,4.764597356796265,4.764582113265991,4.764703447341919,235.0,1000.0,19.11673191411362,28.065900247436442,235000,117500.0,10148.090154409409
7.084482036590576,-4.258512741088867,-4.758843786239624,0.05098387429118156,118000.0,0.01061229612492025,4.759710781097412,4.759703536987304,4.759680280685425,236.0,1000.0,26.328077085033925,28.120999928515886,236000,118000.0,10183.650768995285
7.077625772476196,-4.252159482955933,-4.757458436965942,0.0509929983317852,118500.0,0.009768979295156896,4.758589677810669,4.758562377929687,4.758606428146362,237.0,1000.0,15.770508333419226,27.863064121549833,237000,118500.0,10219.54057765007
7.070761770248413,-4.245462890625,-4.750293704986572,0.05075846825540066,119000.0,0.010146240417845547,4.751722204208374,4.7517277565002445,4.75183603477478,238.0,1000.0,25.10883228706266,28.025038536980393,238000,119000.0,10255.222956418991
7.063889713287353,-4.238878734588623,-4.755031053543091,0.0509616534858942,119500.0,0.008833472558297218,4.756129476547241,4.756095193862915,4.756124134063721,239.0,1000.0,25.100028420958516,28.156389283343277,239000,119500.0,10290.738874912262
7.057009860992432,-4.232253913879394,-4.754162414550781,0.0509261222332716,120000.0,0.009417086081579328,4.755483655929566,4.755529481887818,4.755503168106079,240.0,1000.0,31.906678752386373,28.078063757635295,240000,120000.0,10326.353867292404
7.050122144699096,-4.2260464134216305,-4.751596744537354,0.05086540599167347,120500.0,0.009424470657482743,4.754888607025147,4.754872415542603,4.754926219940185,241.0,1000.0,25.594096662733445,11.817814271708949,241000,120500.0,10410.97188425064
7.043226488113404,-4.219378921508789,-4.764921718597412,0.051007517650723457,121000.0,0.008716075806878507,4.766615297317505,4.76659076499939,4.7666056423187255,242.0,1000.0,17.5058248750337,27.82992321607894,242000,121000.0,10446.904431581497
7.036322883605957,-4.212638349533081,-4.75479462814331,0.05092187680304051,121500.0,0.009135711196810007,4.756768371582031,4.756753568649292,4.756827310562134,243.0,1000.0,32.82758301619235,27.900865551303195,243000,121500.0,10482.745614767075
7.029411354064941,-4.20624655342102,-4.758854381561279,0.05090698698163033,122000.0,0.009068190242163836,4.761485733032226,4.761482814788819,4.761450817108154,244.0,1000.0,27.43482760605341,27.805436642821068,244000,122000.0,10518.709805727005
7.022491828918457,-4.199863752365112,-4.765430679321289,0.0509338581264019,122500.0,0.010685586519539356,4.767289754867554,4.767273155212402,4.767346830368042,245.0,1000.0,25.35195486584234,27.85672804893019,245000,122500.0,10554.60777759552
7.015564323425293,-4.1931235942840575,-4.7710265426635745,0.05108490934967995,123000.0,0.009696010757237673,4.774056135177612,4.774057327270508,4.773973180770874,246.0,1000.0,27.14115959125149,27.866666747279698,246000,123000.0,10590.4929459095
7.008628841400147,-4.186658050537109,-4.774016195297241,0.05101355093717575,123500.0,0.008625226413831115,4.775936809539795,4.775914337158203,4.776024803161621,247.0,1000.0,26.744962488907827,27.874018170828034,247000,123500.0,10626.368650197983
7.001685276031494,-4.180146978378296,-4.775176214218139,0.05092828261852264,124000.0,0.008514173139818013,4.776539451599121,4.776552196502686,4.77658590888977,248.0,1000.0,20.259834865156364,27.912847950291315,248000,124000.0,10662.194447755814
6.994733688354493,-4.173311220169067,-4.76824571609497,0.0508538878262043,124500.0,0.008571679337415844,4.769654020309448,4.769654075622559,4.769673873901367,249.0,1000.0,26.515458367450254,27.832642176287447,249000,124500.0,10698.123484611511
6.987774080276489,-4.166957103729248,-4.775387756347656,0.05106395983695984,125000.0,0.008303804057650268,4.776979290008545,4.77697028541565,4.7769172058105465,250.0,1000.0,34.487661295434236,28.2058286354878,250000,125000.0,10733.577151298523
6.980806343078613,-4.159892492294311,-4.779560840606689,0.05107147793471813,125500.0,0.008736169558949769,4.783973203659057,4.783996185302734,4.784012992858886,251.0,1000.0,24.321599422327527,11.862690077345356,251000,125500.0,10817.875064373016
6.973830501556397,-4.1533000354766845,-4.7767904815673825,0.05106160250306129,126000.0,0.008147198223508895,4.783843765258789,4.783943836212158,4.783932622909546,252.0,1000.0,24.07237665273358,27.946028869287012,252000,126000.0,10853.658325195312
6.9668465557098385,-4.147395765304565,-4.773868747711182,0.050940977260470394,126500.0,0.00881997319869697,4.7800925216674806,4.779989894866944,4.780067396163941,253.0,1000.0,27.90937968557099,28.01253588336773,253000,126500.0,10889.35662984848
6.959854467391968,-4.140110389709473,-4.783314966201782,0.0511936105042696,127000.0,0.008545448472723365,4.788646196365357,4.788735486984253,4.7886418495178225,254.0,1000.0,17.76926517001362,27.905152988326805,254000,127000.0,10925.192306041718
6.952854221343994,-4.133508928298951,-4.781024072647095,0.05102093194425106,127500.0,0.008538382899016142,4.784789506912231,4.784690490722657,4.78477059173584,255.0,1000.0,25.467588451642634,28.076960452999966,255000,127500.0,10960.808698415756
6.945845792770386,-4.127067840576172,-4.786052438735962,0.051017670273780825,128000.0,0.009073876162990928,4.787998558044434,4.788041868209839,4.788062822341919,256.0,1000.0,27.44716200685601,28.135257699140894,256000,128000.0,10996.35129237175
6.93882918548584,-4.120071773529053,-4.779758855819702,0.05081207911670208,128500.0,0.008896160745993257,4.781245176315307,4.781264013290405,4.781275999069214,257.0,1000.0,27.39004644383297,28.019014353166142,257000,128500.0,11032.041342496872
6.9318043403625484,-4.113644323348999,-4.786306058883667,0.051029664009809496,129000.0,0.008355267123319209,4.787606580734253,4.78760126876831,4.787600208282471,258.0,1000.0,25.307818316846056,28.15553798993924,258000,129000.0,11067.558335065842
6.924771284103394,-4.106977210998535,-4.78441982460022,0.05092783778905868,129500.0,0.008395288833416998,4.786566120147705,4.786553203582764,4.786619358062744,259.0,1000.0,26.50591454494512,27.986162492923814,259000,129500.0,11103.29028058052
6.917729961395263,-4.100324752807617,-4.785932117462158,0.05087266804277897,130000.0,0.008271608253009616,4.7891012134552,4.7890346813201905,4.789078817367554,260.0,1000.0,25.53686109804974,28.07840134482715,260000,130000.0,11138.904844284058
6.910680360794068,-4.093378776550293,-4.777955615997315,0.05093851198256016,130500.0,0.00935405945032835,4.7855782833099365,4.785587913513184,4.785580997467041,261.0,1000.0,25.419137146530023,11.851155171056172,261000,130500.0,11223.284805297852
6.903622482299805,-4.087307683944702,-4.792051170349121,0.05091442640125751,131000.0,0.008167185449041426,4.796618333816529,4.796615770339966,4.7966819171905515,262.0,1000.0,27.281485297195644,28.15922175432113,262000,131000.0,11258.79715180397
6.896556285858154,-4.080225830078125,-4.790446557998657,0.051088295772671696,131500.0,0.008021348230540752,4.7944762306213375,4.794522769927979,4.7945264377594,263.0,1000.0,17.107859199066798,6.529403672542668,263000,131500.0,11411.950495958328
6.8894817276000975,-4.073679857254028,-4.785322101593017,0.05102443078160286,132000.0,0.008641383541747929,4.787729421615601,4.787705999374389,4.787776000976563,264.0,1000.0,30.290870265142544,5.874231941544855,264000,132000.0,11582.18551826477
6.882398866653443,-4.067305650711059,-4.783062940597534,0.05094056676328182,132500.0,0.008278225005604326,4.784916591644287,4.784897073745728,4.784822114944458,265.0,1000.0,27.396850486170738,5.967449637055899,265000,132500.0,11749.761295080185
6.875307611465454,-4.060273641586304,-4.795190958023071,0.05117401994764805,133000.0,0.009010760243982077,4.796557758331299,4.79653556060791,4.796517578125,266.0,1000.0,27.986962450838707,6.096449503754164,266000,133000.0,11913.791195869446
6.868207983016967,-4.053486503601074,-4.791375537872314,0.05099225477874279,133500.0,0.008828318390995264,4.7923151359558105,4.79233016204834,4.792425138473511,267.0,1000.0,25.65756310571906,6.037532286617038,267000,133500.0,12079.421781778336
6.861099908828735,-4.0472960300445555,-4.791346925735474,0.050972145304083824,134000.0,0.008133018887601793,4.793092790603637,4.79308430480957,4.793126209259033,268.0,1000.0,27.190813819486007,5.886143862158646,268000,134000.0,12249.312295675278
6.853983438491821,-4.040242111206054,-4.785037473678589,0.05097158183157444,134500.0,0.00878314448799938,4.787575157165527,4.787595750808716,4.787553455352783,269.0,1000.0,28.347556153653002,6.025276683162231,269000,134500.0,12415.279779195786
6.846858509063721,-4.032772607803345,-4.793166133880615,0.05099258579313755,135000.0,0.0074416179042309525,4.7943443641662595,4.794320852279663,4.794373386383056,270.0,1000.0,27.24229240734047,5.870993600267541,270000,135000.0,12585.608700275421
6.8397251262664795,-4.026836275100708,-4.790170776367187,0.05102476318180561,135500.0,0.00799155696388334,4.791669534683227,4.791649452209473,4.791618349075318,271.0,1000.0,26.98125283233722,4.6520021703910235,271000,135500.0,12800.569907665253
6.832583164215088,-4.01964130973816,-4.790939437866211,0.05100479802489281,136000.0,0.007817952964454889,4.792493818283081,4.792522068023682,4.792498628616333,272.0,1000.0,27.311866320861224,6.0692465219591805,272000,136000.0,12965.335006952286
6.825432779312134,-4.013952867507935,-4.797292585372925,0.05106862251460552,136500.0,0.008350340492092073,4.798389625549317,4.798377054214478,4.798561414718628,273.0,1000.0,33.044374893607575,15.148207186667697,273000,136500.0,13031.349420309067
6.81827384185791,-4.005942895889282,-4.800880641937256,0.050975271806120874,137000.0,0.007754671516828239,4.802393180847168,4.802386268615723,4.80226410484314,274.0,1000.0,25.7162276720499,6.058365185592813,274000,137000.0,13196.410451889038
6.811106363296509,-3.999468607902527,-4.806214040756226,0.05107397550344467,137500.0,0.008129273851402104,4.8078800945281985,4.807877157211304,4.807863210678101,275.0,1000.0,25.623609437901067,6.11538889922246,275000,137500.0,13359.932351112366
6.803930301666259,-3.9927785978317263,-4.804119716644287,0.05112281116843224,138000.0,0.007853902978822588,4.805865879058838,4.805880941390991,4.805921817779541,276.0,1000.0,27.141538322512456,6.054043330789058,276000,138000.0,13525.11121582985
6.796745635986328,-3.9860614099502563,-4.8027811450958255,0.051013410568237307,138500.0,0.007873315394856036,4.804395805358887,4.8043665580749515,4.8043158283233645,277.0,1000.0,25.313725306849747,6.102757315751744,277000,138500.0,13688.971575498581
6.789552400588989,-3.9792999792099,-4.80255352973938,0.0511734326928854,139000.0,0.007882752707228064,4.804460813522339,4.804480768203735,4.804509452819824,278.0,1000.0,26.562089434513393,6.249975655322726,278000,139000.0,13848.972200632095
6.78235046005249,-3.97235359954834,-4.8112351570129395,0.051265006929636,139500.0,0.007980496138334275,4.812841325759888,4.812806035995483,4.812823492050171,279.0,1000.0,24.760125412116746,6.115191684315336,279000,139500.0,14012.499373674393
6.775139909744262,-3.9658060626983644,-4.806457845687866,0.05123042517900467,140000.0,0.0074938649600371715,4.808071805953979,4.808078161239624,4.808087703704834,280.0,1000.0,28.04386569100258,14.93207602926106,280000,140000.0,14079.469299316406
6.767920598983765,-3.9590257997512817,-4.806709854125977,0.05127835515141487,140500.0,0.009033550742082298,4.809254459381103,4.809251893997192,4.809284872055054,281.0,1000.0,27.815745134177124,4.667289970668854,281000,140500.0,14293.726397752762
6.760692733764649,-3.9522335119247436,-4.807541942596435,0.05118328104913235,141000.0,0.008036653134040535,4.8103606967926025,4.810291982650757,4.810339626312256,282.0,1000.0,28.16216036756044,6.1354598682670645,282000,141000.0,14456.713366746902
6.753456081390381,-3.9449020919799804,-4.8067484416961666,0.05122466692328453,141500.0,0.007716489830985666,4.809644090652466,4.809703573226929,4.809782646179199,283.0,1000.0,24.432282854811945,6.026638489753049,283000,141500.0,14622.643347501755
6.746210721969605,-3.9382134103775024,-4.806732051849365,0.05123241689801216,142000.0,0.007491179792210459,4.807826089859009,4.80783770942688,4.80778173828125,284.0,1000.0,29.920025442199567,6.148529280469688,284000,142000.0,14785.283871173859
6.738956548690796,-3.9315460233688353,-4.81242618560791,0.05140621419250965,142500.0,0.007913321601226925,4.813832111358643,4.813823455810547,4.81385124206543,285.0,1000.0,24.93442685609763,6.020634393797531,285000,142500.0,14951.37932419777
6.731693609237671,-3.9246944398880004,-4.811891756057739,0.05123039397597313,143000.0,0.007383087293244898,4.813549911499023,4.813544683456421,4.813505903244018,286.0,1000.0,15.862863907269876,6.012812569852755,286000,143000.0,15117.69084572792
6.724421880722046,-3.9180413274765016,-4.806885734558105,0.05132550515234471,143500.0,0.008195246615447105,4.809111682891846,4.809111255645752,4.8091284351348875,287.0,1000.0,28.52203783003565,15.229867493670595,287000,143500.0,15183.351300954819
6.717141317367553,-3.910902928352356,-4.807048509597778,0.05122912064194679,144000.0,0.00764821694791317,4.808464546203613,4.808491674423218,4.80848777961731,288.0,1000.0,25.658243832589584,6.006750485247678,288000,144000.0,15349.830666303635
6.709851961135865,-3.9038212957382203,-4.8059013671875,0.051090000838041306,144500.0,0.008125093652866781,4.807297319412231,4.8072795448303225,4.807358713150024,289.0,1000.0,25.337075767271664,5.99235960663322,289000,144500.0,15516.709838151932
6.702553674697876,-3.8972029066085816,-4.806132232666015,0.051226548239588734,145000.0,0.00816653728671372,4.8086474418640135,4.808667701721191,4.8086093044281,290.0,1000.0,26.56548115156587,5.86091265318734,290000,145000.0,15687.331730365753
6.6952465019226075,-3.890274374961853,-4.80715249633789,0.05118708524107933,145500.0,0.010577684761956333,4.811134757995606,4.811025451660156,4.811026107788086,291.0,1000.0,25.68347990731305,4.566610850337166,291000,145500.0,15906.312510251999
6.687930433273316,-3.883376375198364,-4.804778177261353,0.05116592502593994,146000.0,0.007811815655790269,4.806745332717895,4.806781944274903,4.8068649921417235,292.0,1000.0,25.690134327950236,6.042718792861439,292000,146000.0,16071.80093383789
6.680605459213257,-3.876521283149719,-4.806473087310791,0.051204265743494036,146500.0,0.007414085524156689,4.808124095916748,4.808127956390381,4.808129188537598,293.0,1000.0,26.659385438571793,5.828059645858738,293000,146500.0,16243.384629011154
6.673271511077881,-3.869231225013733,-4.80745947265625,0.05108787408471108,147000.0,0.007622376638930291,4.809060733795166,4.809044912338257,4.809036403656006,294.0,1000.0,27.536593611726765,6.120934844059888,294000,147000.0,16406.75836801529
6.665928564071655,-3.862516947746277,-4.806253131866455,0.051187845572829245,147500.0,0.007262625037692487,4.808060880661011,4.8080653438568115,4.808077562332153,295.0,1000.0,25.243060557607155,5.935343842172958,295000,147500.0,16575.240606069565
6.658576627731323,-3.855380506515503,-4.80958012008667,0.05128242354094982,148000.0,0.007797663831152022,4.81103698348999,4.811022699356079,4.811035789489746,296.0,1000.0,24.743930983708122,6.079269834573287,296000,148000.0,16739.734045743942
6.651215705871582,-3.8486302633285523,-4.803867378234863,0.05122141769528389,148500.0,0.007532238454557956,4.805165311813354,4.805202575683594,4.805126308441162,297.0,1000.0,28.657245270293256,6.048693250889707,297000,148500.0,16905.059011936188
6.643845706939698,-3.8418818864822386,-4.808218713760376,0.05127196429669857,149000.0,0.007751032834872603,4.80977961730957,4.8097503433227535,4.809885684967041,298.0,1000.0,15.449884148075535,5.989299317249088,298000,149000.0,17072.023452043533
6.636466667175293,-3.8348730392456054,-4.8008464927673336,0.05108162915706634,149500.0,0.007440963830798865,4.802326257705689,4.802341968536377,4.8023104648590085,299.0,1000.0,24.948792716563172,6.16035537956644,299000,149500.0,17234.351750850677
6.629078535079956,-3.8274185485839842,-4.80021989440918,0.05111076107621193,150000.0,0.007517348187044263,4.801449029922486,4.8014640026092525,4.801424663543701,300.0,1000.0,26.362726370862585,6.13575795138936,300000,150000.0,17397.330801725388
6.621681262969971,-3.8212341480255128,-4.800250991821289,0.051139870509505275,150500.0,0.0070735991699621085,4.801686557769775,4.801659633636475,4.80169868850708,301.0,1000.0,25.544105543001,4.735917094713029,301000,150500.0,17608.483147621155
6.614274909973145,-3.814022988319397,-4.79741202545166,0.051202074587345124,151000.0,0.00757271220907569,4.8004610595703125,4.800462112426758,4.800452322006225,302.0,1000.0,26.945161063583278,6.144898895493312,302000,151000.0,17771.21975684166
6.606859405517578,-3.807019768714905,-4.80617610168457,0.05117927505075932,151500.0,0.007293135363608599,4.808298011779785,4.808323471069336,4.808292949676514,303.0,1000.0,26.93119804916769,5.91618718274242,303000,151500.0,17940.247540473938
6.599434671401977,-3.800164539337158,-4.806422016143799,0.05117252518236637,152000.0,0.007316899436526,4.808177062988281,4.808142566680909,4.808221517562866,304.0,1000.0,24.883302806689354,6.010419314111171,304000,152000.0,18106.625284671783
6.592000831604004,-3.7931662130355837,-4.799582864761352,0.05112523527443409,152500.0,0.007365145738702268,4.801413026809692,4.801413930892944,4.801434217453003,305.0,1000.0,27.47544806837856,14.123642395507412,305000,152500.0,18177.42855167389
6.584557643890381,-3.7854689264297487,-4.802522598266601,0.051254233404994014,153000.0,0.007380814518779516,4.804715785980225,4.80474094581604,4.804672672271728,306.0,1000.0,27.202728424389417,5.84109059891089,306000,153000.0,18348.62945818901
6.577105270385742,-3.778718047142029,-4.806708087921143,0.05121423456072807,153500.0,0.007255114086903632,4.80799626159668,4.808004608154297,4.808025039672851,307.0,1000.0,28.73813869465646,6.112487212453004,307000,153500.0,18512.228984117508
6.569643632888794,-3.771640281677246,-4.8035501194000245,0.05124159617722034,154000.0,0.007722038893960417,4.805353921890259,4.805363649368286,4.805432863235474,308.0,1000.0,14.987239708562768,6.080973300900578,308000,154000.0,18676.676344394684
6.562172714233398,-3.7645605840682985,-4.801799537658692,0.05114279597997665,154500.0,0.0070090206004679205,4.8048074989318845,4.80480916595459,4.804735876083374,309.0,1000.0,24.64855431708175,5.02148960367434,309000,154500.0,18875.82044005394
6.554692438125611,-3.758141019821167,-4.798956996917725,0.05125011245906353,155000.0,0.008130211758427323,4.80404517364502,4.804014682769775,4.804038105010986,310.0,1000.0,28.070286525603013,5.479914825457935,310000,155000.0,19058.30502963066
6.547202898025513,-3.750686597824097,-4.804446430206299,0.051251226082444194,155500.0,0.007592029257677496,4.807274217605591,4.807281604766846,4.807303518295288,311.0,1000.0,28.084943751595784,3.902288475602647,311000,155500.0,19314.564919233322
6.5397039299011235,-3.7436191568374633,-4.804293109893798,0.051051756024360656,156000.0,0.008034849096089602,4.807259527206421,4.807333702087402,4.807202894210816,312.0,1000.0,26.123924882175302,9.314323497407774,312000,156000.0,19421.92644882202
6.532195657730102,-3.7364892930984497,-4.802745429992676,0.051033787459135053,156500.0,0.007394667772576213,4.804749908447266,4.804705625534058,4.804745861053467,313.0,1000.0,31.210796857775282,4.774333156611197,313000,156500.0,19631.379784584045
6.524677875518798,-3.7298808555603027,-4.807672197341919,0.0512776408046484,157000.0,0.008022173395380378,4.809367757797241,4.809371147155762,4.8094194107055666,314.0,1000.0,32.91862170287466,4.586920065257365,314000,157000.0,19849.390997171402
6.517150714874267,-3.7226027088165283,-4.812175235748291,0.05141177323460579,157500.0,0.007784478216897696,4.813614952087402,4.813630146026611,4.813631586074829,315.0,1000.0,25.055335941677228,7.79033084589543,315000,157500.0,19977.755251407623
6.5096141052246095,-3.7152053451538087,-4.812759756088257,0.051411101177334786,158000.0,0.00812452388415113,4.8135029945373535,4.813532304763794,4.813502534866333,316.0,1000.0,24.829928229722952,8.701464690390127,316000,158000.0,20092.678432941437
6.5020680103302,-3.708158729553223,-4.817657609939575,0.05129664252698422,158500.0,0.007336773943621666,4.818132616043091,4.8181116561889645,4.81813101196289,317.0,1000.0,26.40827061768579,4.437690220701551,317000,158500.0,20318.02088713646
6.494512393951416,-3.7008167123794555,-4.819045125961304,0.051312816709280014,159000.0,0.00822348279505968,4.820069627761841,4.820052000045776,4.820163717269898,318.0,1000.0,16.973012876939105,8.422046049430053,318000,159000.0,20436.756881952286
6.486947269439697,-3.6939279289245603,-4.814234359741211,0.051129871740937236,159500.0,0.008310489609837532,4.815152223587036,4.815180500030517,4.815127925872803,319.0,1000.0,24.64311574980805,7.920664428578304,319000,159500.0,20563.00891852379
6.4793725624084475,-3.6867529067993163,-4.813245601654053,0.05115651625394821,160000.0,0.00722422505915165,4.8136410179138185,4.813639518737793,4.813645957946777,320.0,1000.0,27.988779871931033,4.07497538733924,320000,160000.0,20808.40917658806
6.471788341522217,-3.679888995170593,-4.814579013824463,0.05118878103792667,160500.0,0.008163579866755753,4.818127277374267,4.818110187530517,4.818136838912964,321.0,1000.0,26.99626153916065,3.365994696673083,321000,160500.0,21105.498177289963
6.464194480895996,-3.6723927001953127,-4.816282642364502,0.05140566127002239,161000.0,0.00798341181408614,4.820213171005249,4.820235315322876,4.820295295715332,322.0,1000.0,26.651685023222736,6.035470068194472,322000,161000.0,21271.185356616974
6.4565910091400145,-3.665599242210388,-4.816229797363281,0.051310408294200895,161500.0,0.007004889356903732,4.818016622543335,4.818035484313965,4.817966003417968,323.0,1000.0,14.982407685232321,6.338119705972999,323000,161500.0,21428.96085691452
6.448977891921997,-3.657929609298706,-4.81365071105957,0.051146687164902685,162000.0,0.007795687184669078,4.814952934265137,4.814974580764771,4.815105972290039,324.0,1000.0,27.47396107098177,6.388202101168336,324000,162000.0,21585.49942445755
6.44135510635376,-3.6509489078521726,-4.814626585006714,0.05124734407663346,162500.0,0.00804514176864177,4.816024465560913,4.816088562011719,4.815944135665894,325.0,1000.0,15.050811652014131,3.9095653658031497,325000,162500.0,21841.282333612442
6.433722570419311,-3.64399686050415,-4.807148958206176,0.05105052122473717,163000.0,0.00760896572843194,4.808485147476197,4.808517578125,4.808543897628784,326.0,1000.0,28.203687358187008,3.982430233009907,326000,163000.0,22092.385290145874
6.426080379486084,-3.636410111427307,-4.8039653053283695,0.05115211772918701,163500.0,0.008709492057561875,4.8057554340362545,4.805788024902344,4.8058523788452145,327.0,1000.0,28.2326425205235,6.590605518843004,327000,163500.0,22244.116417646408
6.418428407669067,-3.6296493949890136,-4.803767051696777,0.051121876031160356,164000.0,0.007821682960726321,4.804924383163452,4.804898162841797,4.80483112335205,328.0,1000.0,27.478105139590657,6.484015992140891,328000,164000.0,22398.34182524681
6.410766681671142,-3.6224923429489135,-4.812838176727295,0.051204303577542305,164500.0,0.007890796017833055,4.814494361877442,4.814539901733398,4.8144725303649905,329.0,1000.0,27.543667941072016,6.801323974886085,329000,164500.0,22545.37202525139
6.403095123291016,-3.615341565132141,-4.810479946136475,0.05123766945302487,165000.0,0.007504599334672094,4.811978677749634,4.811952537536621,4.811953746795655,330.0,1000.0,34.771724043809364,6.472109008043483,330000,165000.0,22699.881167173386
6.395413812637329,-3.607776369094849,-4.809165205001831,0.05111999699473381,165500.0,0.007369890050031244,4.810780378341675,4.810820320129395,4.810785209655761,331.0,1000.0,30.607739795958178,3.650262293501292,331000,165500.0,22973.83408498764
6.387722602844239,-3.6006105756759643,-4.810973278045655,0.05127159534394741,166000.0,0.007741516647860408,4.813313268661499,4.81333829498291,4.813329675674439,332.0,1000.0,15.418076878847268,8.630190630694319,332000,166000.0,23089.706381082535
6.380021556854248,-3.5936870069503786,-4.80934736251831,0.05112051166594028,166500.0,0.007637114017270506,4.81071993637085,4.810669565200806,4.810626445770263,333.0,1000.0,25.25156399291343,4.317319091157344,333000,166500.0,23321.331606149673
6.372310598373413,-3.5862914371490477,-4.806083450317383,0.051071910694241524,167000.0,0.008807232404127717,4.807339860916137,4.807345167160034,4.8073972244262695,334.0,1000.0,30.977674901698883,7.9221044537513885,334000,167000.0,23447.560692310333
6.364589702606201,-3.5789921827316284,-4.8034298191070555,0.05116247172653675,167500.0,0.0075588830225169655,4.804425682067871,4.804435482025147,4.80437523651123,335.0,1000.0,24.376590529979683,7.082855570050302,335000,167500.0,23588.746686697006
6.356858871459961,-3.571776093482971,-4.808119256973266,0.05116740506887436,168000.0,0.007663323948159814,4.808994644165039,4.8089542579650875,4.809022653579712,336.0,1000.0,27.581942997763466,4.455670054210983,336000,168000.0,23813.179824352264
6.349118061065674,-3.5645489435195925,-4.808896152496338,0.05117374251782894,168500.0,0.0073448806116357445,4.8102842140197755,4.81030509185791,4.810262537002563,337.0,1000.0,25.65036813073695,4.375700684706837,337000,168500.0,24041.714653253555
6.341367254257202,-3.5569172716140747,-4.811095724105835,0.051232182890176774,169000.0,0.007965325731784106,4.812324508666992,4.812304864883423,4.81233853340149,338.0,1000.0,24.28096819022696,8.046166686150766,338000,169000.0,24165.997438192368
6.333606424331665,-3.549804210662842,-4.807811195373535,0.051156568557024,169500.0,0.0076480704350396994,4.808925064086914,4.808947164535523,4.80898177909851,339.0,1000.0,25.273761496751142,8.05851823182918,339000,169500.0,24290.089731931686
6.325835525512695,-3.5426320114135743,-4.810270278930664,0.05134568327665329,170000.0,0.00823707712162286,4.811821926116943,4.811782035827637,4.811722841262817,340.0,1000.0,26.01524656514192,8.229312522694574,340000,170000.0,24411.60656642914
6.318054567337036,-3.5354124336242676,-4.810349149703979,0.05128071588277817,170500.0,0.008380168130621314,4.811453519821167,4.81138424873352,4.811402969360351,341.0,1000.0,16.54767769556495,5.573375481191675,341000,170500.0,24591.031048059464
6.310263523101806,-3.5284002628326414,-4.804190435409546,0.05125444859266281,171000.0,0.008458921398036182,4.805056606292725,4.805141544342041,4.805140724182129,342.0,1000.0,26.61405591484699,7.470729797447874,342000,171000.0,24724.886780261993
6.302462324142456,-3.520524429321289,-4.800576951980591,0.05114650598168373,171500.0,0.007829614303074777,4.803807941436768,4.803713346481323,4.803822713851929,343.0,1000.0,25.182631905284893,7.916763376839527,343000,171500.0,24851.201028108597
6.294650943756103,-3.513681926727295,-4.807188737869263,0.0511534453779459,172000.0,0.008711465170606971,4.808465023040771,4.808470668792725,4.8082939167022705,344.0,1000.0,25.251443891340436,4.249913028246787,344000,172000.0,25086.4999628067
6.286829442977905,-3.506295372962952,-4.8083593444824215,0.0511175576299429,172500.0,0.007952562628313899,4.809306570053101,4.809278570175171,4.809377388000488,345.0,1000.0,25.214146848330692,7.394266497255156,345000,172500.0,25221.73988199234
6.278997674942016,-3.4985968542098997,-4.802567834854126,0.05110567358136177,173000.0,0.007959390921518207,4.803874786376953,4.803810682296753,4.803813192367554,346.0,1000.0,25.251792280007294,4.239908116751033,346000,173000.0,25457.594051599503
6.271155696868896,-3.4916752023696898,-4.803262113571167,0.05119501258432865,173500.0,0.008465312336571515,4.807881942749024,4.807824920654297,4.807871017456055,347.0,1000.0,23.505524333335615,4.1648814449252125,347000,173500.0,25697.696925640106
6.263303430557251,-3.4839154434204103,-4.796763282775879,0.05106616289913654,174000.0,0.008561666145455091,4.800922901153564,4.800806465148926,4.800912260055542,348.0,1000.0,24.73570928352601,8.17290149355399,348000,174000.0,25820.052493810654
6.255440832138062,-3.4767934436798096,-4.799190189361572,0.05121874150633812,174500.0,0.00840483090467751,4.801586919784546,4.801589378356933,4.801587976455688,349.0,1000.0,31.356344330815794,7.350804615189768,349000,174500.0,25956.092024087906
6.2475680751800535,-3.469207325935364,-4.7974057960510255,0.05106198514997959,175000.0,0.00807003110833466,4.7987829761505125,4.798654022216797,4.798730138778686,350.0,1000.0,27.50609353898148,4.21212054119239,350000,175000.0,26193.502135038376
6.2396848697662355,-3.462069578170776,-4.801535572052002,0.05120866514742375,175500.0,0.008719500422477723,4.802770439147949,4.802800315856934,4.8027918243408205,351.0,1000.0,24.659585740786227,3.459224113208501,351000,175500.0,26482.584303617477
6.231791315078735,-3.4550252017974854,-4.800225965499878,0.05096946594119072,176000.0,0.008227191470563411,4.800732542037964,4.8007136287689205,4.800753385543823,352.0,1000.0,27.15018550447619,4.183267644733916,352000,176000.0,26721.631882190704
6.223887348175049,-3.447318380355835,-4.809047288894654,0.05118504972755909,176500.0,0.008413121485617011,4.809672080993653,4.809683267593384,4.809766973495483,353.0,1000.0,26.621393186478514,6.886982080041443,353000,176500.0,26866.833364486694
6.215972948074341,-3.4396695280075074,-4.811671352386474,0.05112595364451408,177000.0,0.007892091754823923,4.8120342655181885,4.812033308029175,4.812057720184326,354.0,1000.0,27.359101847182476,4.110126025508072,354000,177000.0,27110.134907722473
6.208048124313354,-3.4322014846801756,-4.81464401435852,0.05130184504389763,177500.0,0.007942558404058218,4.814743942260742,4.814752576828003,4.8147082462310795,355.0,1000.0,25.716404839190897,9.352610000836256,355000,177500.0,27217.056933879852
6.200112819671631,-3.424750400543213,-4.814758186340332,0.05130858588218689,178000.0,0.007972770554944874,4.8154826126098635,4.815449684143067,4.8155560970306395,356.0,1000.0,25.38814908058159,4.760956450323248,356000,178000.0,27427.09876513481
6.192166965484619,-3.4177779550552367,-4.818664916992187,0.05128043961524963,178500.0,0.007573729464784264,4.819436700820923,4.819456953048706,4.819472276687622,357.0,1000.0,25.528458104302572,8.59632477799356,357000,178500.0,27543.42754840851
6.184210605621338,-3.4103158102035525,-4.813874038696289,0.05115271770954132,179000.0,0.008071374437771738,4.813795400619507,4.813797723770142,4.813861717224121,358.0,1000.0,25.314635269752376,8.218392452422734,358000,179000.0,27665.105846881866
6.176243667602539,-3.4026947917938233,-4.8172070560455325,0.051095730945467946,179500.0,0.007937599766999483,4.8174665164947506,4.81747456741333,4.817527164459229,359.0,1000.0,25.152365590711764,5.016118596405941,359000,179500.0,27864.46317577362
6.168266147613525,-3.3953726406097413,-4.821460029602051,0.05120498432219028,180000.0,0.00711933133052662,4.821373937606811,4.821365312576294,4.82132820892334,360.0,1000.0,15.735498207947886,3.8770703523689356,360000,180000.0,28122.389888048172
6.160277988433838,-3.3875648574829103,-4.817145933151245,0.05102909635007381,180500.0,0.007500544717535376,4.816848426818848,4.816833492279053,4.816860391616821,361.0,1000.0,28.507085902581313,4.61039967532388,361000,180500.0,28339.290823698044
6.152279186248779,-3.37951624584198,-4.822499423980713,0.051068753093481065,181000.0,0.00813537646178156,4.822558456420898,4.822564775466919,4.822658851623535,362.0,1000.0,16.015227452253125,5.959544087795687,362000,181000.0,28507.08889579773
6.144269695281983,-3.3725701274871827,-4.807008232116699,0.05112669679522514,181500.0,0.00810805032774806,4.813913724899292,4.813874160766601,4.813889911651612,363.0,1000.0,27.066141194139696,5.9179193843936195,363000,181500.0,28676.067204475403
6.136249536514282,-3.36501140499115,-4.812893610000611,0.05106794913113117,182000.0,0.007708409031387418,4.817072378158569,4.817147727966309,4.817178611755371,364.0,1000.0,27.17554648374805,3.716074570866779,364000,182000.0,28945.1683716774
6.128218656539917,-3.357979859352112,-4.812938772201538,0.05103748893737793,182500.0,0.007516253050416708,4.815553133010864,4.815509511947631,4.815470886230469,365.0,1000.0,25.68953168389733,5.668774182347512,365000,182500.0,29121.573353767395
6.120176961898804,-3.3501806144714354,-4.813536962509155,0.050943976655602456,183000.0,0.007774575171992182,4.815104333877564,4.8151283473968505,4.815200443267822,366.0,1000.0,15.818083098456032,3.352973032578358,366000,183000.0,29419.816134929657
6.112124481201172,-3.3421800012588503,-4.815020219802856,0.051135384395718575,183500.0,0.007543227953836322,4.81597779083252,4.8159654998779295,4.816056253433228,367.0,1000.0,28.141461203324287,4.810338807999754,367000,183500.0,29627.7017018795
6.10406120300293,-3.3350979709625244,-4.816762783050537,0.05106999805569649,184000.0,0.007418795712757856,4.817103427886963,4.817124944686889,4.817033502578735,368.0,1000.0,25.00397813091341,3.4465241150493666,368000,184000.0,29917.849100589752
6.095987066268921,-3.327295174598694,-4.81311402130127,0.05097504802048206,184500.0,0.007747364352457225,4.813249710083007,4.81323380279541,4.813347839355469,369.0,1000.0,24.949427913649988,5.184408209334899,369000,184500.0,30110.735147953033
6.087902021408081,-3.3193752794265747,-4.8159813194274905,0.05105559818446636,185000.0,0.007295953398570418,4.816219200134277,4.816217889785767,4.816238042831421,370.0,1000.0,25.62773274646449,5.013822012158811,370000,185000.0,30310.183792352676
6.079806089401245,-3.3121119747161867,-4.822306058883667,0.05124045294523239,185500.0,0.007103651935234666,4.822830995559692,4.822835168838501,4.822849145889283,371.0,1000.0,28.316356460919078,3.8703924111391235,371000,185500.0,30568.55554509163
6.071699226379395,-3.3044227590560915,-4.82020471572876,0.05100714676082134,186000.0,0.007454678049776703,4.820939964294434,4.82094119644165,4.8210114517211915,372.0,1000.0,25.81040552102125,5.30410687031558,372000,186000.0,30757.088683605194
6.063581396102905,-3.2968524646759034,-4.8237188510894775,0.0510695765465498,186500.0,0.007796640055254102,4.824478105545044,4.824475997924805,4.824511669158936,373.0,1000.0,32.85026086937698,5.043410553094266,373000,186500.0,30955.36720943451
6.055452548980713,-3.289871403694153,-4.825738681793213,0.05120417821407318,187000.0,0.007831491158343851,4.827795749664307,4.827879974365234,4.827816816329956,374.0,1000.0,24.252251065120234,3.277662916461635,374000,187000.0,31260.462648391724
6.047312671661377,-3.282323916435242,-4.824465427398682,0.05106423869729042,187500.0,0.007579952340573072,4.828183506011963,4.828117679595947,4.828136940002441,375.0,1000.0,28.28427217021527,4.979174042438839,375000,187500.0,31461.29917192459
6.039161714553833,-3.274415774345398,-4.82525496673584,0.0511052107065916,188000.0,0.0072452430920675395,4.825855554580689,4.8258487987518315,4.82589248085022,376.0,1000.0,18.39327539655158,4.963126359900414,376000,188000.0,31662.78507709503
6.030999753952027,-3.2659512786865235,-4.826425897598266,0.05123845376074314,188500.0,0.0074303190540522335,4.8270647354125975,4.827044862747193,4.827070428848266,377.0,1000.0,16.19662698625955,4.813694500314691,377000,188500.0,31870.525723218918
6.022826620101929,-3.2590984878540037,-4.8216236877441405,0.05112885992228985,189000.0,0.00631219027377665,4.822363256454468,4.822382026672363,4.822385637283325,378.0,1000.0,33.21050974735153,4.843710932439045,378000,189000.0,32076.979003429413
6.014642364501953,-3.25145938873291,-4.819396244049072,0.05095812521874905,189500.0,0.006954891506116837,4.820978630065918,4.820983436584473,4.821016561508179,379.0,1000.0,24.766532976347243,3.259601301986242,379000,189500.0,32383.76499080658
6.006446855545044,-3.2444023370742796,-4.824812602996826,0.05107906727492809,190000.0,0.006601233563851565,4.8259192543029785,4.825898138046265,4.82591918182373,380.0,1000.0,27.453461157865537,3.219426277338568,380000,190000.0,32694.379341602325
5.9982402153015135,-3.236366976737976,-4.820158313751221,0.0509322115033865,190500.0,0.007417682019528002,4.820546911239624,4.820558921813965,4.8205393733978275,381.0,1000.0,14.93770294401498,3.7739697621693367,381000,190500.0,32959.352319955826
5.990022302627564,-3.228619987487793,-4.822736249923706,0.05097303152084351,191000.0,0.006748220308683813,4.823130689620972,4.823123857498169,4.823192445755005,382.0,1000.0,16.386053250599275,3.3712388104132835,382000,191000.0,33255.9791867733
5.981793136596679,-3.220303936958313,-4.820582860946655,0.05093484573066234,191500.0,0.007963270572945476,4.821309673309326,4.821319896697998,4.821323087692261,383.0,1000.0,24.97518599975406,6.910867875493615,383000,191500.0,33400.678814888
5.97355265045166,-3.2132671031951903,-4.817030693054199,0.0510229811668396,192000.0,0.007724873648490757,4.818608623504638,4.818595188140869,4.8185657749176025,384.0,1000.0,24.446521646882204,6.401101195300387,384000,192000.0,33556.90193557739
5.965300838470459,-3.2047914457321167,-4.81980598449707,0.051130871385335924,192500.0,0.007383189637213946,4.82012165260315,4.820130519866943,4.820218463897705,385.0,1000.0,27.60361677617491,6.425137015230669,385000,192500.0,33712.540640830994
5.957037656784058,-3.197901361465454,-4.826789934158326,0.051137913063168526,193000.0,0.007629991541616619,4.8274746532440185,4.82747817993164,4.827485719680786,386.0,1000.0,27.600880846282696,4.034136338035261,386000,193000.0,33960.425174713135
5.948763095855713,-3.1892963333129885,-4.826300136566162,0.05100410138070583,193500.0,0.006530241637956351,4.82687968826294,4.826862600326538,4.826823122024536,387.0,1000.0,25.13182132447574,4.017363545329152,387000,193500.0,34209.34464478493
5.940477111816406,-3.182464725494385,-4.821608180999756,0.050833920240402224,194000.0,0.006790835003834218,4.821759632110596,4.8217714977264405,4.821758460998535,388.0,1000.0,25.03167975019101,6.253247429442983,388000,194000.0,34369.26155614853
5.932179634094238,-3.17507559299469,-4.824328165054322,0.051046236351132396,194500.0,0.006575655720196664,4.824250057220459,4.824252521514892,4.824293731689453,389.0,1000.0,29.38672122591135,6.619805000803284,389000,194500.0,34520.323409318924
5.923870687484741,-3.166979164123535,-4.826419692993164,0.05107662083208561,195000.0,0.00728843645984307,4.827452585220337,4.8274540519714355,4.827500219345093,390.0,1000.0,25.17923040162394,6.487586335642547,390000,195000.0,34674.4639415741
5.915550199508667,-3.1593658027648925,-4.82825857925415,0.05119335755705833,195500.0,0.006787677361629904,4.830114011764526,4.830117542266846,4.8301747570037845,391.0,1000.0,27.163387561849888,5.1180038285653415,391000,195500.0,34869.85262012482
5.907218183517456,-3.151468987464905,-4.833084671020508,0.05105952914059162,196000.0,0.006878557216376066,4.833315752029419,4.833301788330078,4.833241121292114,392.0,1000.0,21.20350995201377,6.220261271842557,392000,196000.0,35030.61757230759
5.898874549865723,-3.1438512535095215,-4.829186990737915,0.05092760729789734,196500.0,0.0061656693248078225,4.829513328552246,4.829523271560669,4.829571237564087,393.0,1000.0,26.734630514342825,6.703051937245046,393000,196500.0,35179.80334854126
5.890519346237182,-3.136115116119385,-4.832185358047485,0.051010341688990594,197000.0,0.006663111992180348,4.832632259368896,4.832625896453857,4.832676626205444,394.0,1000.0,27.482887952099407,3.9991157350751196,394000,197000.0,35429.85862827301
5.882152435302735,-3.128432336807251,-4.829984085083008,0.05093659776449203,197500.0,0.00590492563508451,4.830410007476806,4.830430278778076,4.830393352508545,395.0,1000.0,14.983010435313384,5.106728770166335,395000,197500.0,35625.67870259285
5.873773880004883,-3.1206176300048827,-4.832446029663086,0.050985649690032005,198000.0,0.006325413045007736,4.833177255630493,4.833164039611816,4.833167911529541,396.0,1000.0,26.77772037876863,4.3808638813224805,396000,198000.0,35853.94418525696
5.86538360786438,-3.1128912057876588,-4.834704977035522,0.050989140957593916,198500.0,0.006648596192710102,4.834709407806397,4.834710063934327,4.834700580596924,397.0,1000.0,27.167064095605028,7.940653216484293,397000,198500.0,35979.87840938568
5.856981569290161,-3.1046846160888673,-4.831804500579834,0.051107132062315944,199000.0,0.006993175562471151,4.831796178817749,4.831800189971924,4.831793369293213,398.0,1000.0,24.976853051882387,6.045754069798468,398000,199000.0,36145.283749341965
5.848567735671997,-3.097160343170166,-4.830026428222657,0.05089920952916145,199500.0,0.00678919046279043,4.830738784790039,4.830735551834106,4.830736616134644,399.0,1000.0,25.060398391156124,6.097339629156009,399000,199500.0,36309.28970503807
5.840142105102539,-3.0886443996429445,-4.835448234558106,0.0511527408361435,200000.0,0.006906238973140717,4.8355174751281735,4.835516542434692,4.835546998977661,400.0,1000.0,27.222527236912658,6.201888554959156,400000,200000.0,36470.53091669083
5.83170461845398,-3.0816010808944703,-4.82925431060791,0.050909424468874934,200500.0,0.0064232153645716605,4.8303303527832036,4.830323764801025,4.830353059768677,401.0,1000.0,24.7663081766034,4.714214502982108,401000,200500.0,36682.65533185005
5.823255279541016,-3.072932744026184,-4.830691232681274,0.05107075057923794,201000.0,0.0063349176980555056,4.8311740531921386,4.831160562515259,4.8311777000427245,402.0,1000.0,26.359129051306628,6.143880488324759,402000,201000.0,36845.41891646385
5.814793998718262,-3.0653850469589234,-4.831789251327515,0.05094445933401585,201500.0,0.006587941932026297,4.832284666061401,4.832298198699951,4.832277484893799,403.0,1000.0,27.931260650523843,6.001245942345049,403000,201500.0,37012.050981760025
5.806320772171021,-3.0580424642562867,-4.840319791793823,0.05106765976548195,202000.0,0.006333860953804105,4.840384641647339,4.840382001876831,4.840382520675659,404.0,1000.0,28.36502333384091,6.004761935024192,404000,202000.0,37178.585478782654
5.797835563659668,-3.0496422786712647,-4.835108268737793,0.050981597766280175,202500.0,0.006816657108254731,4.835170763015747,4.835176481246949,4.8351644630432125,405.0,1000.0,18.035387786400122,5.918961477674839,405000,202500.0,37347.534036397934
5.7893383502960205,-3.0420636072158813,-4.834251094818115,0.05102587901055813,203000.0,0.0067104357173666355,4.834441707611084,4.834442718505859,4.834497646331787,406.0,1000.0,35.08752687112915,6.132076913010484,406000,203000.0,37510.610923051834
5.780829048156738,-3.0340638637542723,-4.837564247131348,0.05112848000228405,203500.0,0.006126380849629641,4.837561847686768,4.837557031631469,4.837519176483155,407.0,1000.0,29.82284520991654,6.132142601023634,407000,203500.0,37673.68606233597
5.772307703018188,-3.0260911083221433,-4.8376507396698,0.0510808707177639,204000.0,0.0062298099882900715,4.837998538970948,4.8380068531036375,4.8380225524902345,408.0,1000.0,33.768676791334336,5.863723944869192,408000,204000.0,37844.22615146637
5.763774213790893,-3.018475866317749,-4.844781354904175,0.0511673134714365,204500.0,0.00626357782818377,4.845160120010376,4.845150445938111,4.8451615257263185,409.0,1000.0,24.959230946907986,16.042115141933532,409000,204500.0,37906.562073946
5.755228582382202,-3.0106422386169434,-4.84713392829895,0.05117364689707756,205000.0,0.006625438997521996,4.847445043563843,4.847452180862427,4.847454853057862,410.0,1000.0,24.956013853224732,6.079419411086306,410000,205000.0,38071.051466464996
5.746670783996582,-3.001945638656616,-4.843597261428833,0.051172470778226856,205500.0,0.005794372324831784,4.844265760421753,4.84426035118103,4.844351337432862,411.0,1000.0,27.238715998670305,5.050778361196198,411000,205500.0,38269.040753126144
5.738100742340088,-2.9940557584762573,-4.841100435256958,0.0510031620413065,206000.0,0.0057750934986397625,4.841113704681397,4.841112024307251,4.841044477462768,412.0,1000.0,27.516821319122396,6.449239276641909,412000,206000.0,38424.097801446915
5.729518449783325,-2.986396842002869,-4.842651990890503,0.05117242567241192,206500.0,0.005813189315609634,4.842921670913697,4.8429220733642575,4.842897434234619,413.0,1000.0,33.373911665476285,6.3495739712119885,413000,206500.0,38581.58868408203
