cmpe-260-team-4/drqv2/src/main/tex/experiments/walker_run_2090_train_D.csv
actor_ent,actor_logprob,actor_loss,batch_reward,buffer_size,critic_loss,critic_q1,critic_q2,critic_target_q,episode,episode_length,episode_reward,fps,frame,step,total_time
8.489292400360107,-5.621339237213134,-0.18384461573138833,0.0499467945098877,2500.0,0.002164532460505143,0.18223661272972821,0.1825484880283475,0.18235883739590644,5.0,1000.0,22.431738333332877,4.882990183076764,5000,2500.0,204.79255080223083
8.483867996215821,-5.607414196014404,-0.3814169803857803,0.049027660414576534,3000.0,0.0015623063989914953,0.3435411729812622,0.343503505885601,0.34360514134168624,6.0,1000.0,40.16734954829312,18.034425989272435,6000,3000.0,260.24205780029297
8.47843869781494,-5.596492584228516,-0.6298232944011688,0.05274387547373772,3500.0,0.0035283216387033463,0.5833248034715652,0.5833204996585846,0.583602343916893,7.0,1000.0,45.84053224412954,18.125848593616908,7000,3500.0,315.41188979148865
8.473004383087158,-5.589579755783081,-0.8736630811691284,0.05806022748351097,4000.0,0.005915993989445269,0.8262783577442169,0.8262527868747711,0.8267588222026825,8.0,1000.0,38.64181357411347,18.015364901484443,8000,4000.0,370.9200644493103
8.46756530380249,-5.58346875,-1.172631880760193,0.06150734087824822,4500.0,0.012022791677154601,1.1201827747821809,1.1201945631504058,1.1204873602390288,9.0,1000.0,8.089346080283903,18.122536322217464,9000,4500.0,426.09998083114624
8.46212124633789,-5.578589235305786,-1.3777908697128296,0.05922158664464951,5000.0,0.007130022029392421,1.353271776676178,1.3532727904319763,1.3536307091712951,10.0,1000.0,43.025102690598445,18.191681132537354,10000,5000.0,481.0701632499695
8.456672191619873,-5.574583429336548,-1.6443861927986145,0.06077343325316906,5500.0,0.00652103862632066,1.5961344504356385,1.5961270923614501,1.5963620524406432,11.0,1000.0,46.97297555471198,6.291390522353138,11000,5500.0,640.0175380706787
8.451218204498291,-5.569386030197143,-1.8998309082984923,0.06284746401011944,6000.0,0.005609470845200122,1.8533972311019897,1.8534080190658568,1.8537823643684388,12.0,1000.0,46.35974032791982,17.829046139672368,12000,6000.0,696.1057903766632
8.445759254455567,-5.563474182128906,-2.1144667835235595,0.0649121056497097,6500.0,0.005094381175003946,2.0716463737487794,2.0716359786987306,2.0717969398498535,13.0,1000.0,46.22110328898926,17.70174642335527,13000,6500.0,752.5973925590515
8.440295337677002,-5.558630765914917,-2.3395293235778807,0.06850014367699624,7000.0,0.004946159580722451,2.298333354949951,2.298354836463928,2.298743532180786,14.0,1000.0,21.342657831043248,18.065332212605863,14000,7000.0,807.9520363807678
8.43482646560669,-5.552932327270508,-2.547550488471985,0.06693001854419708,7500.0,0.006593507062643766,2.5048747396469118,2.5048416223526,2.5051103172302245,15.0,1000.0,48.137963901419084,18.048232682191202,15000,7500.0,863.359124660492
8.429352561950683,-5.5478786373138425,-2.7469921522140504,0.06789041179418563,8000.0,0.008315126632340252,2.7130862607955932,2.713065179824829,2.7133903675079347,16.0,1000.0,43.4799182938411,18.40654899148726,16000,8000.0,917.6876153945923
8.423873683929443,-5.542997882843018,-2.9492705659866334,0.06875975997745991,8500.0,0.010689076261594892,2.9112886838912964,2.911288716316223,2.9114944725036622,17.0,1000.0,35.73195258385694,18.614588710093845,17000,8500.0,971.4089217185974
8.4183897895813,-5.53713423538208,-3.1451360301971434,0.06987590412795544,9000.0,0.010927632860839366,3.1060823364257812,3.1060869283676147,3.1065290689468386,18.0,1000.0,50.208847748525514,18.303456931159882,18000,9000.0,1026.0434114933014
8.41290087890625,-5.532064952850342,-3.343752904891968,0.07145359069108963,9500.0,0.014338846921920776,3.3030531129837035,3.3030288524627687,3.3030821409225464,19.0,1000.0,52.524899926940016,18.20130787878464,19000,9500.0,1080.9845218658447
8.407406944274902,-5.526421041488647,-3.5312452573776243,0.07257338678836822,10000.0,0.017050540771335363,3.4907359743118285,3.4907158498764037,3.490993206977844,20.0,1000.0,53.173952753436815,18.335846249273615,20000,10000.0,1135.5225024223328
8.401907958984374,-5.521260002136231,-3.749427953720093,0.07415166760981083,10500.0,0.02269518158957362,3.707394151687622,3.707400426864624,3.7080935430526734,21.0,1000.0,41.59163482268905,6.359367054376027,21000,10500.0,1292.7708580493927
8.396403945922852,-5.515819107055664,-3.9493343868255617,0.0752791619002819,11000.0,0.027036751799285413,3.9074035949707033,3.9074035511016847,3.9077364120483398,22.0,1000.0,53.92463590432875,17.940609406456616,22000,11000.0,1348.5103261470795
8.390894874572753,-5.5103564472198485,-4.152056847572327,0.07691856418550015,11500.0,0.028700449604541062,4.1108224401474,4.1108408203125,4.111068755149842,23.0,1000.0,47.23164735486453,17.97197068535839,23000,11500.0,1404.1525282859802
8.385380722045898,-5.505085844039917,-4.325378218650818,0.07711892987787723,12000.0,0.0285248807631433,4.287603309631348,4.287611209869385,4.287840795516968,24.0,1000.0,51.302934566387776,18.10091420728539,24000,12000.0,1459.398358821869
8.37986151123047,-5.499772928237915,-4.507842985153198,0.07798954638838768,12500.0,0.03349671265482902,4.46954726600647,4.469545667648315,4.469555374145508,25.0,1000.0,47.11702918068352,18.024862675026824,25000,12500.0,1514.8772847652435
8.374337253570557,-5.494467388153076,-4.696869554519654,0.07927131107449531,13000.0,0.035673039808869364,4.662076663970947,4.662087535858154,4.662635223388672,26.0,1000.0,36.11392212153802,17.785850364746977,26000,13000.0,1571.1017558574677
8.368807857513428,-5.489991424560547,-4.858051736831665,0.07892362633347512,13500.0,0.040764478944242004,4.823803617477417,4.823764501571655,4.824131187438965,27.0,1000.0,41.61471499516727,17.927561734805533,27000,13500.0,1626.88179063797
8.36327338027954,-5.484245233535766,-5.019396768569946,0.07897940281033516,14000.0,0.044996967181563374,4.982596843719483,4.982630247116089,4.982636299133301,28.0,1000.0,54.206835004504,17.914601356592282,28000,14000.0,1682.7021803855896
8.357733833312988,-5.47928697013855,-5.196435081481933,0.07998611716926098,14500.0,0.04571575628221035,5.159562702178955,5.1595605278015135,5.1600794506073,29.0,1000.0,55.10276181168634,17.880667083343265,29000,14500.0,1738.6285071372986
8.352189083099365,-5.473880256652832,-5.387153308868408,0.08120030650496483,15000.0,0.04726300755143165,5.3504104290008545,5.350381114959717,5.3506829509735105,30.0,1000.0,58.41872329438069,18.098826870657046,30000,15000.0,1793.8807082176208
8.34663924407959,-5.468597187042237,-5.573549753189087,0.08222389110922813,15500.0,0.05181210081279278,5.535974193572998,5.535958114624023,5.53629892539978,31.0,1000.0,62.49839369444119,6.550414359501593,31000,15500.0,1946.5428080558777
8.34108427810669,-5.462994379043579,-5.757127893447876,0.08363556602597237,16000.0,0.05022694537043571,5.715546487808227,5.715581373214722,5.715606693267822,32.0,1000.0,50.852405508343935,19.067202849919262,32000,16000.0,1998.9888870716095
8.335524158477783,-5.457839263916016,-5.923189413070679,0.08383580607175826,16500.0,0.05114321719110012,5.882348876953125,5.8823274269104004,5.882904916763306,33.0,1000.0,50.60404963798758,19.471056079679776,33000,16500.0,2050.3471710681915
8.329958869934082,-5.452583669662475,-6.10111092376709,0.08456831830739975,17000.0,0.049734944254159925,6.05773148727417,6.057733142852784,6.0575995407104495,34.0,1000.0,61.49070866378084,19.35309766143395,34000,17000.0,2102.0184869766235
8.324388427734375,-5.446964370727539,-6.28692371559143,0.08574119517207146,17500.0,0.05140044368803501,6.243662120819092,6.243713970184326,6.244144857406616,35.0,1000.0,62.424965880237316,19.111804226050904,35000,17500.0,2154.3421726226807
8.31881280899048,-5.441606733322144,-6.472796691894532,0.08659849566221237,18000.0,0.05408719430863857,6.426470809936523,6.4264986763000485,6.426696681976319,36.0,1000.0,56.972757611337805,19.148274006823762,36000,18000.0,2206.5662021636963
8.313231998443603,-5.43640772819519,-6.651297761917114,0.08755253258347512,18500.0,0.05951416411995888,6.601655082702637,6.601708513259887,6.6019091777801515,37.0,1000.0,73.96817580037778,19.11391200312928,37000,18500.0,2258.884117603302
8.307646003723145,-5.431254608154297,-6.8742373790740965,0.08927320250868798,19000.0,0.06325323517620564,6.823806579589844,6.823810585021973,6.824021741867066,38.0,1000.0,71.94945865095944,19.045450280208694,38000,19000.0,2311.3900978565216
8.302054790496825,-5.42614729309082,-7.079360652923584,0.09041618597507477,19500.0,0.0662890085875988,7.026239952087402,7.0261825160980225,7.02628816986084,39.0,1000.0,84.83871404629774,19.150985300885125,39000,19500.0,2363.6067337989807
8.29645837020874,-5.420811000823974,-7.301472131729126,0.09277022457122802,20000.0,0.07579974506795406,7.243616081237793,7.243698415756225,7.244203750610351,40.0,1000.0,62.47263175600177,18.892885956634824,40000,20000.0,2416.536711215973
8.29085671234131,-5.415374374389648,-7.526548168182373,0.0933073819577694,20500.0,0.07559617215394973,7.466995086669922,7.467004697799682,7.4673311786651615,41.0,1000.0,65.50557547192788,6.794765265861822,41000,20500.0,2563.7088305950165
8.285249820709229,-5.409954557418823,-7.7460489749908445,0.09424060055613517,21000.0,0.07765188528597355,7.683941146850586,7.68398582649231,7.684212852478027,42.0,1000.0,49.01196331293953,18.98263441132007,42000,21000.0,2616.3885595798492
8.279637683868408,-5.404887786865235,-7.939194019317627,0.09464430868625641,21500.0,0.09066421933472156,7.877761474609375,7.8777727565765385,7.878006774902344,43.0,1000.0,54.918487455856834,19.3063941811597,43000,21500.0,2668.184872150421
8.274020317077637,-5.399273141860962,-8.138190671920777,0.09500672852993011,22000.0,0.09997534918785095,8.07283533859253,8.072821704864502,8.073221736907959,44.0,1000.0,49.234032883221886,19.001377386756104,44000,22000.0,2720.812637090683
8.268397636413575,-5.39416022491455,-8.317686218261718,0.09469252163171768,22500.0,0.11064974436163902,8.254607961654663,8.254623466491699,8.254704929351806,45.0,1000.0,63.851016339522765,18.945885249720696,45000,22500.0,2773.5945479869843
8.26276974105835,-5.388849588394165,-8.536040210723877,0.0956981052160263,23000.0,0.12244299072027207,8.467358589172363,8.467368144989013,8.467728515625,46.0,1000.0,74.84062990005516,18.72696371458345,46000,23000.0,2826.993489265442
8.25713653564453,-5.383874069213867,-8.770237102508545,0.09651301896572113,23500.0,0.13061004549264907,8.696810737609864,8.696776630401612,8.69706442642212,47.0,1000.0,62.21416611386545,18.985052364597266,47000,23500.0,2879.6665081977844
8.251498027801514,-5.378986701965332,-9.000470546722411,0.09742575702071189,24000.0,0.13310866922140122,8.925699001312255,8.925737335205078,8.92596934890747,48.0,1000.0,79.03532805696251,18.772958477623952,48000,24000.0,2932.934618473053
8.245854225158691,-5.373193393707275,-9.226467826843262,0.09852501875162124,24500.0,0.1459022814631462,9.150598499298095,9.150569942474366,9.151265670776366,49.0,1000.0,81.37132158692333,18.75678763484047,49000,24500.0,2986.2486531734467
8.240205131530761,-5.3683919429779055,-9.456521999359131,0.09986272332072257,25000.0,0.147167536765337,9.379579986572265,9.379575199127197,9.37979927444458,50.0,1000.0,81.58823602620386,18.90783588107873,50000,25000.0,3039.136780500412
8.234550682067871,-5.364551662445068,-9.673804683685303,0.10067019683122636,25500.0,0.15608086770772933,9.593992004394531,9.593956661224365,9.594143253326417,51.0,1000.0,60.95290556516526,6.734230086016923,51000,25500.0,3187.6318566799164
8.228890895843506,-5.360804027557373,-9.90052421951294,0.10185743075609208,26000.0,0.17087233191728593,9.816417282104492,9.816443294525147,9.816787776947022,52.0,1000.0,52.281725709360956,18.58575451110014,52000,26000.0,3241.436506986618
8.22322582244873,-5.3569737224578855,-10.218034061431885,0.10176739752292634,26500.0,0.17615456089377404,10.102359218597412,10.1023973197937,10.103008483886718,53.0,1000.0,60.85719930752917,18.485779474121042,53000,26500.0,3295.53214430809
8.217555297851563,-5.351198335647583,-10.57807396697998,0.1020631141960621,27000.0,0.18600752222537995,10.449861457824706,10.449858341217041,10.450347122192383,54.0,1000.0,53.734922295642704,18.091628613341936,54000,27000.0,3350.8063292503357
8.211879489898681,-5.345425842285156,-10.89299182510376,0.10225087156891823,27500.0,0.19048464971780776,10.762801670074463,10.762830448150634,10.763748439788818,55.0,1000.0,45.36432566840658,17.9408598850934,55000,27500.0,3406.5450189113617
8.20619826889038,-5.3403888664245605,-11.19558097076416,0.10178042367100716,28000.0,0.19812620139122009,11.066163932800293,11.066203887939453,11.06650496673584,56.0,1000.0,87.23714900199309,17.961928858110657,56000,28000.0,3462.2183287143707
8.200511646270751,-5.335636428833007,-11.51979238128662,0.10272300171852111,28500.0,0.2136334755420685,11.391422756195068,11.391316757202148,11.392361526489259,57.0,1000.0,93.88852716882488,17.994780802065694,57000,28500.0,3517.78999876976
8.194819683074952,-5.331127912521362,-11.863072692871095,0.10467918401956558,29000.0,0.22359165501594544,11.727850086212158,11.727994430541992,11.728336292266846,58.0,1000.0,74.5752605798748,17.77228826846959,58000,29000.0,3574.057375907898
8.189122310638428,-5.325920671463012,-12.204841457366943,0.1052718505859375,29500.0,0.2342816202044487,12.060524795532226,12.06053489303589,12.061460014343261,59.0,1000.0,82.0532354805763,17.766756541413788,59000,29500.0,3630.342271089554
8.183419479370118,-5.32143074798584,-12.58171771621704,0.10654190248250961,30000.0,0.25424176001548765,12.43437685394287,12.434310333251954,12.434544071197509,60.0,1000.0,67.90633406608397,17.904818650267647,60000,30000.0,3686.193159341812
8.177711238861084,-5.316250761032104,-12.952515773773193,0.10660621762275696,30500.0,0.2653348290324211,12.797419124603271,12.797447818756103,12.798282081604004,61.0,1000.0,92.64924313209868,6.401868807253289,61000,30500.0,3842.3975489139557
8.17199758529663,-5.310924802780152,-13.304160140991211,0.1080375215113163,31000.0,0.27651821553707123,13.152302841186524,13.15236727142334,13.15327981185913,62.0,1000.0,74.89222817371387,17.992494344818525,62000,31000.0,3897.9762811660767
8.166278625488282,-5.3057595653533935,-13.64983748626709,0.10864585721492767,31500.0,0.2845825942158699,13.495630123138428,13.495649658203124,13.496488697052001,63.0,1000.0,99.07668331497543,17.749940575440988,63000,31500.0,3954.3144993782043
8.160553882598878,-5.29951630783081,-14.002548091888428,0.11054625603556632,32000.0,0.3037859021425247,13.848215923309326,13.848233585357667,13.84876358795166,64.0,1000.0,95.01141338702678,17.86156571985923,64000,32000.0,4010.3006341457367
8.15482384109497,-5.29400248336792,-14.37748928451538,0.11098998704552651,32500.0,0.30853978836536405,14.21064546585083,14.21069554901123,14.211906482696532,65.0,1000.0,77.12271130027398,18.082846562491785,65000,32500.0,4065.601662874222
8.149088340759278,-5.289143884658814,-14.719816844940185,0.11290227320790291,33000.0,0.3155646986365318,14.561739643096924,14.561739837646485,14.562446643829345,66.0,1000.0,86.26511336908669,18.11479101011067,66000,33000.0,4120.805171728134
8.143347312927245,-5.284458084106445,-15.061935298919678,0.11369212171435356,33500.0,0.3148420277833939,14.899400001525878,14.89935631942749,14.900272300720214,67.0,1000.0,97.36430707238475,18.193434652719944,67000,33500.0,4175.770056009293
8.137600788116455,-5.279110898971558,-15.406475296020508,0.11420811992883682,34000.0,0.31904213899374007,15.243958995819092,15.243901317596436,15.24484485244751,68.0,1000.0,91.66495965581112,18.020667890006894,68000,34000.0,4231.261896133423
8.131848793029786,-5.272979940414428,-15.7440655708313,0.115046744287014,34500.0,0.32854513061046603,15.581214916229248,15.581283199310302,15.581945190429687,69.0,1000.0,110.30452108842609,17.8650766111963,69000,34500.0,4287.237028360367
8.126091270446777,-5.267233335494995,-16.097458911895753,0.11661405709385872,35000.0,0.3199364594221115,15.934122020721436,15.934102363586426,15.935109169006347,70.0,1000.0,108.10078030667607,18.07505754973809,70000,35000.0,4342.561888456345
8.120328189849854,-5.261538475036621,-16.435271911621093,0.11768662720918656,35500.0,0.3190242427587509,16.27634069442749,16.276308135986326,16.276915336608887,71.0,1000.0,83.56431277400371,6.3220518195015245,71000,35500.0,4500.7383852005005
8.114559574127197,-5.255566514968872,-16.72351634979248,0.11933489298820496,36000.0,0.33048233050107956,16.569337867736817,16.56937077331543,16.57080443572998,72.0,1000.0,95.7975481417534,17.852923708548982,72000,36000.0,4556.751620531082
8.108785442352294,-5.250586063385009,-17.031521606445313,0.11934681808948516,36500.0,0.31918255472183227,16.87483181762695,16.87477989959717,16.87555467224121,73.0,1000.0,117.09762536148105,17.860945439498966,73000,36500.0,4612.739699602127
8.1030057182312,-5.246150369644165,-17.362586128234863,0.12177119755744933,37000.0,0.3226612983942032,17.200232078552247,17.2001888961792,17.20097562408447,74.0,1000.0,103.13186539234988,17.969475458560286,74000,37000.0,4668.389627933502
8.097220439910888,-5.240372741699219,-17.669972663879395,0.12287009567022324,37500.0,0.32434148144721986,17.50660523223877,17.506639038085936,17.507052848815917,75.0,1000.0,111.67466444642908,17.776724946010713,75000,37500.0,4724.6429607868195
8.091429496765137,-5.2354613857269285,-17.97484701538086,0.1241211233139038,38000.0,0.3339921423196793,17.806721382141113,17.80668009185791,17.807958892822267,76.0,1000.0,111.0512621254194,17.86503650979936,76000,38000.0,4780.618218660355
8.085633083343506,-5.229506355285644,-18.321830963134765,0.1253500773012638,38500.0,0.33420406717061996,18.151157592773437,18.151245010375977,18.152097496032717,77.0,1000.0,116.09574438468299,18.033062647044098,77000,38500.0,4836.0719175338745
8.079831024169922,-5.224264806747437,-18.644419326782227,0.12675327703356742,39000.0,0.34126045179367065,18.475562118530274,18.475521728515623,18.47616554260254,78.0,1000.0,97.23390285349623,17.853396077441975,78000,39000.0,4892.083671808243
8.07402332687378,-5.217873258590698,-18.958335762023925,0.12704008701443673,39500.0,0.33042555874586105,18.786899665832518,18.786929809570314,18.787866760253905,79.0,1000.0,96.30264428434033,18.061231888435874,79000,39500.0,4947.450881719589
8.068209991455078,-5.213129285812378,-19.23784986114502,0.1283980441391468,40000.0,0.3367764344215393,19.07307009124756,19.07307736968994,19.074133659362793,80.0,1000.0,112.8757085930395,18.132343274816353,80000,40000.0,5002.60095334053
8.062391048431396,-5.207948757171631,-19.54970581817627,0.12974156937003137,40500.0,0.3375306888818741,19.382064163208007,19.382020599365234,19.382790077209474,81.0,1000.0,115.40052504755184,6.340053179667791,81000,40500.0,5160.328338623047
8.056566444396973,-5.20173028755188,-19.822732948303223,0.13058702778816222,41000.0,0.3289882771372795,19.654112937927245,19.654181785583496,19.65453530883789,82.0,1000.0,114.51020977939865,18.11476691344844,82000,41000.0,5215.531920909882
8.050736190795899,-5.196899465560913,-20.13216982269287,0.13133856824040413,41500.0,0.3340337482690811,19.964542083740234,19.96444974517822,19.96541651916504,83.0,1000.0,105.00616739639239,17.98817242872759,83000,41500.0,5271.124006509781
8.044900241851806,-5.1926157150268555,-20.401404151916505,0.13262044537067413,42000.0,0.3225630921125412,20.232938911437987,20.23306516265869,20.233828033447267,84.0,1000.0,96.30740502447392,18.08444379895909,84000,42000.0,5326.42015171051
8.039058628082275,-5.186435369491577,-20.677254066467285,0.13357924345135688,42500.0,0.32616738277673724,20.51249951171875,20.5123603515625,20.51306315612793,85.0,1000.0,132.47224412796874,18.033678657118884,85000,42500.0,5381.871956348419
8.033211318969727,-5.181603986740113,-20.95209309387207,0.1355998151898384,43000.0,0.32112379509210587,20.786702659606934,20.78681108856201,20.787541381835936,86.0,1000.0,128.506435285194,17.748330905061735,86000,43000.0,5438.215284347534
8.027358306884766,-5.176227844238281,-21.214492401123046,0.13663980200886727,43500.0,0.31408991873264314,21.051156883239745,21.05110631561279,21.051873237609865,87.0,1000.0,115.92418199732528,18.061191679330655,87000,43500.0,5493.582617759705
8.021499576568603,-5.1713872737884525,-21.47575902557373,0.137824980199337,44000.0,0.31794158947467804,21.308980224609375,21.30915449523926,21.309590026855467,88.0,1000.0,96.13067543877864,18.016303641766175,88000,44000.0,5549.087900876999
8.01563514328003,-5.166079221725464,-21.711223693847657,0.13861690858006478,44500.0,0.3174575058221817,21.543110862731933,21.543043418884277,21.54375375366211,89.0,1000.0,124.4363962492341,18.093132337429925,89000,44500.0,5604.357492208481
8.0097649269104,-5.16025217628479,-22.000135131835936,0.1395946969985962,45000.0,0.3215722568035126,21.830407081604005,21.830558403015136,21.83102419281006,90.0,1000.0,134.1119183678652,17.94633931995338,90000,45000.0,5660.079163551331
8.003889003753661,-5.155719581604004,-22.273862983703612,0.141289187759161,45500.0,0.32939311081171035,22.105935806274413,22.105834197998046,22.10648447418213,91.0,1000.0,98.69983840173964,6.309123580718366,91000,45500.0,5818.579784870148
7.99800729560852,-5.1503629360198975,-22.52140796661377,0.1418278101682663,46000.0,0.3338331245183945,22.351121154785154,22.351067611694337,22.35209013366699,92.0,1000.0,96.35361906548448,17.925934015897784,92000,46000.0,5874.364884853363
7.992119817733765,-5.144708824157715,-22.761584205627443,0.1418776615858078,46500.0,0.3427103704214096,22.59242176055908,22.59241290283203,22.592687507629396,93.0,1000.0,125.26499659209759,17.690410336865153,93000,46500.0,5930.892687559128
7.986226564407349,-5.139548999786377,-23.00956713104248,0.143946995139122,47000.0,0.34618412601947784,22.83961283874512,22.839707580566404,22.84036057281494,94.0,1000.0,133.91246681445068,17.96227131781316,94000,47000.0,5986.564935684204
7.980327486038208,-5.134667406082153,-23.28211243438721,0.14390230935811996,47500.0,0.34556778216362,23.111090423583985,23.11116174316406,23.110838317871092,95.0,1000.0,107.75156605497392,17.855546142837046,95000,47500.0,6042.56994509697
7.974422647476196,-5.1282611618041996,-23.518337738037108,0.14573232018947602,48000.0,0.3562488270998001,23.338953231811523,23.338985710144044,23.34043511199951,96.0,1000.0,114.38930462709976,17.926004500331896,96000,48000.0,6098.354825735092
7.968511985778808,-5.122816572189331,-23.770886100769044,0.14645284420251847,48500.0,0.3515458768606186,23.59570401763916,23.595500938415526,23.59611092376709,97.0,1000.0,125.18606317170352,17.876341650808744,97000,48500.0,6154.294684886932
7.962595483779907,-5.11710425567627,-24.028505073547365,0.14793902456760408,49000.0,0.36299379789829256,23.850589225769042,23.850709396362305,23.851146141052247,98.0,1000.0,107.73938080341843,17.917412856377155,98000,49000.0,6210.106315135956
7.956673133850098,-5.1111905384063725,-24.30011166381836,0.14759839749336243,49500.0,0.37142505347728727,24.120649208068848,24.12062307739258,24.121456901550292,99.0,1000.0,101.99444168797716,17.775810779605344,99000,49500.0,6266.362540960312
7.950744972229004,-5.105870653152466,-24.51955078125,0.14795699203014373,50000.0,0.37763248550891876,24.342214668273925,24.34215926361084,24.34245206451416,100.0,1000.0,98.29862485794015,17.61705542038178,100000,50000.0,6323.1257174015045
7.944810894012451,-5.100401653289795,-24.756394897460936,0.1493139404654503,50500.0,0.3783373919725418,24.577941284179687,24.57800326538086,24.578427055358887,101.0,1000.0,123.32478003656504,6.082001605047727,101000,50500.0,6487.54527425766
7.938870977401733,-5.095779533386231,-24.976254707336427,0.14954295325279235,51000.0,0.3725237885713577,24.804609809875487,24.804659622192382,24.805022758483886,102.0,1000.0,121.9879668026326,17.61500841803243,102000,51000.0,6544.3150470256805
7.932925138473511,-5.090166080474853,-25.22073416900635,0.1512054267525673,51500.0,0.379847069978714,25.04518325805664,25.045061584472656,25.045904121398927,103.0,1000.0,107.87929108262038,17.520953200769483,103000,51500.0,6601.389569044113
7.926973432540893,-5.084663387298584,-25.413156150817873,0.15209509724378587,52000.0,0.38092955923080446,25.2396195602417,25.239630935668945,25.240423873901367,104.0,1000.0,118.10683891158641,17.455874713825974,104000,52000.0,6658.676874160767
7.921015825271606,-5.0788211879730225,-25.653377220153807,0.152832534968853,52500.0,0.37047079944610595,25.477436447143553,25.477318298339842,25.477520729064942,105.0,1000.0,124.45506193717846,17.81568024301647,105000,52500.0,6714.80720949173
7.915052270889282,-5.0739687652587895,-25.866081985473635,0.1533144868016243,53000.0,0.37456165540218356,25.688884857177733,25.688940994262694,25.68942261505127,106.0,1000.0,107.65214776581803,17.581746965699075,106000,53000.0,6771.684379816055
7.909082818984985,-5.068310697555542,-26.071583236694337,0.15369560199975968,53500.0,0.37401120352745054,25.8982240524292,25.898232650756835,25.898713523864746,107.0,1000.0,111.71642830006243,17.530832918072047,107000,53500.0,6828.726736307144
7.90310735321045,-5.06390419960022,-26.271721954345704,0.15463621044158934,54000.0,0.3718235913515091,26.099842308044433,26.09993431854248,26.100547248840332,108.0,1000.0,115.52695774337825,17.740916792925127,108000,54000.0,6885.093610525131
7.897125984191894,-5.058894727706909,-26.473574241638183,0.15549378275871276,54500.0,0.37469745182991027,26.300514350891113,26.30053276824951,26.301281608581544,109.0,1000.0,121.75538540528919,17.50995326321023,109000,54500.0,6942.203987121582
7.891138631820679,-5.052902828216553,-26.676670600891114,0.1559254475235939,55000.0,0.37333555436134336,26.50148899078369,26.50134188079834,26.50164529418945,110.0,1000.0,114.46229683124483,17.696724496923313,110000,55000.0,6998.711621046066
7.885145311355591,-5.047764837265015,-26.884933265686037,0.1570774688720703,55500.0,0.37063347017765047,26.70831777191162,26.708293357849122,26.708818618774416,111.0,1000.0,112.9973700373302,6.370724288021357,111000,55500.0,7155.679646492004
7.879145978927612,-5.043143323898315,-27.077145706176758,0.1575216800570488,56000.0,0.3645868685245514,26.90612358856201,26.906274719238283,26.90705684661865,112.0,1000.0,146.81008025894877,18.167260147402207,112000,56000.0,7210.723721265793
7.873140642166137,-5.037147630691528,-27.255660690307618,0.15883847165107728,56500.0,0.36714700508117676,27.084892654418944,27.084880111694336,27.084985153198243,113.0,1000.0,127.05083800519863,18.268796279338414,113000,56500.0,7265.461866617203
7.867129318237304,-5.032676546096802,-27.45144299316406,0.15975969064235687,57000.0,0.364342213511467,27.280830131530763,27.28083575439453,27.28138303375244,114.0,1000.0,133.9714522206301,18.106035860570714,114000,57000.0,7320.692068815231
7.861111942291259,-5.027248655319214,-27.635523681640624,0.16062421029806137,57500.0,0.36380846476554873,27.45925863647461,27.45924365234375,27.459595306396483,115.0,1000.0,138.63214453985606,18.16092459476817,115000,57500.0,7375.755345821381
7.8550885372161865,-5.0211680946350095,-27.839160621643067,0.16133070331811905,58000.0,0.36981455981731415,27.663147872924803,27.6631641998291,27.663614723205566,116.0,1000.0,106.34626113431274,18.311499398914243,116000,58000.0,7430.365839242935
7.849059061050415,-5.014885202407837,-28.001805114746094,0.16144160908460617,58500.0,0.3634062293767929,27.82606573486328,27.8260062789917,27.82680618286133,117.0,1000.0,109.02312746399717,18.312502675837298,117000,58500.0,7484.973341464996
7.8430235385894775,-5.009637350082397,-28.175980117797852,0.16238748240470885,59000.0,0.36392977070808413,28.003173606872558,28.00320542907715,28.003642517089844,118.0,1000.0,96.3007883600213,18.114740860960424,118000,59000.0,7540.177003145218
7.836981889724732,-5.004821380615234,-28.343684364318847,0.16259808534383774,59500.0,0.3548533488512039,28.171562721252442,28.17155519104004,28.171868896484376,119.0,1000.0,124.91969707613379,18.250770428889215,119000,59500.0,7594.969212770462
7.830934213638305,-4.999337532043457,-28.516650451660155,0.16342609345912934,60000.0,0.36483344531059264,28.34459698486328,28.344577774047853,28.344586395263672,120.0,1000.0,121.52905227162735,17.886400793487965,120000,60000.0,7650.87761092186
7.824880424499511,-4.993655727386475,-28.69174980163574,0.16397275483608245,60500.0,0.36217654347419737,28.52034162902832,28.520182571411134,28.520908447265626,121.0,1000.0,124.01152765345849,6.320990626430295,121000,60500.0,7809.0806629657745
7.818820503234863,-4.988337739944458,-28.866432640075683,0.16464790892601014,61000.0,0.35411976277828217,28.69113318634033,28.691280395507814,28.69188917541504,122.0,1000.0,126.24141235915599,18.014550827985428,122000,61000.0,7864.591346025467
7.812754474639893,-4.98307299041748,-29.028282958984374,0.16531816589832307,61500.0,0.35320972895622255,28.855481170654297,28.855431037902832,28.856090423583986,123.0,1000.0,127.47573473209498,17.88960692924727,123000,61500.0,7920.4897248744965
7.806682285308838,-4.97699080657959,-29.185209106445313,0.16632230842113496,62000.0,0.35983321130275725,29.015341796875,29.015420036315916,29.01539839935303,124.0,1000.0,136.57848936413365,18.11980701462711,124000,62000.0,7975.677952528
7.800603916168213,-4.971996427536011,-29.329765701293944,0.1666913028359413,62500.0,0.34694133400917054,29.161695960998536,29.161495330810546,29.162265998840333,125.0,1000.0,115.04021467084924,17.86647951245852,125000,62500.0,8031.6486892700195
7.794519449234008,-4.966385210037232,-29.467683937072753,0.1673631637096405,63000.0,0.34263458359241483,29.30014803314209,29.300356498718262,29.30029930114746,126.0,1000.0,94.23000480376268,17.798581852887423,126000,63000.0,8087.832941770554
7.788428787231445,-4.959462129592896,-29.618909309387206,0.16777821868658066,63500.0,0.3609178775548935,29.448540184020995,29.44844744873047,29.44933624267578,127.0,1000.0,94.03145701718003,18.231346125020902,127000,63500.0,8142.683528184891
7.782331926345825,-4.954639944076538,-29.774068237304686,0.16750807690620423,64000.0,0.3591486259698868,29.60650023651123,29.60652811431885,29.606805992126464,128.0,1000.0,131.48053802528446,17.908361554321846,128000,64000.0,8198.52336716652
7.7762288475036625,-4.950899959564209,-29.923374320983886,0.168253937125206,64500.0,0.3686836122274399,29.7546441116333,29.754825744628906,29.755040016174316,129.0,1000.0,125.03855696486916,17.797843969973115,129000,64500.0,8254.709949970245
7.770119585037231,-4.94391286277771,-30.058685874938966,0.16897799181938172,65000.0,0.37167840123176576,29.88648928833008,29.886320571899414,29.887089637756347,130.0,1000.0,115.94781775261639,18.14238394755025,130000,65000.0,8309.829499006271
7.764004072189331,-4.938700384140015,-30.214039390563965,0.17003892588615419,65500.0,0.37486432707309725,30.038122299194335,30.03809462738037,30.03824951171875,131.0,1000.0,130.01384056186572,6.2067898561128585,131000,65500.0,8470.943381547928
7.757882326126099,-4.933414766311645,-30.386597434997558,0.17102743601799011,66000.0,0.37850087571144103,30.20836866760254,30.208383239746095,30.208805274963378,132.0,1000.0,131.79740963878197,17.598950268912525,132000,66000.0,8527.764953613281
7.751754350662232,-4.9278943157196045,-30.537410522460938,0.17068853318691254,66500.0,0.38775355792045596,30.36165284729004,30.361744651794435,30.36266480255127,133.0,1000.0,115.76774152643075,17.55480988503902,133000,66500.0,8584.729400396347
7.745620077133179,-4.9209537525177005,-30.66731051635742,0.1713869212269783,67000.0,0.3835663855075836,30.493833221435548,30.49395105743408,30.493617210388184,134.0,1000.0,162.11511779571822,17.674309960925328,134000,67000.0,8641.308696508408
7.7394795455932615,-4.915978483200073,-30.83109917449951,0.17331644237041474,67500.0,0.38079481053352354,30.65288542175293,30.6528083114624,30.65363609313965,135.0,1000.0,129.7150250756233,17.64504594236689,135000,67500.0,8697.981829166412
7.733332662582398,-4.910454153060913,-30.959271812438963,0.1731410970687866,68000.0,0.3839443392753601,30.784393341064455,30.784433006286623,30.784371315002442,136.0,1000.0,119.36280000743207,17.518874320902533,136000,68000.0,8755.063123464584
7.7271795711517335,-4.906020633697509,-31.095387512207033,0.1739476266503334,68500.0,0.3791828178167343,30.921878898620605,30.921832748413085,30.92219721221924,137.0,1000.0,115.38734891185555,17.753161168002396,137000,68500.0,8811.391121864319
7.721020133972168,-4.900139211654663,-31.240002128601073,0.17452690041065216,69000.0,0.3828741385936737,31.0647857131958,31.064755065917968,31.06568248748779,138.0,1000.0,146.86272733466637,17.514013598524773,138000,69000.0,8868.488258600235
7.714854337692261,-4.894418439865112,-31.39503241729736,0.17534022682905198,69500.0,0.39074423718452456,31.215848945617676,31.215963806152345,31.215942512512207,139.0,1000.0,136.68379962512884,18.407903874064164,139000,69500.0,8922.812750339508
7.708682233810425,-4.887448554992676,-31.54893297576904,0.17594138938188553,70000.0,0.3897665033340454,31.37114683532715,31.371107780456544,31.371574073791503,140.0,1000.0,110.38406191763913,17.73316435875733,140000,70000.0,8979.204266309738
7.702503761291504,-4.881597051620483,-31.670838996887205,0.175787515103817,70500.0,0.3919468114376068,31.494946891784668,31.494827781677245,31.495435134887696,141.0,1000.0,130.61718560677153,8.232455379105906,141000,70500.0,9100.674709796906
7.696318922042846,-4.87803201675415,-31.824055068969727,0.17755298864841462,71000.0,0.39694722509384156,31.646847824096678,31.647028648376466,31.646852485656737,142.0,1000.0,137.2848034375999,23.886261207768694,142000,71000.0,9142.539781093597
7.690127681732178,-4.871343379974365,-31.957739906311033,0.1773030343055725,71500.0,0.39858250629901887,31.779094436645508,31.77917852783203,31.779532371520997,143.0,1000.0,118.6030509450236,23.883454411222218,143000,71500.0,9184.409772157669
7.683930034637451,-4.866005304336547,-32.09572933959961,0.17738555806875228,72000.0,0.4010525037050247,31.918094718933105,31.918000907897948,31.918606178283692,144.0,1000.0,119.37862212416297,23.77888568040192,144000,72000.0,9226.463889837265
7.67772603225708,-4.860692951202393,-32.21992384338379,0.17800053536891938,72500.0,0.4005421872138977,32.04274904632568,32.04269551849365,32.042789543151855,145.0,1000.0,118.76741078324108,23.78475569132941,145000,72500.0,9268.507627010345
7.671515556335449,-4.8537099609375,-32.36908560180664,0.17810878217220305,73000.0,0.40600255596637724,32.18684778594971,32.186950401306156,32.18798497772217,146.0,1000.0,119.80837252626044,23.8090792834091,146000,73000.0,9310.508412122726
7.665298692703247,-4.84818927192688,-32.50167333984375,0.17867708295583726,73500.0,0.405981946349144,32.32153970336914,32.32156074523926,32.322015197753906,147.0,1000.0,127.66308236072875,23.994396312965872,147000,73500.0,9352.184810638428
7.65907533454895,-4.841561498641968,-32.59461956787109,0.1797941237092018,74000.0,0.40929096603393555,32.41742811584473,32.41737251281738,32.41742347717285,148.0,1000.0,144.76711408924373,23.936082850052394,148000,74000.0,9393.962742090225
7.6528455371856685,-4.835815069198609,-32.73715296936035,0.17970440715551375,74500.0,0.40045334124565124,32.55650813293457,32.556568466186526,32.55721040344238,149.0,1000.0,146.08160419006884,23.902329736082585,149000,74500.0,9435.79966878891
7.646609262466431,-4.830751651763916,-32.88560310363769,0.18126798456907273,75000.0,0.40642913413047793,32.70480012512207,32.70463117980957,32.704915908813476,150.0,1000.0,136.62787366755322,24.04437956614116,150000,75000.0,9477.389430761337
7.640366500854492,-4.826131931304932,-33.01344583129883,0.18223648577928542,75500.0,0.4118328793048859,32.83484635925293,32.834900833129886,32.83517601013184,151.0,1000.0,148.17617909813634,9.845127672603217,151000,75500.0,9578.96251797676
7.634117233276367,-4.82058392906189,-33.137704788208005,0.18198828601837158,76000.0,0.4132438354492188,32.95383058166504,32.95379678344727,32.95385765075684,152.0,1000.0,140.0654331209756,24.059404686011302,152000,76000.0,9620.526307582855
7.627861427307129,-4.814326005935669,-33.281744750976564,0.183547707259655,76500.0,0.4155132442712784,33.10289073181152,33.102948791503906,33.10388749694824,153.0,1000.0,146.37271864162705,24.105983141495074,153000,76500.0,9662.00978589058
7.621599145889283,-4.810527063369751,-33.39709300231934,0.1835729500055313,77000.0,0.4098203663825989,33.2175048828125,33.21738890075684,33.21741442871094,154.0,1000.0,122.71443521406194,24.109544542437344,154000,77000.0,9703.487139225006
7.615330308914184,-4.804363645553589,-33.524620468139645,0.18411991435289382,77500.0,0.4179058042764664,33.34012203979492,33.340215911865236,33.34091265869141,155.0,1000.0,101.72941173888046,24.13234776082112,155000,77500.0,9744.925296068192
7.609054878234863,-4.797859800338745,-33.639282150268556,0.18480509340763093,78000.0,0.41205727005004883,33.45732217407227,33.45735838317871,33.45748098754883,156.0,1000.0,139.79533300823172,23.942709989776393,156000,78000.0,9786.691664457321
7.602772920608521,-4.792457403182984,-33.754134994506835,0.18519212192296983,78500.0,0.411801225066185,33.57451385498047,33.57448776245117,33.57508543395996,157.0,1000.0,132.88175945738163,5.980249017057835,157000,78500.0,9953.908781766891
7.596484352111816,-4.786817031860352,-33.87870748901367,0.18574557244777679,79000.0,0.42137628197669985,33.70098834228516,33.700863647460935,33.700653442382816,158.0,1000.0,134.2850189263525,13.56042285136278,158000,79000.0,10027.652795791626
7.590189182281494,-4.781903221130371,-33.96715301513672,0.18540510803461074,79500.0,0.41548515188694,33.788736495971676,33.788718719482425,33.78932478332519,159.0,1000.0,142.9922889889043,13.349480726923998,159000,79500.0,10102.562077760696
7.583887392044067,-4.775216909408569,-34.081742126464846,0.18641660887002945,80000.0,0.4108420853614807,33.90156600952148,33.90167826843262,33.90220449829101,160.0,1000.0,145.68256968213637,13.665715574865992,160000,80000.0,10175.737902879715
7.57757900428772,-4.770315258026123,-34.19835922241211,0.18709179401397705,80500.0,0.4066646100282669,34.01975991821289,34.019657608032226,34.019864334106444,161.0,1000.0,93.72473114847305,7.397728946471611,161000,80500.0,10310.914524316788
7.571263954162598,-4.764412740707398,-34.31294078063965,0.18724406057596207,81000.0,0.4066470090150833,34.132225402832034,34.13223037719727,34.132731994628905,162.0,1000.0,122.4030942997993,13.189504901181134,162000,81000.0,10386.732383012772
7.564942260742187,-4.75597783279419,-34.414695678710935,0.18752001458406448,81500.0,0.40267547678947446,34.237341766357424,34.23746697998047,34.237548736572265,163.0,1000.0,138.7069601603803,13.615303114766641,163000,81500.0,10460.179151773453
7.558613937377929,-4.750168790817261,-34.51630525207519,0.18818660980463028,82000.0,0.41294552993774414,34.33451037597656,34.33438980102539,34.33524253845215,164.0,1000.0,138.8846235614358,13.509668432056518,164000,82000.0,10534.200214385986
7.552278881072998,-4.743722839355469,-34.61759487915039,0.18824059849977492,82500.0,0.40856667256355284,34.440498794555666,34.440550552368165,34.440807449340824,165.0,1000.0,92.86316972568105,13.20068664403084,165000,82500.0,10609.953850984573
7.545937120437622,-4.738956449508667,-34.72580348205567,0.18861305153369903,83000.0,0.4076736695766449,34.5477501373291,34.54773847961426,34.548359725952146,166.0,1000.0,140.14189542117396,13.409546811972564,166000,83000.0,10684.527587652206
7.539588691711426,-4.733800643920898,-34.82209230041504,0.18939893704652785,83500.0,0.4012677198648453,34.6498077545166,34.64997920227051,34.649917205810546,167.0,1000.0,141.28994943811392,13.677383980134964,167000,83500.0,10757.640985012054
7.533233512878418,-4.727213901519775,-34.90800302124023,0.18990760612487792,84000.0,0.4094228585958481,34.73424212646484,34.734036514282224,34.734472930908204,168.0,1000.0,131.95371622744238,13.527436930139162,168000,84000.0,10831.564820289612
7.5268716144561765,-4.722757652282715,-34.97766853332519,0.1902299156188965,84500.0,0.4052873126268387,34.80249333190918,34.80254667663574,34.80319329833984,169.0,1000.0,127.0083829279208,13.267751736994192,169000,84500.0,10906.935540914536
7.520502935409546,-4.716716554641724,-35.059692184448245,0.19115451270341874,85000.0,0.4078072533607483,34.883235946655276,34.88317506408691,34.88348764038086,170.0,1000.0,128.57318961216393,13.442246007404679,170000,85000.0,10981.327871799469
7.514127508163452,-4.710551656723022,-35.14502420043945,0.19071113914251328,85500.0,0.40255632960796356,34.9679208984375,34.96791850280762,34.96805870056152,171.0,1000.0,138.1684449218828,7.340259023201199,171000,85500.0,11117.562846660614
7.507745286941528,-4.703710943222046,-35.248245956420895,0.19206192862987517,86000.0,0.41334217035770415,35.07000289916992,35.06992538452148,35.07026924133301,172.0,1000.0,128.40878507298055,13.298790732596718,172000,86000.0,11192.757655143738
7.5013562793731685,-4.6973633956909175,-35.33230920410156,0.1910588047504425,86500.0,0.41668593633174894,35.153683654785155,35.15373260498047,35.154195037841795,173.0,1000.0,158.7767492103042,13.419241566037275,173000,86500.0,11267.277515649796
7.494960487365723,-4.692984022140503,-35.404420394897464,0.19253437972068788,87000.0,0.4141306129693985,35.229156661987304,35.229153411865234,35.228989578247074,174.0,1000.0,167.57163740162815,13.53126039813606,174000,87000.0,11341.1804625988
7.488557830810547,-4.68589169883728,-35.4869300994873,0.19311475050449373,87500.0,0.413691822886467,35.31064996337891,35.310708206176756,35.31157118225098,175.0,1000.0,121.90468756671925,13.13090020798978,175000,87500.0,11417.336705446243
7.482148330688476,-4.681194122314453,-35.6031661529541,0.19359075880050658,88000.0,0.4182343029975891,35.42373458862305,35.42367774963379,35.42401727294922,176.0,1000.0,146.28160888808725,13.212745641837827,176000,88000.0,11493.021209001541
7.475732004165649,-4.67655142211914,-35.68125796508789,0.19465856772661208,88500.0,0.41863570845127107,35.50410961914063,35.50415341186523,35.504158218383786,177.0,1000.0,129.43531872653847,13.816128933469287,177000,88500.0,11565.400379896164
7.469308801651001,-4.6694917964935305,-35.768687789916996,0.19496477168798446,89000.0,0.4213594025373459,35.59076248168945,35.590877243041994,35.59099241638184,178.0,1000.0,120.86246217784182,13.30699678038118,178000,89000.0,11640.548817157745
7.462878667831421,-4.6629671936035155,-35.85678791809082,0.1949470649957657,89500.0,0.42634716522693633,35.6803028717041,35.680206466674804,35.6808447265625,179.0,1000.0,156.67687178057577,13.00322193012942,179000,89500.0,11717.452835798264
7.456441711425781,-4.655812782287597,-35.93552850341797,0.1957752529978752,90000.0,0.43184360790252685,35.7577783203125,35.75784896850586,35.75839385986328,180.0,1000.0,146.19194353965025,13.18126780935115,180000,90000.0,11793.318073749542
7.449997804641724,-4.650054473876953,-36.04779295349121,0.19679412239789962,90500.0,0.4264924100637436,35.867168869018556,35.86702944946289,35.86714506530762,181.0,1000.0,134.6993593102353,7.681795164825997,181000,90500.0,11923.495979070663
7.443546991348267,-4.644917966842652,-36.10694348144531,0.19655386888980866,91000.0,0.43125403523445127,35.92524659729004,35.925357284545896,35.925826354980465,182.0,1000.0,130.15405588486368,13.407064842293233,182000,91000.0,11998.0835211277
7.437089223861694,-4.638252023696899,-36.19374391174316,0.19663932538032533,91500.0,0.4362238782644272,36.01409342956543,36.01393922424317,36.013842193603516,183.0,1000.0,108.18088257578366,13.598812277502967,183000,91500.0,12071.619355678558
7.43062448310852,-4.631704933166504,-36.30346630859375,0.1970694408416748,92000.0,0.43709201788902285,36.12077491760254,36.120894958496095,36.121371597290036,184.0,1000.0,137.43600865322657,12.933444428317355,184000,92000.0,12148.93828010559
7.424152791976929,-4.62672508430481,-36.39721397399902,0.19739106780290602,92500.0,0.42685776805877684,36.2165880279541,36.21650085449219,36.21659120178223,185.0,1000.0,156.74346250329017,13.50685914029392,185000,92500.0,12222.974738359451
7.417674076080322,-4.620982650756836,-36.466327941894534,0.19748908853530883,93000.0,0.43482367718219755,36.288295303344725,36.288356216430664,36.28903359985352,186.0,1000.0,155.8598539388983,13.433117658920136,186000,93000.0,12297.417622566223
7.4111884059906,-4.614725198745727,-36.539225189208985,0.19894578808546065,93500.0,0.43992719078063963,36.36215863037109,36.36209176635742,36.362322799682616,187.0,1000.0,148.3420844612588,13.936354193411518,187000,93500.0,12369.172400951385
7.404695671081543,-4.608531352996827,-36.61821228027344,0.2001242308616638,94000.0,0.431219154715538,36.43985609436035,36.439991012573245,36.4403288269043,188.0,1000.0,117.61347605632083,12.582149685297017,188000,94000.0,12448.650076389313
7.39819595336914,-4.602563375473022,-36.69154496765137,0.198915422976017,94500.0,0.43003143525123594,36.51235697937012,36.512393112182615,36.51256994628906,189.0,1000.0,159.46307374567547,13.375225815740988,189000,94500.0,12523.415171146393
7.391689126968384,-4.596139169692993,-36.78940510559082,0.2001368397474289,95000.0,0.43025884008407594,36.606594833374025,36.60657124328613,36.6068659362793,190.0,1000.0,164.02937967659136,13.159171159556832,190000,95000.0,12599.407799720764
7.385175279617309,-4.589781133651734,-36.888756164550784,0.20158489650487899,95500.0,0.4258884348869324,36.71100863647461,36.710828811645506,36.71207318115234,191.0,1000.0,129.9182567523104,7.640616381304864,191000,95500.0,12730.28729391098
7.37865432548523,-4.583658809661865,-36.93415368652344,0.20146209907531737,96000.0,0.42916912710666655,36.75774095153809,36.75791842651367,36.75796044921875,192.0,1000.0,160.66536042565815,13.561470834667462,192000,96000.0,12804.025609493256
7.372126314163208,-4.5766168937683105,-37.012473831176756,0.2012421973347664,96500.0,0.4282336128950119,36.83459295654297,36.83462899780273,36.834735610961914,193.0,1000.0,148.99582813445463,13.456296101036228,193000,96500.0,12878.340265750885
7.365591150283813,-4.569506601333618,-37.092096237182616,0.20255865395069123,97000.0,0.43179244446754456,36.91345031738281,36.91327290344238,36.9133063659668,194.0,1000.0,146.5862127468978,13.978283374590276,194000,97000.0,12949.879809856415
7.3590488986969,-4.565187671661377,-37.162769927978516,0.20174799382686615,97500.0,0.43246770548820496,36.985267456054686,36.985336181640626,36.98600830078125,195.0,1000.0,129.42506884368944,13.56433254607156,195000,97500.0,13023.602567911148
7.35249948310852,-4.559936506271362,-37.22474928283692,0.20283963876962663,98000.0,0.4417732864618301,37.04367181396484,37.04373681640625,37.0439440612793,196.0,1000.0,169.0196631611996,13.483816261310022,196000,98000.0,13097.76554942131
7.34594289970398,-4.553928983688355,-37.31230607604981,0.2037889367341995,98500.0,0.43961319255828857,37.13018060302734,37.1301520690918,37.130285110473636,197.0,1000.0,171.77185195977057,13.153120338138514,197000,98500.0,13173.793137788773
7.339379173278808,-4.546825174331665,-37.40057893371582,0.20430143630504607,99000.0,0.43398745560646057,37.219292907714845,37.21927177429199,37.21964935302734,198.0,1000.0,172.34479716156858,13.391108447202317,198000,99000.0,13248.469555616379
7.332808238983154,-4.540722864151001,-37.483432373046874,0.20525366741418838,99500.0,0.4267752077579498,37.30269398498535,37.30267524719238,37.30305729675293,199.0,1000.0,139.95144842775372,13.458619010376363,199000,99500.0,13322.771384954453
7.326230108261108,-4.534568775177002,-37.53615620422363,0.20505670523643493,100000.0,0.42815627181529997,37.35717193603516,37.357099945068356,37.357581436157226,200.0,1000.0,150.5164933884471,13.218352798221424,200000,100000.0,13398.423777580261
7.319644752502441,-4.52972735786438,-37.60645465087891,0.20560398495197296,100500.0,0.4406664865016937,37.424915252685544,37.4248406829834,37.424770568847656,201.0,1000.0,155.95949620372008,7.709259212542648,201000,100500.0,13528.137927293777
7.313052169799804,-4.521674394607544,-37.692650436401365,0.20594583904743194,101000.0,0.44627693510055544,37.51160678100586,37.51164154052734,37.51205429077149,202.0,1000.0,161.05623623463623,13.002416773823946,202000,101000.0,13605.046707630157
7.306452320098877,-4.5165561599731445,-37.78520286560059,0.20748643428087235,101500.0,0.4444911412000656,37.6030323638916,37.603058334350585,37.60347578430176,203.0,1000.0,132.14698533318725,13.159272020717756,203000,101500.0,13681.038754463196
7.299845218658447,-4.510098426818848,-37.86229499816895,0.20756972533464432,102000.0,0.44919579780101776,37.68052592468262,37.68044709777832,37.680645126342775,204.0,1000.0,157.93625422200586,13.178394381250513,204000,102000.0,13756.920533418655
7.293230850219727,-4.503430055618286,-37.92932803344726,0.20671137136220932,102500.0,0.4491164230108261,37.742393203735354,37.74256608581543,37.74320324707031,205.0,1000.0,163.7742381894018,13.843192675819724,205000,102500.0,13829.158205509186
7.286609146118164,-4.496679252624512,-38.03299029541016,0.2081279298067093,103000.0,0.4491060069799423,37.84900108337402,37.848896423339845,37.84897882080078,206.0,1000.0,153.27981894645742,13.514998916542337,206000,103000.0,13903.150072813034
7.2799801368713375,-4.492013891220092,-38.107710174560545,0.20852821290493012,103500.0,0.4523366897106171,37.92749118041992,37.927453872680665,37.927648391723636,207.0,1000.0,151.830053240936,13.31125564212407,207000,103500.0,13978.274466991425
7.273343818664551,-4.484817642211914,-38.1879426574707,0.2095950635075569,104000.0,0.44723600494861604,38.00635336303711,38.006476135253905,38.006489776611325,208.0,1000.0,138.2778007051668,13.290012764078192,208000,104000.0,14053.518940925598
7.266700094223022,-4.478981142044067,-38.25495697021484,0.20911876839399338,104500.0,0.43906483447551725,38.07119966125488,38.0711131439209,38.07182643127442,209.0,1000.0,152.86026325287233,13.293957461056543,209000,104500.0,14128.741086959839
7.260049053192139,-4.471126043319702,-38.32906677246094,0.20931978839635848,105000.0,0.4452252926826477,38.14875430297852,38.148801849365235,38.149218154907224,210.0,1000.0,158.27061990858218,12.011037406340494,210000,105000.0,14211.997843265533
7.253390625,-4.465211400985718,-38.38423504638672,0.2106624652147293,105500.0,0.4410264219045639,38.204472763061524,38.20439532470703,38.20411708068848,211.0,1000.0,156.77484250621382,7.005105528416228,211000,105500.0,14354.750868558884
7.24672479057312,-4.459874904632568,-38.46236476135254,0.21097606194019317,106000.0,0.4434201698303223,38.28075854492187,38.280811630249026,38.282120819091794,212.0,1000.0,167.58191757116123,11.760952111578614,212000,106000.0,14439.777999401093
7.240051555633545,-4.453097820281982,-38.52699708557129,0.21176727706193924,106500.0,0.43518076872825623,38.34977822875977,38.34984182739258,38.34951898193359,213.0,1000.0,152.36499632404616,12.050328499634373,213000,106500.0,14522.763290166855
7.233370901107788,-4.445990461349488,-38.58822868347168,0.21191224205493928,107000.0,0.43063659381866454,38.4095625,38.40959797668457,38.41000250244141,214.0,1000.0,168.1313970413267,13.081483724340869,214000,107000.0,14599.207218647003
7.2266827583312985,-4.441937700271606,-38.65585223388672,0.21285874545574188,107500.0,0.42350475704669954,38.47912704467773,38.4790225982666,38.47941584777832,215.0,1000.0,152.64885868372855,13.36854358017702,215000,107500.0,14674.009683847427
7.219987161636353,-4.434346992492676,-38.71685754394531,0.21272259712219238,108000.0,0.4279539511203766,38.53772236633301,38.53786093139649,38.53770454406738,216.0,1000.0,147.91948340872543,13.766661232500898,216000,108000.0,14746.648938417435
7.213284093856812,-4.429301240921021,-38.76934666442871,0.2127866478562355,108500.0,0.43108014941215517,38.59041961669922,38.59015512084961,38.59110510253906,217.0,1000.0,144.1084964429227,13.625485227761855,217000,108500.0,14820.04082083702
7.2065735492706295,-4.423260566711426,-38.82462673950195,0.21404955303668977,109000.0,0.4328816103935242,38.64721105957031,38.64729608154297,38.64731941223145,218.0,1000.0,172.69233193494458,13.863446546832876,218000,109000.0,14892.17295718193
7.19985544013977,-4.416537900924682,-38.88253680419922,0.21436254751682282,109500.0,0.4252857793569565,38.70477874755859,38.70481298828125,38.70486764526367,219.0,1000.0,173.43851704728235,13.614508849084734,219000,109500.0,14965.624010562897
7.193129877090454,-4.41006459236145,-38.94460496520996,0.215271175801754,110000.0,0.42487104988098146,38.76688006591797,38.7667254486084,38.76734767150879,220.0,1000.0,143.13227021557316,13.675566947209685,220000,110000.0,15038.747121810913
7.18639670753479,-4.404536157608033,-39.00342794799805,0.21494205045700074,110500.0,0.428235319852829,38.82455543518066,38.824707962036136,38.82519700622559,221.0,1000.0,156.05630066767105,7.767688023915293,221000,110500.0,15167.485558271408
7.179655982971191,-4.397645505905151,-39.0584111328125,0.21524297666549683,111000.0,0.4131892668008804,38.88043292236328,38.880260803222654,38.88047613525391,222.0,1000.0,169.05285963392947,13.676443004957683,222000,111000.0,15240.603986024857
7.172907695770264,-4.391732925415039,-39.127540634155274,0.21619380885362624,111500.0,0.42436993002891543,38.95262260437012,38.952562896728516,38.95295738220215,223.0,1000.0,143.30222880876556,13.75477069269937,223000,111500.0,15313.30603480339
7.166151777267456,-4.385174947738648,-39.174743103027346,0.21634948688745498,112000.0,0.4275068595409393,38.996944900512695,38.997059585571286,38.996981658935546,224.0,1000.0,163.4227728398178,13.418999039222596,224000,112000.0,15387.827242612839
7.159388277053833,-4.3800849437713625,-39.22751933288574,0.21685155522823335,112500.0,0.4278136676549911,39.05056855773926,39.0507025604248,39.051015258789064,225.0,1000.0,143.52924073674927,13.411412880527614,225000,112500.0,15462.39060306549
7.152617126464844,-4.372882329940796,-39.273771881103514,0.2174947320818901,113000.0,0.4243481534719467,39.09759864807129,39.09756739807129,39.09784318542481,226.0,1000.0,136.3178393552599,13.753257328976877,226000,113000.0,15535.100652694702
7.145838346481323,-4.3673751926422115,-39.33185659790039,0.2182471999526024,113500.0,0.4242787975072861,39.155919860839845,39.15579763793945,39.15653373718262,227.0,1000.0,174.48379791477197,13.332313657969484,227000,113500.0,15610.106389522552
7.139051866531372,-4.361284635543823,-39.36026731872558,0.21795139968395233,114000.0,0.4248928248882294,39.18547021484375,39.18553413391113,39.185665603637695,228.0,1000.0,135.3553249585931,12.915333001403978,228000,114000.0,15687.533739566803
7.1322577209472655,-4.35451845741272,-39.43307405090332,0.21910718739032745,114500.0,0.42222795355319975,39.25642300415039,39.25637422180176,39.25638395690918,229.0,1000.0,153.53413150751933,13.504905802156381,229000,114500.0,15761.580906867981
7.125455867767334,-4.34760283088684,-39.47240657043457,0.21932224094867706,115000.0,0.4293183716535568,39.29780810546875,39.297787002563474,39.298173309326174,230.0,1000.0,152.18612342385896,13.672213404979145,230000,115000.0,15834.721954584122
7.118646291732788,-4.342780075073242,-39.511810485839845,0.218491395175457,115500.0,0.4227324494123459,39.337472213745116,39.33756930541992,39.337546768188474,231.0,1000.0,146.45218622757497,7.373066051040234,231000,115500.0,15970.350741624832
7.111828985214234,-4.33660859298706,-39.57428718566894,0.21991353857517243,116000.0,0.42346011924743654,39.40104452514648,39.400994506835936,39.40135842895508,232.0,1000.0,152.9535544135285,13.656978617433898,232000,116000.0,16043.573380470276
7.105003932952881,-4.329214981079102,-39.619914138793945,0.22069036495685576,116500.0,0.42324261820316317,39.44700369262695,39.44712463378906,39.44733876037598,233.0,1000.0,160.82111531948314,12.168011958925312,233000,116500.0,16125.756074905396
7.098171104431152,-4.324586650848389,-39.65419906616211,0.22075568306446075,117000.0,0.4262519519329071,39.48392037963867,39.48375341796875,39.48410427856445,234.0,1000.0,171.16403358940906,11.434421963709001,234000,117000.0,16213.211305618286
7.091330471038819,-4.3171651077270505,-39.70690692138672,0.2208355406522751,117500.0,0.4265958307981491,39.528609985351565,39.528710189819336,39.52898861694336,235.0,1000.0,166.52432667911515,11.33370251395836,235000,117500.0,16301.443726301193
7.084482036590576,-4.30962615776062,-39.74343356323242,0.22103289258480072,118000.0,0.43220113813877103,39.56763751220703,39.567536346435546,39.56745901489258,236.0,1000.0,153.9062354306166,11.471827814185428,236000,118000.0,16388.6137945652
7.077625772476196,-4.303671255111694,-39.77806378173828,0.22089653944969176,118500.0,0.43014956963062284,39.60341723632813,39.60347587585449,39.60426425170898,237.0,1000.0,177.10906314228555,11.274013426790729,237000,118500.0,16477.313353061676
7.070761770248413,-4.297713695526123,-39.82747750854492,0.22238720667362213,119000.0,0.43502764976024627,39.650257415771485,39.65024198913574,39.650566024780275,238.0,1000.0,156.41996080657697,12.65478716688559,238000,119000.0,16556.33483314514
7.063889713287353,-4.290439390182495,-39.87213481140137,0.22278113538026809,119500.0,0.42337339985370637,39.69751466369629,39.697586959838866,39.69760388183594,239.0,1000.0,133.9959068209451,13.64824696223399,239000,119500.0,16629.604317188263
7.057009860992432,-4.28630838394165,-39.924559631347655,0.22304979979991912,120000.0,0.42895327758789065,39.74973971557617,39.7497586517334,39.75011528015137,240.0,1000.0,139.9547002842666,13.680195546210992,240000,120000.0,16702.702688694
7.050122144699096,-4.278626214981079,-39.97255326843262,0.2234728609919548,120500.0,0.43172658574581146,39.80134983825683,39.80128311157227,39.80153247070312,241.0,1000.0,157.4477379588985,7.441564748496704,241000,120500.0,16837.083029985428
7.043226488113404,-4.273807880401612,-40.02000944519043,0.22367865377664567,121000.0,0.4352452589273453,39.84708174133301,39.84711209106445,39.847243927001955,242.0,1000.0,169.54374168421364,13.373822489429443,242000,121000.0,16911.85596871376
7.036322883605957,-4.267227630615235,-40.04453527832031,0.22405900871753692,121500.0,0.44035664963722226,39.87193879699707,39.87189096069336,39.872086654663086,243.0,1000.0,153.54139326179606,13.456263334398175,243000,121500.0,16986.170805215836
7.029411354064941,-4.260957517623901,-40.12835942077637,0.22483931320905687,122000.0,0.4382835574150085,39.953471862792966,39.95350161743164,39.95384902954102,244.0,1000.0,158.24897443475356,13.248584128610611,244000,122000.0,17061.650569677353
7.022491828918457,-4.2540527477264405,-40.15253663635254,0.22443405032157898,122500.0,0.42960759794712067,39.97983767700195,39.979764724731446,39.98029446411133,245.0,1000.0,135.22701516735884,13.85399208331796,245000,122500.0,17133.831931829453
7.015564323425293,-4.247051368713379,-40.18677952575683,0.22361856216192247,123000.0,0.42609685492515564,40.012772216796876,40.012843536376955,40.012930206298826,246.0,1000.0,165.6815395188605,13.787187037554387,246000,123000.0,17206.363043785095
7.008628841400147,-4.241162586212158,-40.22175682067871,0.22417149966955185,123500.0,0.4215052127838135,40.04640161132812,40.04636082458496,40.04690364074707,247.0,1000.0,165.68884837581368,13.559156210016987,247000,123500.0,17280.113946914673
7.001685276031494,-4.235189552307129,-40.27497720336914,0.2264394601583481,124000.0,0.4232143018245697,40.10547964477539,40.10545727539063,40.10509941101074,248.0,1000.0,147.2117274401855,13.941893541879281,248000,124000.0,17351.840216636658
6.994733688354493,-4.227118551254272,-40.30469305419922,0.2251913194656372,124500.0,0.4231015411615372,40.13207690429687,40.13215187072754,40.132887390136716,249.0,1000.0,134.79550733933593,13.729788635665464,249000,124500.0,17424.67455148697
6.987774080276489,-4.222130043029785,-40.35847477722168,0.2273588141798973,125000.0,0.4270807126760483,40.19012168884277,40.19007777404785,40.19009339904785,250.0,1000.0,185.84789751410162,13.259485774219412,250000,125000.0,17500.09225821495
6.980806343078613,-4.214531318664551,-40.39487364196777,0.2273604210615158,125500.0,0.4218580058813095,40.22541537475586,40.22527119445801,40.226026443481445,251.0,1000.0,167.56310952892144,7.5640164720002945,251000,125500.0,17632.2971534729
6.973830501556397,-4.208208980560303,-40.43062400817871,0.2258535588979721,126000.0,0.4294892897605896,40.258376556396485,40.25856205749512,40.2584033203125,252.0,1000.0,159.78906869096141,13.774918648235086,252000,126000.0,17704.892864465714
6.9668465557098385,-4.203033088684082,-40.455629196166996,0.22769585305452347,126500.0,0.42613170766830444,40.28579180908203,40.28586267089844,40.28645269775391,253.0,1000.0,156.45062112928142,13.620353589081848,253000,126500.0,17778.312398910522
6.959854467391968,-4.195512195587158,-40.50844589233398,0.22855443453788757,127000.0,0.42701478278636934,40.33472535705567,40.33459355163574,40.334556533813476,254.0,1000.0,153.80378261889558,13.500471215661603,254000,127000.0,17852.38388800621
6.952854221343994,-4.189452205657959,-40.54170875549316,0.2285575516819954,127500.0,0.43279214584827425,40.37097334289551,40.37080741882324,40.37130659484863,255.0,1000.0,160.63627383384176,13.59869834938487,255000,127500.0,17925.920338869095
6.945845792770386,-4.184409227371216,-40.587073867797855,0.22839025121927262,128000.0,0.4297735186815262,40.41559539794922,40.415656356811525,40.41545474243164,256.0,1000.0,178.02627126660803,13.862200963364376,256000,128000.0,17998.058956623077
6.93882918548584,-4.176729627609253,-40.6240106048584,0.2291921693086624,128500.0,0.43541891384124753,40.45192420959473,40.45184344482422,40.45232963562012,257.0,1000.0,202.68372060924995,13.728373777369326,257000,128500.0,18070.90079689026
6.9318043403625484,-4.16953076171875,-40.65380598449707,0.2309137936234474,129000.0,0.4432096095085144,40.48258660888672,40.482618423461915,40.48269573974609,258.0,1000.0,173.7624631642238,13.64540442945223,258000,129000.0,18144.185544013977
6.924771284103394,-4.16365725517273,-40.69699807739258,0.23046887242794037,129500.0,0.4309637131690979,40.52358602905274,40.523713287353516,40.52380281066895,259.0,1000.0,162.4220844600924,13.880875953888596,259000,129500.0,18216.22710776329
6.917729961395263,-4.158068475723266,-40.72973036193848,0.23051750314235686,130000.0,0.4339068343639374,40.55610922241211,40.55619128417969,40.55709257507324,260.0,1000.0,149.99843294784023,13.635171081280584,260000,130000.0,18289.56685590744
6.910680360794068,-4.151545434951783,-40.76339878845215,0.23015359985828399,130500.0,0.43514622247219087,40.592965316772464,40.59299021911621,40.59307011413574,261.0,1000.0,165.54185280597852,7.454784720053079,261000,130500.0,18423.70889353752
6.903622482299805,-4.144286699295044,-40.79875715637207,0.23053279936313628,131000.0,0.43005379128456117,40.63003645324707,40.62999990844727,40.63018589782715,262.0,1000.0,171.78456611177637,13.832127539989314,262000,131000.0,18496.00435256958
6.896556285858154,-4.137657779693604,-40.85645072937012,0.2315766924023628,131500.0,0.4432671754360199,40.6840311126709,40.68389228820801,40.684378433227536,263.0,1000.0,173.41590008810746,13.501844918812795,263000,131500.0,18570.06830573082
6.8894817276000975,-4.131876501083374,-40.90359434509277,0.23267977398633957,132000.0,0.4377617281675339,40.731845764160155,40.731885177612305,40.73205599975586,264.0,1000.0,146.7676714316233,13.411417340402183,264000,132000.0,18644.63164114952
6.882398866653443,-4.124161558151245,-40.940339782714844,0.2324890756011009,132500.0,0.43226442408561705,40.76681112670899,40.766753265380856,40.76712458801269,265.0,1000.0,175.0482937985435,13.600561119646748,265000,132500.0,18718.15802049637
6.875307611465454,-4.116981241226196,-40.978807235717774,0.232781724691391,133000.0,0.42717868781089785,40.808957809448245,40.809055114746094,40.80886596679687,266.0,1000.0,152.2212094405746,13.61665670007647,266000,133000.0,18791.597487688065
6.868207983016967,-4.111263452529907,-41.01368923950195,0.23313677698373794,133500.0,0.437407451748848,40.84115698242187,40.8411782989502,40.84191371154785,267.0,1000.0,161.3515420345951,13.614224214104377,267000,133500.0,18865.050076007843
6.861099908828735,-4.106251243591308,-41.05016706848144,0.23361500561237336,134000.0,0.43741935229301454,40.88114764404297,40.88112898254395,40.88086422729492,268.0,1000.0,166.0812717345969,13.198805982954546,268000,134000.0,18940.814506292343
6.853983438491821,-4.099963706970215,-41.0812852935791,0.2341192045211792,134500.0,0.4485266777276993,40.908708984375,40.90862615966797,40.90917790222168,269.0,1000.0,187.31698118398668,13.984396671649417,269000,134500.0,19012.322776079178
6.846858509063721,-4.095459421157837,-41.11786001586914,0.23435108107328415,135000.0,0.4435251661539078,40.94649789428711,40.946483474731444,40.94638697814941,270.0,1000.0,190.5097043905817,13.886918765767806,270000,135000.0,19084.332993030548
6.8397251262664795,-4.085245670318604,-41.15293641662598,0.23448549979925157,135500.0,0.44470771503448486,40.979452682495115,40.97957699584961,40.98015684509277,271.0,1000.0,157.04941761839862,7.4011198067279595,271000,135500.0,19219.447682857513
6.832583164215088,-4.0789447727203365,-41.189958740234374,0.23590887105464936,136000.0,0.43946601152420045,41.01670277404785,41.01667736816406,41.01693954467773,272.0,1000.0,165.58041265266803,13.828651144934106,272000,136000.0,19291.761316537857
6.825432779312134,-4.072544263839721,-41.2268934173584,0.2352184494137764,136500.0,0.4361728765964508,41.05479658508301,41.05465771484375,41.05494421386719,273.0,1000.0,181.27257525440046,13.36217114560739,273000,136500.0,19366.599454641342
6.81827384185791,-4.067440603256226,-41.267297973632814,0.2350418978333473,137000.0,0.4432167237997055,41.09419781494141,41.094344604492186,41.09402139282226,274.0,1000.0,171.6973276593207,13.487074148765075,274000,137000.0,19440.744521856308
6.811106363296509,-4.058457885742188,-41.307945922851566,0.23708973562717436,137500.0,0.4420168784856796,41.13530023193359,41.13515769958496,41.135828842163086,275.0,1000.0,169.04118275366696,13.392927648148524,275000,137500.0,19515.410796165466
6.803930301666259,-4.052994318008423,-41.34559504699707,0.23605202001333236,138000.0,0.4477701098918915,41.1733283996582,41.173464599609375,41.173531311035156,276.0,1000.0,160.97263392940508,13.818216776029892,276000,138000.0,19587.77903532982
6.796745635986328,-4.047186618804932,-41.39282925415039,0.2369186229109764,138500.0,0.4435909068584442,41.22027362060547,41.22024562072754,41.22043492126465,277.0,1000.0,202.94943072794138,13.539805458331566,277000,138500.0,19661.63534092903
6.789552400588989,-4.039346727371216,-41.4394344329834,0.23769682854413987,139000.0,0.436608775138855,41.266864227294924,41.26669944763184,41.26752502441406,278.0,1000.0,173.1935478402065,13.262605114219197,278000,139000.0,19737.035309791565
6.78235046005249,-4.033339868545532,-41.48096971130371,0.23824741405248642,139500.0,0.44028429555892945,41.309043533325195,41.30927983093262,41.30909971618652,279.0,1000.0,175.38855758155205,13.455997019645313,279000,139500.0,19811.35161757469
6.775139909744262,-4.02427267074585,-41.5146423034668,0.23861918425559997,140000.0,0.4415221869945526,41.344067779541014,41.34389688110352,41.34416613769531,280.0,1000.0,161.44837825698445,13.679488542143662,280000,140000.0,19884.453767061234
6.767920598983765,-4.018544486999511,-41.55872277832031,0.23925607126951218,140500.0,0.4365278694629669,41.386001724243165,41.3859186706543,41.38647518920899,281.0,1000.0,172.4750815469608,7.433108564080925,281000,140500.0,20018.98698401451
6.760692733764649,-4.012018516540527,-41.6246787109375,0.23973520255088807,141000.0,0.43962309968471525,41.45228179931641,41.452287384033205,41.45240478515625,282.0,1000.0,176.05805223456034,13.304303885705979,282000,141000.0,20094.150631666183
6.753456081390381,-4.007283630371094,-41.6533145904541,0.23943966180086135,141500.0,0.44747568130493165,41.478111282348635,41.47828903198242,41.47850695800781,283.0,1000.0,145.7461887481413,13.354806798671794,283000,141500.0,20169.030039072037
6.746210721969605,-4.000661851882935,-41.695640579223635,0.2393557035923004,142000.0,0.4385565034151077,41.522109756469725,41.522064270019534,41.522164016723636,284.0,1000.0,188.35762546440804,13.55387423648609,284000,142000.0,20242.809683084488
6.738956548690796,-3.990987334251404,-41.738665924072265,0.2398985121846199,142500.0,0.44117451906204225,41.566146606445315,41.5660704498291,41.56599751281738,285.0,1000.0,173.86648160386812,13.565186337432127,285000,142500.0,20316.527801036835
6.731693609237671,-3.98496875,-41.77818481445313,0.2406069394350052,143000.0,0.4303931245803833,41.60695570373535,41.60717822265625,41.607772415161136,286.0,1000.0,177.82286837260773,13.590145438945402,286000,143000.0,20390.110531568527
6.724421880722046,-3.9785076780319213,-41.813664474487304,0.24144367611408232,143500.0,0.4384549514055252,41.641539779663084,41.64130630493164,41.641652282714844,287.0,1000.0,164.97948272980963,13.6870077386685,287000,143500.0,20463.17252111435
6.717141317367553,-3.970571702003479,-41.86050299072266,0.24117062664031982,144000.0,0.43976235580444334,41.68917230224609,41.689321395874025,41.68933424377441,288.0,1000.0,174.80736366841944,13.400693530517605,288000,144000.0,20537.795525312424
6.709851961135865,-3.9676884775161745,-41.8902227935791,0.24145771187543869,144500.0,0.4360692003965378,41.71826817321777,41.71835565185547,41.71902407836914,289.0,1000.0,182.52336698926993,13.60237702244157,289000,144500.0,20611.31208872795
6.702553674697876,-3.960378468513489,-41.939182830810545,0.24239569145441056,145000.0,0.44788645672798155,41.768012847900394,41.767898864746094,41.76788177490234,290.0,1000.0,133.22177838946686,13.469737652164568,290000,145000.0,20685.55258512497
6.6952465019226075,-3.952793203353882,-41.98304257202148,0.24172066098451614,145500.0,0.4420455867052078,41.811056747436524,41.81106056213379,41.811005996704104,291.0,1000.0,171.2044020807103,7.493318972787022,291000,145500.0,20819.004799365997
6.687930433273316,-3.945862461090088,-42.011364501953125,0.24283583778142928,146000.0,0.4449247028827667,41.83800068664551,41.838069442749024,41.838811431884764,292.0,1000.0,161.54255717766512,13.511931062730163,292000,146000.0,20893.013466596603
6.680605459213257,-3.9392354850769045,-42.043226516723635,0.24350356316566468,146500.0,0.4462983373403549,41.87304776000977,41.873041229248045,41.873273208618166,293.0,1000.0,171.56571315270847,13.510993216571745,293000,146500.0,20967.027272224426
6.673271511077881,-3.932594467163086,-42.09903843688965,0.24369470113515854,147000.0,0.4402551099061966,41.93029454040527,41.93016796875,41.93012905883789,294.0,1000.0,183.05838974903048,13.407352366636776,294000,147000.0,21041.613215446472
6.665928564071655,-3.9265303535461427,-42.11642855834961,0.2429122539162636,147500.0,0.43982490396499635,41.944970138549806,41.94506652832031,41.94487258911133,295.0,1000.0,183.19975230436697,13.471810509907494,295000,147500.0,21115.842289447784
6.658576627731323,-3.9194625101089478,-42.16182066345215,0.24377541166543962,148000.0,0.44677252435684206,41.990174270629886,41.990150146484375,41.99088980102539,296.0,1000.0,170.65503081264822,13.474470180887465,296000,148000.0,21190.056710720062
6.651215705871582,-3.91255295085907,-42.22488026428223,0.24547502070665358,148500.0,0.44982741594314574,42.05214584350586,42.051998443603516,42.05251754760742,297.0,1000.0,179.9786397005923,13.279358962835785,297000,148500.0,21265.36155104637
6.643845706939698,-3.9041658868789675,-42.25237126159668,0.24499773913621903,149000.0,0.44696694481372834,42.080678573608395,42.08081121826172,42.08072541809082,298.0,1000.0,219.51991671338078,13.655099917434956,298000,149000.0,21338.594264030457
6.636466667175293,-3.8974490871429444,-42.27219203186035,0.2449333090186119,149500.0,0.4498374685049057,42.10030108642578,42.100257568359375,42.100570846557616,299.0,1000.0,200.53275585247002,13.463118186738397,299000,149500.0,21412.87126326561
6.629078535079956,-3.8913941078186034,-42.32159288024902,0.24663424634933473,150000.0,0.4537830237150192,42.1504404296875,42.150295837402346,42.15046934509277,300.0,1000.0,196.19900864349975,13.272496332955443,300000,150000.0,21488.215040922165
6.621681262969971,-3.885186376571655,-42.3608649597168,0.24535239785909652,150500.0,0.4527095934152603,42.18722326660156,42.18732063293457,42.18784812927246,301.0,1000.0,191.90897853361074,7.464272050227515,301000,150500.0,21622.18657898903
6.614274909973145,-3.8774038066864014,-42.41970332336426,0.2465891017317772,151000.0,0.4602712630033493,42.246634826660156,42.246767181396486,42.24676622009277,302.0,1000.0,178.36790886800742,13.713276107692392,302000,151000.0,21695.10861515999
6.606859405517578,-3.8690291862487793,-42.477159881591795,0.24731961363554,151500.0,0.45670298039913176,42.30394596862793,42.30402452087402,42.30409700012207,303.0,1000.0,151.20724293010295,13.59842932082474,303000,151500.0,21768.646520853043
6.599434671401977,-3.863854398727417,-42.5195343170166,0.24758371990919112,152000.0,0.45495929729938506,42.3455451965332,42.34529513549805,42.345532928466795,304.0,1000.0,199.18505978503478,13.125999055847785,304000,152000.0,21844.83119869232
6.592000831604004,-3.8574615049362184,-42.532236587524416,0.2475901328921318,152500.0,0.4570722283124924,42.359144409179684,42.35914125061035,42.35985287475586,305.0,1000.0,195.71235502372525,13.644568208400448,305000,152500.0,21918.12043738365
6.584557643890381,-3.8501509847640993,-42.59931838989258,0.24835759049654008,153000.0,0.45114419078826906,42.426528823852536,42.426671875,42.4267347869873,306.0,1000.0,198.1840582275402,13.388192813260192,306000,153000.0,21992.813118219376
6.577105270385742,-3.842572414398193,-42.646618347167966,0.24771752500534058,153500.0,0.45953034150600436,42.47406854248047,42.4739287109375,42.47416311645508,307.0,1000.0,187.4763109175906,13.510451469200364,307000,153500.0,22066.829890727997
6.569643632888794,-3.8334426317214967,-42.687631149291995,0.24934447407722474,154000.0,0.4579429223537445,42.5141724395752,42.51438442993164,42.51452046203613,308.0,1000.0,198.22000506606526,13.308581293197003,308000,154000.0,22141.96938085556
6.562172714233398,-3.830205623626709,-42.73059696960449,0.2497367844581604,154500.0,0.46239659893512725,42.55937898254395,42.55921939086914,42.55976298522949,309.0,1000.0,208.12849747660636,13.474006197098904,309000,154500.0,22216.186358690262
6.554692438125611,-3.8219432706832888,-42.79705197143555,0.2499052894115448,155000.0,0.45702706480026245,42.62445610046387,42.62446208190918,42.62379559326172,310.0,1000.0,194.75285236231036,13.83122070594321,310000,155000.0,22288.48655939102
6.547202898025513,-3.814469276428223,-42.840320007324216,0.2512560312151909,155500.0,0.46294888520240784,42.66577978515625,42.66564936828613,42.66639880371094,311.0,1000.0,180.7128862343759,7.434374733921096,311000,155500.0,22422.996863365173
6.5397039299011235,-3.806624882698059,-42.88377081298828,0.25104201209545135,156000.0,0.46928400349617005,42.710061462402344,42.7102579498291,42.710484115600586,312.0,1000.0,202.20529732894158,13.857827226921604,312000,156000.0,22495.158249139786
6.532195657730102,-3.801393635749817,-42.93388003540039,0.25139243000745776,156500.0,0.4685503549575806,42.76145889282227,42.7613991394043,42.761591690063476,313.0,1000.0,194.78424765775964,13.590240817295301,313000,156500.0,22568.740463733673
6.524677875518798,-3.7970239210128782,-42.978034881591796,0.25212482005357745,157000.0,0.46761577451229097,42.80394839477539,42.80405712890625,42.80452670288086,314.0,1000.0,167.53776376245193,13.412052345320058,314000,157000.0,22643.300269126892
6.517150714874267,-3.787657521247864,-43.01359837341309,0.25182183128595353,157500.0,0.46310314393043517,42.84009585571289,42.840054489135746,42.84034309387207,315.0,1000.0,169.59185941204478,13.864375759944275,315000,157500.0,22715.427570581436
6.5096141052246095,-3.780070878982544,-43.0663383026123,0.2511962882876396,158000.0,0.46349461960792543,42.889612838745116,42.889649291992185,42.8900082244873,316.0,1000.0,203.82565020449957,13.703236801549899,316000,158000.0,22788.403031110764
6.5020680103302,-3.7736572418212893,-43.13642651367188,0.2539009501338005,158500.0,0.4705713721513748,42.96349937438965,42.96332548522949,42.962954162597654,317.0,1000.0,205.37393611006524,13.45186740384784,317000,158500.0,22862.742152690887
6.494512393951416,-3.7676274967193604,-43.189279739379884,0.25404213720560076,159000.0,0.47809881281852723,43.01236755371094,43.01254605102539,43.01328811645508,318.0,1000.0,206.04167720436234,12.687881917571493,318000,159000.0,22941.55751490593
6.486947269439697,-3.7598595666885375,-43.22090521240234,0.2537045723795891,159500.0,0.48269496965408326,43.04301058959961,43.04277412414551,43.04323474121094,319.0,1000.0,194.09271757021412,10.858672831557103,319000,159500.0,23033.64980173111
6.4793725624084475,-3.7538347454071044,-43.28725053405762,0.2540385790467262,160000.0,0.48007547271251677,43.111331344604494,43.11153196716309,43.111427352905274,320.0,1000.0,200.4843149395795,11.429484008162065,320000,160000.0,23121.14281654358
6.471788341522217,-3.7469375047683715,-43.33052600097656,0.2561703327894211,160500.0,0.483936247587204,43.1551215209961,43.15510372924805,43.15541442871094,321.0,1000.0,182.6128417712681,6.8551474388923594,321000,160500.0,23267.018600702286
6.464194480895996,-3.7370482702255248,-43.358438705444335,0.2546115707755089,161000.0,0.47506706714630126,43.18252223205566,43.18250823974609,43.18264477539063,322.0,1000.0,186.31443747497008,11.458063199499879,322000,161000.0,23354.29338645935
6.4565910091400145,-3.7341327323913576,-43.41400979614258,0.2554124404191971,161500.0,0.47224650108814237,43.23808992004395,43.238050735473635,43.23861843872071,323.0,1000.0,186.5112983735847,11.491212825083197,323000,161500.0,23441.316403865814
6.448977891921997,-3.726371645927429,-43.47444316101074,0.256075855910778,162000.0,0.48424579107761384,43.2962266998291,43.2962427368164,43.295873123168946,324.0,1000.0,182.97230747635732,11.493562921721907,324000,162000.0,23528.321627140045
6.44135510635376,-3.7195607862472535,-43.526346237182615,0.2560203319787979,162500.0,0.4883719722032547,43.34385884094238,43.343896728515624,43.344252609252926,325.0,1000.0,177.5355493703797,11.102521589285685,325000,162500.0,23618.39125728607
6.433722570419311,-3.7143561401367187,-43.592673614501955,0.25613660502433777,163000.0,0.48184560787677766,43.41104945373535,43.411176986694336,43.41145852661133,326.0,1000.0,167.49307636290584,11.484643595209883,326000,163000.0,23705.4640519619
6.426080379486084,-3.705838423728943,-43.66029975891113,0.25720354598760603,163500.0,0.4893334494829178,43.48024293518066,43.48007293701172,43.48024980163574,327.0,1000.0,198.4578673993586,11.524204069596664,327000,163500.0,23792.23794221878
6.418428407669067,-3.6977749309539796,-43.69166316223144,0.2570427896976471,164000.0,0.4820725165605545,43.513321640014645,43.51334774780273,43.513809921264645,328.0,1000.0,207.7327377578199,11.500352902810869,328000,164000.0,23879.191796302795
6.410766681671142,-3.690143890380859,-43.755157943725585,0.2575480942130089,164500.0,0.4924925194978714,43.578919906616214,43.57900921630859,43.578996292114255,329.0,1000.0,206.60621154109927,12.267656990074336,329000,164500.0,23960.70695590973
6.403095123291016,-3.6844168319702146,-43.81160594177246,0.25910892778635025,165000.0,0.49099096155166627,43.63114263916015,43.63099705505371,43.631523040771484,330.0,1000.0,193.99009098101394,13.458958373047057,330000,165000.0,24035.006911993027
6.395413812637329,-3.67806298828125,-43.87400227355957,0.2585008808374405,165500.0,0.48928354585170747,43.694762084960935,43.694662536621095,43.69469241333008,331.0,1000.0,186.7483293917091,7.504623024445613,331000,165500.0,24168.25810956955
6.387722602844239,-3.6704138622283935,-43.93218190002442,0.25919070118665694,166000.0,0.4992296702861786,43.75286737060547,43.75305494689941,43.753120849609374,332.0,1000.0,188.31343115936622,13.345791472326434,332000,166000.0,24243.18809914589
6.380021556854248,-3.663995517730713,-43.99924937438965,0.2600318356752396,166500.0,0.48274918961524965,43.817692153930665,43.81767346191406,43.81817655944824,333.0,1000.0,211.00855680735737,13.30664933327843,333000,166500.0,24318.338499069214
6.372310598373413,-3.655129158973694,-44.04735765075684,0.26009076535701753,167000.0,0.4845319910049439,43.86655258178711,43.86655888366699,43.86711251831055,334.0,1000.0,209.70909267085125,13.411711355599767,334000,167000.0,24392.900200366974
6.364589702606201,-3.6481692237854,-44.10215608215332,0.26057795351743696,167500.0,0.4821362971067429,43.9225414276123,43.92237316894531,43.92217848205566,335.0,1000.0,197.5345252451874,13.65961088497637,335000,167500.0,24466.10872888565
6.356858871459961,-3.6398953800201417,-44.15920185852051,0.2611651093363762,168000.0,0.5019394884109497,43.975660766601564,43.975755187988284,43.976285247802736,336.0,1000.0,192.10320560353395,13.593355880701727,336000,168000.0,24539.67408132553
6.349118061065674,-3.631982726097107,-44.20311642456055,0.26039532673358917,168500.0,0.48961353743076325,44.02268896484375,44.022789947509764,44.022965560913086,337.0,1000.0,223.6873370997832,13.578952103653442,337000,168500.0,24613.317467689514
6.341367254257202,-3.626771668434143,-44.262518981933596,0.2620353038907051,169000.0,0.49637371265888214,44.08306735229492,44.082998443603515,44.08295948791504,338.0,1000.0,209.25075804582326,13.415253759391552,338000,169000.0,24687.859480142593
6.333606424331665,-3.620564145088196,-44.32354447937012,0.2622350247502327,169500.0,0.49928274464607236,44.14096017456055,44.14108120727539,44.141479705810546,339.0,1000.0,173.67340988938471,13.47599537559465,339000,169500.0,24762.06550192833
6.325835525512695,-3.614013172149658,-44.38225497436523,0.2632902508378029,170000.0,0.50655095911026,44.20263436889648,44.20242565917969,44.202747940063475,340.0,1000.0,198.94095128355914,13.759579277390678,340000,170000.0,24834.74214363098
6.318054567337036,-3.604247611999512,-44.45100553894043,0.26295318245887755,170500.0,0.49639367473125456,44.27001634216309,44.27015643310547,44.27036399841309,341.0,1000.0,213.09041771113698,7.611666229260475,341000,170500.0,24966.119424581528
6.310263523101806,-3.5968601741790773,-44.5071000366211,0.26369680839776993,171000.0,0.5017124307155609,44.325759185791014,44.32563265991211,44.326410202026366,342.0,1000.0,191.5159989772363,13.407434996274464,342000,171000.0,25040.70490670204
6.302462324142456,-3.592716302871704,-44.56269956970215,0.26381970435380936,171500.0,0.5018657385110855,44.38186395263672,44.38195492553711,44.38171226501465,343.0,1000.0,222.80537304054624,13.369977592374996,343000,171500.0,25115.499348402023
6.294650943756103,-3.582847041130066,-44.618418212890624,0.26406847923994065,172000.0,0.49419983100891113,44.43671421813965,44.43657542419434,44.43693447875977,344.0,1000.0,197.44565854348136,13.42181467606179,344000,172000.0,25190.00492286682
6.286829442977905,-3.5778082456588747,-44.6766625213623,0.26488013261556625,172500.0,0.49503120422363284,44.495805557250975,44.495879364013675,44.49644076538086,345.0,1000.0,185.74554674197546,13.41233622358889,345000,172500.0,25264.563149929047
6.278997674942016,-3.569183313369751,-44.71264797973633,0.26463242882490157,173000.0,0.5037237572669983,44.532681015014646,44.53282496643067,44.53279243469238,346.0,1000.0,221.02819638654944,13.398228147269716,346000,173000.0,25339.199885606766
6.271155696868896,-3.5618720684051515,-44.774040023803714,0.26510024470090865,173500.0,0.49784717679023743,44.594581893920896,44.594456283569336,44.594363693237305,347.0,1000.0,205.2217514896366,13.33258679649406,347000,173500.0,25414.20408630371
6.263303430557251,-3.5545199632644655,-44.82350518798828,0.26540036249160764,174000.0,0.4942752670049667,44.64227973937988,44.64232002258301,44.64269737243652,348.0,1000.0,212.46891632521385,13.733655322842344,348000,174000.0,25487.017914772034
6.255440832138062,-3.549501051902771,-44.88475112915039,0.26578916496038435,174500.0,0.49112417948246,44.70354161071777,44.70365222167969,44.703760009765624,349.0,1000.0,205.71307132390757,13.129997039422179,349000,174500.0,25563.179394960403
6.2475680751800535,-3.5420413312911987,-44.938819580078125,0.26674422323703767,175000.0,0.5055236324071885,44.75620674133301,44.75605337524414,44.756572448730466,350.0,1000.0,212.64668494510704,13.32030087915077,350000,175000.0,25638.252776145935
6.2396848697662355,-3.5348393039703367,-45.01109828186035,0.2679261063337326,175500.0,0.5061161293983459,44.82726026916504,44.827276794433594,44.827338668823245,351.0,1000.0,194.51383416655943,7.723371975579916,351000,175500.0,25767.72990179062
6.231791315078735,-3.52684618473053,-45.07590411376953,0.2679059438109398,176000.0,0.5070123893022537,44.89160565185547,44.89151211547851,44.89188264465332,352.0,1000.0,183.01472992684978,13.65186189193,352000,176000.0,25840.979984283447
6.223887348175049,-3.519756009101868,-45.127375915527345,0.26782492572069166,176500.0,0.5093171199560166,44.94418161010742,44.94435299682617,44.944406875610355,353.0,1000.0,199.7043416968385,13.52762492832596,353000,176500.0,25914.902792453766
6.215972948074341,-3.5111918840408327,-45.18264744567871,0.2672712506651878,177000.0,0.5271004662513733,44.99682429504394,44.99666799926758,44.99741838073731,354.0,1000.0,210.89546375692387,13.477632649126024,354000,177000.0,25989.099800109863
6.208048124313354,-3.5044883794784547,-45.24769506835938,0.26897300654649736,177500.0,0.5320390421152115,45.061572219848635,45.061527893066405,45.06164038085937,355.0,1000.0,223.89655154148122,13.958182074495902,355000,177500.0,26060.742367744446
6.200112819671631,-3.4974617347717287,-45.330292037963865,0.26891619426012037,178000.0,0.527428360581398,45.142756942749024,45.142879608154296,45.14296479797363,356.0,1000.0,222.16518660686492,13.379549126499185,356000,178000.0,26135.48330283165
6.192166965484619,-3.492610047340393,-45.37683517456055,0.26994764888286593,178500.0,0.5355576813220978,45.19037538146973,45.190287734985354,45.19058409118652,357.0,1000.0,217.20781147701211,13.53883734271111,357000,178500.0,26209.344890117645
6.184210605621338,-3.482821451187134,-45.461954986572266,0.2689969815015793,179000.0,0.5233358747959137,45.27565591430664,45.27577499389648,45.27574917602539,358.0,1000.0,194.84348984285242,13.59618254126572,358000,179000.0,26282.894947767258
6.176243667602539,-3.476333637237549,-45.53490464782715,0.26976135301589965,179500.0,0.5308895530700684,45.34826383972168,45.348133697509766,45.34868006896973,359.0,1000.0,208.24809418232246,13.705205976488818,359000,179500.0,26355.85992383957
6.168266147613525,-3.4694964237213135,-45.58916502380371,0.2710183298587799,180000.0,0.5430984607934952,45.40111633300781,45.401145645141604,45.40067448425293,360.0,1000.0,215.72680000476092,14.031545371538947,360000,180000.0,26427.127911806107
6.160277988433838,-3.4630383949279784,-45.65537045288086,0.2705652137994766,180500.0,0.5342851202487946,45.46467405700684,45.46485194396973,45.46552279663086,361.0,1000.0,236.37987761328134,7.579363881183133,361000,180500.0,26559.065106868744
6.152279186248779,-3.453779091835022,-45.737126754760745,0.27111350655555727,181000.0,0.5504415299892426,45.54839051818848,45.54831687927246,45.54854438781738,362.0,1000.0,229.831617953656,13.854340969516759,362000,181000.0,26631.244650363922
6.144269695281983,-3.447632918357849,-45.80979139709473,0.2723840636014938,181500.0,0.5400203248262405,45.622582443237306,45.62256242370606,45.62246774291992,363.0,1000.0,215.1189456361752,13.537007649749498,363000,181500.0,26705.11622095108
6.136249536514282,-3.4404865770339965,-45.88093417358398,0.2728457343578339,182000.0,0.5346558623313904,45.68991178894043,45.68984185791015,45.69058792114258,364.0,1000.0,199.07476622917278,13.64865835684153,364000,182000.0,26778.383496761322
6.128218656539917,-3.433545593261719,-45.94408770751953,0.2727219146490097,182500.0,0.5468276302814483,45.75369239807129,45.7538050994873,45.75425628662109,365.0,1000.0,199.24824660168176,13.537368934829264,365000,182500.0,26852.253095149994
6.120176961898804,-3.424080410003662,-46.028300842285155,0.2734117198586464,183000.0,0.5509134192466736,45.83685527038574,45.8368782043457,45.83668528747559,366.0,1000.0,223.1132946655386,13.35458071217606,366000,183000.0,26927.133769989014
6.112124481201172,-3.416571147918701,-46.08435046386719,0.27336096531152726,183500.0,0.5435786191225052,45.88951138305664,45.889469802856446,45.89010014343262,367.0,1000.0,221.50337091269344,13.45460820083876,367000,183500.0,27001.457748651505
6.10406120300293,-3.411952660560608,-46.178563064575194,0.2750794563293457,184000.0,0.5600993822813034,45.98360522460938,45.98356057739258,45.983502883911136,368.0,1000.0,202.10924849934852,13.703752078055723,368000,184000.0,27074.430465698242
6.095987066268921,-3.4041006622314454,-46.2482061920166,0.2743057018518448,184500.0,0.5514727238416671,46.05347039794922,46.05352600097656,46.05421003723144,369.0,1000.0,214.67258402463543,13.480449681763439,369000,184500.0,27148.611968755722
6.087902021408081,-3.3971002388000486,-46.35302415466309,0.27495329666137697,185000.0,0.5679965497255325,46.15436807250977,46.1543536529541,46.15450276184082,370.0,1000.0,216.88359558709632,13.648086728014134,370000,185000.0,27221.882313251495
6.079806089401245,-3.389605561256409,-46.417496032714844,0.27512334287166595,185500.0,0.5624379388093949,46.222044631958006,46.2220153503418,46.222231872558595,371.0,1000.0,226.17892135361603,7.5823491951625925,371000,185500.0,27353.7675614357
6.071699226379395,-3.3832872171401975,-46.50137669372559,0.27547567546367646,186000.0,0.5658376249074936,46.30780993652344,46.30784240722656,46.30839367675781,372.0,1000.0,223.39639039525426,13.292306416073533,372000,186000.0,27428.999050855637
6.063581396102905,-3.3728870458602906,-46.57840144348145,0.2766959236860275,186500.0,0.5671827698945999,46.379089096069336,46.37918881225586,46.37890658569336,373.0,1000.0,217.45133900665707,13.51057415063286,373000,186500.0,27503.015151500702
6.055452548980713,-3.3665203943252564,-46.65945980834961,0.2770633825063705,187000.0,0.5645396430492401,46.462224227905274,46.462025100708004,46.46279391479492,374.0,1000.0,227.69105772623828,13.586890651672595,374000,187000.0,27576.61550951004
6.047312671661377,-3.357650415420532,-46.74168214416504,0.277035742521286,187500.0,0.5643586529493332,46.544642578125,46.54478338623047,46.544605209350586,375.0,1000.0,211.27016486613604,13.485106324655444,375000,187500.0,27650.771396160126
6.039161714553833,-3.3497627096176146,-46.79118719482422,0.2772428226470947,188000.0,0.5823648898601532,46.59277876281738,46.59271495056152,46.59340850830078,376.0,1000.0,242.30017165607578,13.528892623633391,376000,188000.0,27724.68727684021
6.030999753952027,-3.34398020362854,-46.913205032348635,0.2782201397418976,188500.0,0.5752960804700852,46.713802520751955,46.71376350402832,46.714244171142575,377.0,1000.0,221.75197077710612,13.609473924004488,377000,188500.0,27798.16550397873
6.022826620101929,-3.3376738891601563,-46.97005523681641,0.2784323979616165,189000.0,0.566845040678978,46.77207604980469,46.77196926879883,46.771887130737305,378.0,1000.0,231.67554787347075,13.287302702964512,378000,189000.0,27873.425324201584
6.014642364501953,-3.3269088745117186,-47.087715042114255,0.27987337958812714,189500.0,0.5704862227439881,46.8868422241211,46.88706677246094,46.88713352966309,379.0,1000.0,230.46883736449487,13.520377889414709,379000,189500.0,27947.387755393982
6.006446855545044,-3.322796371459961,-47.147376724243166,0.2789454129934311,190000.0,0.5710227391719818,46.94587338256836,46.94571504211426,46.946309844970706,380.0,1000.0,207.99257716401,13.563098463105122,380000,190000.0,28021.11722135544
5.9982402153015135,-3.313056520462036,-47.25054670715332,0.28094760692119597,190500.0,0.5960923589468002,47.049755798339845,47.04982780456543,47.050076858520505,381.0,1000.0,255.17440906370598,7.672334263831248,381000,190500.0,28151.45565199852
5.990022302627564,-3.3076347618103026,-47.322749618530274,0.2797708636522293,191000.0,0.5864418412446976,47.12385887145996,47.12391047668457,47.123755935668946,382.0,1000.0,212.07393528632156,13.621508045483134,382000,191000.0,28224.868963241577
5.981793136596679,-3.2985776786804197,-47.40750480651855,0.27988688147068025,191500.0,0.5792048004865646,47.202047317504885,47.20205403137207,47.203003845214845,383.0,1000.0,199.67212103927494,13.81936554283479,383000,191500.0,28297.231186151505
5.97355265045166,-3.2925107221603396,-47.501525497436525,0.2812515850067139,192000.0,0.58343834400177,47.297594268798825,47.29749996948242,47.297445205688476,384.0,1000.0,244.19461123779473,13.4433550418059,384000,192000.0,28371.617380142212
5.965300838470459,-3.285921223640442,-47.60739065551758,0.2820656110048294,192500.0,0.5749925193786621,47.40774168395996,47.407866775512694,47.40788180541992,385.0,1000.0,223.30437490771527,13.778360834752833,385000,192500.0,28444.19495487213
5.957037656784058,-3.279087468147278,-47.66029066467285,0.28220656859874726,193000.0,0.5829540891647339,47.46221685791016,47.4622073059082,47.46276890563965,386.0,1000.0,219.15653344145372,13.377278729534103,386000,193000.0,28518.948575258255
5.948763095855713,-3.2692793798446655,-47.76466806030273,0.2830142447948456,193500.0,0.6004783656597138,47.56382060241699,47.56392666625977,47.56369093322754,387.0,1000.0,218.48794041875234,13.817635636157961,387000,193500.0,28591.31985759735
5.940477111816406,-3.2626581411361695,-47.84282025146484,0.2827901165485382,194000.0,0.5840672302246094,47.639127227783206,47.63892395019531,47.639696090698244,388.0,1000.0,215.48415185962716,13.574396450474287,388000,194000.0,28664.987958669662
5.932179634094238,-3.254746859550476,-47.92788836669922,0.2836637477874756,194500.0,0.5882080584764481,47.72540046691895,47.72536709594726,47.72585603332519,389.0,1000.0,233.2728929072843,13.625426623369538,389000,194500.0,28738.38015794754
5.923870687484741,-3.245573550224304,-47.99691590881348,0.28360873079299925,195000.0,0.5919311828613282,47.79316073608398,47.79324272155762,47.793115951538084,390.0,1000.0,245.4362211038909,13.67108202027637,390000,195000.0,28811.52725839615
5.915550199508667,-3.2396220197677614,-48.0917515411377,0.28443562757968904,195500.0,0.6023788371086121,47.890365478515626,47.89046762084961,47.89108366394043,391.0,1000.0,227.5497018299743,7.783562296402294,391000,195500.0,28940.003137350082
5.907218183517456,-3.232061056137085,-48.1707041015625,0.28546285843849184,196000.0,0.5922409898042679,47.97137094116211,47.97139399719238,47.97199203491211,392.0,1000.0,218.1620204188689,13.104658187736261,392000,196000.0,29016.311882019043
5.898874549865723,-3.2258724174499513,-48.24221928405762,0.2846489436626434,196500.0,0.59170892059803,48.04102825927735,48.04094537353516,48.04082717895508,393.0,1000.0,216.65774652611236,12.748559360671011,393000,196500.0,29094.752118587494
5.890519346237182,-3.217802626609802,-48.32054844665527,0.28518147027492524,197000.0,0.6071614969968796,48.116933227539064,48.117041000366214,48.11709774780273,394.0,1000.0,244.5046720193092,13.265427742112525,394000,197000.0,29170.13604426384
5.882152435302735,-3.210811026573181,-48.418433898925784,0.28604439640045165,197500.0,0.6018473672866821,48.21361671447754,48.21346113586426,48.21391516113281,395.0,1000.0,251.98380285792595,13.857485719391061,395000,197500.0,29242.299208164215
5.873773880004883,-3.200172576904297,-48.482323104858395,0.28646082639694215,198000.0,0.5938788232803345,48.27527960205078,48.275306030273434,48.27532598876953,396.0,1000.0,227.33662091652025,13.318865068527167,396000,198000.0,29317.38068175316
5.86538360786438,-3.1936984968185427,-48.569535202026366,0.28627582609653474,198500.0,0.6115196310281753,48.36521997070312,48.36508659362793,48.365806350708006,397.0,1000.0,209.70066615304677,13.544143814302775,397000,198500.0,29391.21333169937
5.856981569290161,-3.188593928337097,-48.65358825683594,0.2868376904726028,199000.0,0.6162294350862503,48.44885861206055,48.44886354064941,48.449139434814455,398.0,1000.0,218.2073994111911,13.497049407768166,398000,199000.0,29465.303599596024
5.848567735671997,-3.179400483131409,-48.76101951599121,0.28780412817001344,199500.0,0.6110050234794616,48.55454257202148,48.55482780456543,48.55481832885742,399.0,1000.0,218.49639653987452,13.556074500181678,399000,199500.0,29539.071268558502
5.840142105102539,-3.171477725028992,-48.85242721557617,0.2881203023195267,200000.0,0.6216895442008972,48.643298828125,48.64320979309082,48.643188980102536,400.0,1000.0,228.3670446635172,13.504016408360757,400000,200000.0,29613.12331175804
5.83170461845398,-3.1648603267669677,-48.94663455200195,0.288306930065155,200500.0,0.6156328206062317,48.736602416992184,48.736667907714846,48.737711105346676,401.0,1000.0,201.7219546031466,7.565127241367015,401000,200500.0,29745.30879688263
5.823255279541016,-3.154124591827393,-49.03112780761719,0.2884838219881058,201000.0,0.6113960036039352,48.82434567260742,48.824058654785155,48.82398701477051,402.0,1000.0,235.0343453586292,13.740195431694527,402000,201000.0,29818.087967157364
5.814793998718262,-3.150443350791931,-49.13004374694824,0.2893487021923065,201500.0,0.6248928039073944,48.92149555969238,48.92172569274902,48.92223291015625,403.0,1000.0,243.13224470629265,13.470567765663821,403000,201500.0,29892.323889017105
5.806320772171021,-3.1456490392684935,-49.21787117004394,0.29038648736476896,202000.0,0.6251079078912735,49.01133877563477,49.01125192260742,49.01125965881348,404.0,1000.0,213.347380236181,13.312005538002303,404000,202000.0,29967.44405078888
5.797835563659668,-3.135372507095337,-49.28762677001953,0.2905380073785782,202500.0,0.6284413077831268,49.07814572143555,49.0781591796875,49.0785824432373,405.0,1000.0,271.6090818472061,13.794353249077519,405000,202500.0,30039.937483549118
5.7893383502960205,-3.1274127626419066,-49.37365504455566,0.29100181138515474,203000.0,0.6064753061532975,49.16562866210938,49.1654171295166,49.16579064941406,406.0,1000.0,211.4371814247234,13.704957033433901,406000,203000.0,30112.903784751892
5.780829048156738,-3.117283214569092,-49.45835208129883,0.2906745045185089,203500.0,0.6217154523134232,49.247176803588864,49.247431640625,49.247509063720706,407.0,1000.0,236.69073187322348,13.449357971173194,407000,203500.0,30187.256776571274
5.772307703018188,-3.112925395011902,-49.53930709838867,0.29192245423793795,204000.0,0.6266119486093521,49.33161943054199,49.331542343139645,49.331824661254885,408.0,1000.0,226.1939708565224,12.931811578058184,408000,204000.0,30264.585463762283
5.763774213790893,-3.1035300788879394,-49.633065002441406,0.29230529475212097,204500.0,0.6350620119571686,49.422038467407226,49.422031311035155,49.42274964904785,409.0,1000.0,232.51998623344707,13.668874024390465,409000,204500.0,30337.744380235672
5.755228582382202,-3.096519651412964,-49.72684092712402,0.2918557854890823,205000.0,0.6438574233055114,49.516119140625,49.516250457763675,49.516388946533205,410.0,1000.0,244.05165051697108,13.460862368973828,410000,205000.0,30412.033826351166
5.746670783996582,-3.0873383197784423,-49.82138713073731,0.29286574602127075,205500.0,0.6534455952644348,49.61274690246582,49.61271168518066,49.61264147949219,411.0,1000.0,270.42046258583974,7.442050566920812,411000,205500.0,30546.405395269394
5.738100742340088,-3.0787975473403932,-49.91711039733887,0.29316643440723417,206000.0,0.6394006414413452,49.7060941619873,49.70600817871094,49.70670573425293,412.0,1000.0,239.97897235625925,13.502528506450926,412000,206000.0,30620.46559858322
5.729518449783325,-3.0711519622802737,-49.98316931152344,0.29361898958683014,206500.0,0.6413618974685669,49.7689549407959,49.769048141479495,49.76884007263184,413.0,1000.0,263.2184025248612,13.430847798219014,413000,206500.0,30694.921063899994
5.720923818588257,-3.066538939476013,-50.0723486328125,0.29496305906772613,207000.0,0.6434748314619064,49.862415252685544,49.8623166809082,49.86240055847168,414.0,1000.0,222.09216678624796,13.357319097692443,414000,207000.0,30769.786386966705
5.712316909790039,-3.056151544570923,-50.15412907409668,0.2951371096372604,207500.0,0.6421735925674439,49.93997540283203,49.939960632324215,49.94153663635254,415.0,1000.0,241.1634880457064,13.631165074291598,415000,207500.0,30843.147689580917
