cmpe-260-team-4/drqv2/Various Attempts/cartpole_balance_1090_train_R.csv
actor_ent,actor_logprob,actor_loss,batch_reward,buffer_size,critic_loss,critic_q1,critic_q2,critic_target_q,episode,episode_length,episode_reward,fps,frame,step,total_time
1.3984889798164368,-0.9190501465797424,-4.0931620788574214,2.1170533928871156,2500.0,2.7889991595745087,4.076411063879728,4.100896498471498,4.235574438095092,5.0,1000.0,172.25663943680303,15.924363888274378,5000,2500.0,62.79685950279236
1.3938854260444642,-0.9137604584693909,-8.354263610839844,2.093437047243118,3000.0,1.636043862581253,8.363685581207275,8.36432516860962,8.378769969940185,6.0,1000.0,164.92273739559275,49.59167103813821,6000,3000.0,82.96153664588928
1.3892605791091919,-0.9095605466365814,-11.171233459472656,1.9633283507823944,3500.0,3.1191235151290893,11.041515045166015,11.042043636322022,11.058228693008424,7.0,1000.0,259.6949811855399,49.48549901529343,7000,3500.0,103.16947722434998
1.384614252090454,-0.9048404266834259,-13.65764457321167,1.8956068003177642,4000.0,4.2992512874603275,13.442725456237794,13.443016969680786,13.454216722488404,8.0,1000.0,153.07271765587961,49.2591555962566,8000,4000.0,123.47027254104614
1.3799462265968323,-0.9001800153255463,-14.89391343688965,1.6353790059089661,4500.0,4.493761060714721,14.729859558105469,14.72966943359375,14.74013591003418,9.0,1000.0,157.94908343892175,49.40071930667146,9000,4500.0,143.71289348602295
1.3752563061714171,-0.8956956703662873,-17.055452602386474,1.5933109452724457,5000.0,5.335421072006225,16.95522877120972,16.95490297317505,16.964410694122314,10.0,1000.0,158.1711882096855,49.43781759712822,10000,5000.0,163.94032454490662
1.3705442967414856,-0.8911409237384796,-18.56179710006714,1.5476628708839417,5500.0,6.015114636421203,18.552942573547362,18.55229846572876,18.55829719543457,11.0,1000.0,181.75855682990675,20.081946309182094,11000,5500.0,213.73629522323608
1.3658099727630615,-0.8866926438808441,-19.60920751571655,1.4876841835975647,6000.0,6.038043656349182,19.705674125671386,19.705344528198243,19.71151356124878,12.0,1000.0,166.18224879129355,49.34972449048014,12000,6000.0,233.99983382225037
1.361053126335144,-0.8821164724826813,-20.00420997619629,1.402826102256775,6500.0,4.678918384552002,20.111292640686035,20.11135417175293,20.115792472839356,13.0,1000.0,167.58898905132114,49.57644407818374,13000,6500.0,254.1707043647766
1.356273549079895,-0.8775950169563294,-21.05064705657959,1.399503957271576,7000.0,4.428170694828033,21.180464599609376,21.18087247467041,21.183860382080077,14.0,1000.0,174.5817123496728,49.53617821716461,14000,7000.0,274.35797119140625
1.3514710178375244,-0.8729243130683899,-21.875825843811036,1.3711290802955627,7500.0,4.343920038223267,22.018823638916015,22.01898408508301,22.021026809692383,15.0,1000.0,155.46384314102409,49.509286862977106,15000,7500.0,294.55620217323303
1.346645299911499,-0.8682312543392181,-22.296547592163087,1.3449224061965943,8000.0,3.8571804609298708,22.459542083740235,22.459978294372558,22.46624892425537,16.0,1000.0,160.99338137461766,49.4580380319368,16000,8000.0,314.7753632068634
1.3417961983680724,-0.8652701942920685,-22.553396308898925,1.290051744222641,8500.0,3.747001812458038,22.69329517364502,22.693665542602538,22.6932377243042,17.0,1000.0,164.11359883355402,49.35014429929369,17000,8500.0,335.0387291908264
1.3369234552383422,-0.8730078010559083,-24.374388664245604,1.280671823978424,9000.0,3.390618571281433,24.122547027587892,24.12258134460449,24.128279556274414,18.0,1000.0,274.3643889036671,49.2949551774562,18000,9000.0,355.32478165626526
1.3320268664360047,-0.868716710805893,-26.45878816986084,1.3035088295936585,9500.0,4.892301939487457,26.171163314819335,26.171332862854005,26.17552417755127,19.0,1000.0,410.9981657420284,49.37721177747386,19000,9500.0,375.57703948020935
1.327106165409088,-0.8647542645931244,-28.896161605834962,1.3453101615905763,10000.0,5.747247213363647,28.59188747406006,28.59210479736328,28.597618034362792,20.0,1000.0,364.39148224088217,49.512650922957995,20000,10000.0,395.773898601532
1.322161141395569,-0.8607659976482391,-30.845760398864748,1.3851432309150695,10500.0,6.389380291938782,30.530349021911622,30.530253005981447,30.53066104888916,21.0,1000.0,380.49024948357703,20.046519274602602,21000,10500.0,445.6578710079193
1.3171915378570556,-0.8560037863254547,-33.53511613464355,1.4459069814682006,11000.0,8.22053943824768,33.19556915283203,33.19554581451416,33.200990158081055,22.0,1000.0,325.86972642715665,49.25106698213873,22000,11000.0,465.96200013160706
1.3121971201896667,-0.8504819459915162,-35.34821746063233,1.4725379881858827,11500.0,8.243611715316773,34.98347191619873,34.98361589050293,34.987378303527834,23.0,1000.0,399.88701527149993,49.45817741595767,23000,11500.0,486.1811044216156
1.3071776242256166,-0.8441828644275665,-37.095431533813475,1.497358093738556,12000.0,8.339534025192261,36.7217373046875,36.7218938369751,36.725999450683595,24.0,1000.0,487.4604646525334,49.43619419717957,24000,12000.0,506.4091992378235
1.3021328134536743,-0.8391687433719635,-39.25764882659912,1.5471841344833375,12500.0,9.173879844665528,38.85933961486816,38.85972479248047,38.860851745605466,25.0,1000.0,825.3226446342355,49.353429274042846,25000,12500.0,526.6712164878845
1.2970624189376831,-0.8337354211807251,-42.60675102233887,1.6771752333641052,13000.0,10.740702960968017,42.14361041259765,42.14432536315918,42.15051515197754,26.0,1000.0,797.0626136039098,49.43290635229271,26000,13000.0,546.9006569385529
1.2919661893844605,-0.8280014562606811,-45.84696310424805,1.8006426501274109,13500.0,12.943307140350342,45.34698687744141,45.34697784423828,45.34650729370117,27.0,1000.0,458.89182308169757,49.165727801005815,27000,13500.0,567.240029335022
1.2868438501358033,-0.8220758597850799,-48.07544387817383,1.8417591404914857,14000.0,13.386281129837036,47.5293377532959,47.529712524414066,47.53773497009277,28.0,1000.0,534.8134304484998,49.2054182477679,28000,14000.0,587.5629947185516
1.281695140838623,-0.8172768287658692,-50.51645620727539,1.887272400379181,14500.0,15.191933280944824,49.919213485717776,49.919579391479495,49.921068161010744,29.0,1000.0,700.628304297198,49.16836692013854,29000,14500.0,607.9012749195099
1.2765197858810424,-0.8121152646541595,-53.40665121459961,1.9552272729873656,15000.0,16.954060691833497,52.747165466308594,52.7473134765625,52.75210073852539,30.0,1000.0,873.6500713067721,49.187435896933735,30000,15000.0,628.2316703796387
1.271317497730255,-0.8075497405529022,-57.165520874023436,2.063080874443054,15500.0,17.426371932983397,56.49104280090332,56.49153869628906,56.49817379760742,31.0,1000.0,886.697564966582,20.035110586654497,31000,15500.0,678.1440484523773
1.266088010787964,-0.802181131362915,-61.434781631469725,2.1703719959259034,16000.0,17.715332120895386,60.70745390319824,60.70746055603027,60.70740998840332,32.0,1000.0,878.6631320356868,49.200517283537664,32000,16000.0,698.4690387248993
1.260831030845642,-0.7972712671756744,-65.24692295837403,2.267426868438721,16500.0,19.084486309051513,64.5222543182373,64.52245193481446,64.5288281402588,33.0,1000.0,874.9894303569635,49.33535368567546,33000,16500.0,718.738480091095
1.2555462789535523,-0.7912934377193451,-69.01563844299316,2.3549474506378174,17000.0,21.064364971160888,68.25979968261719,68.26015545654298,68.26341683959961,34.0,1000.0,886.5615125634198,49.63473130415366,34000,17000.0,738.885663986206
1.250233431339264,-0.7869697737693787,-72.75893095397949,2.4436112117767332,17500.0,20.544147233963013,71.95780198669434,71.95817915344239,71.9584034576416,35.0,1000.0,884.4893866903437,49.382920710105545,35000,17500.0,759.135580778122
1.2448922271728515,-0.7825089080333709,-76.68487631225585,2.5342394380569457,18000.0,20.731901542663575,75.85819827270508,75.85798727416991,75.8652481994629,36.0,1000.0,880.102796561333,49.23664606480329,36000,18000.0,779.4456570148468
1.2395223212242126,-0.7776493203639984,-79.59210437011718,2.586179648399353,18500.0,20.926064540863038,78.82695553588867,78.82691510009765,78.82989804077148,37.0,1000.0,886.6802331316479,49.38450165506743,37000,18500.0,799.6949262619019
1.2341234402656556,-0.7710333688259124,-83.23904391479492,2.672578667640686,19000.0,23.40584530258179,82.42585632324219,82.42632696533204,82.42814727783202,38.0,1000.0,881.9221167152746,49.244790072782024,38000,19000.0,820.0016436576843
1.2286952390670776,-0.7671225521564483,-86.44063845825195,2.734488597869873,19500.0,22.83152007102966,85.63922479248046,85.63939450073242,85.64373931884765,39.0,1000.0,878.4711204702062,49.36386256350179,39000,19500.0,840.2593784332275
1.2232374181747436,-0.7627267580032349,-88.97165292358399,2.774951379776001,20000.0,22.13363985824585,88.18799844360352,88.18776885986328,88.18833892822266,40.0,1000.0,811.0993167736815,47.96135230964971,40000,20000.0,861.1095004081726
1.2177496480941772,-0.7574122874736786,-91.61010623168946,2.837558960914612,20500.0,21.906083162307738,90.84448556518555,90.8447746887207,90.85057751464844,41.0,1000.0,875.3548463318743,20.0211121024784,41000,20500.0,911.0567760467529
1.212231595993042,-0.7523890700340271,-95.11750396728516,2.9225038051605225,21000.0,23.427392292022706,94.33618383789063,94.33589755249024,94.33382821655273,42.0,1000.0,880.0911028119709,48.902965278834486,42000,21000.0,931.505434513092
1.2066829209327699,-0.7474501783847809,-97.53329080200196,2.9679589319229125,21500.0,26.321826206207277,96.74542828369141,96.74586877441406,96.75604232788086,43.0,1000.0,884.7356704715024,49.29458091671943,43000,21500.0,951.7916407585144
1.2011032924652099,-0.7427588863372803,-100.13430947875976,3.01413094997406,22000.0,22.870358659744262,99.33949496459961,99.3395927734375,99.33815225219726,44.0,1000.0,887.234571401317,49.53098712188478,44000,22000.0,971.9810230731964
1.195492350101471,-0.7378122837543487,-102.43261389160156,3.059421319961548,22500.0,24.41280499649048,101.6535809020996,101.6536155090332,101.66276043701171,45.0,1000.0,887.3598054931882,49.3800684042152,45000,22500.0,992.2321105003357
1.1898497490882873,-0.7323450522422791,-104.89318701171875,3.1194675188064576,23000.0,25.756672506332396,104.1302854309082,104.13121340942382,104.12555215454101,46.0,1000.0,885.0821855593185,49.48292148314979,46000,23000.0,1012.4411039352417
1.1841751313209534,-0.7275929265022277,-106.9882578125,3.1661185970306396,23500.0,24.132254539489747,106.24200411987304,106.24193640136718,106.24467636108399,47.0,1000.0,887.1291062069221,49.40691323185798,47000,23500.0,1032.6811871528625
1.1784681248664857,-0.7229260785579681,-109.31950012207031,3.2082436389923097,24000.0,21.880723947525023,108.58849063110351,108.58895254516601,108.59534643554687,48.0,1000.0,885.5949135717428,49.39748213819818,48000,24000.0,1052.925134897232
1.1727283692359924,-0.7173461174964905,-111.3117483215332,3.256113300323486,24500.0,23.565057579040527,110.59459780883789,110.59454354858399,110.59466864013672,49.0,1000.0,889.9959392624409,49.4837096015117,49000,24500.0,1073.1338062286377
1.166955466747284,-0.712637330532074,-113.19089678955078,3.2902437448501587,25000.0,20.85457976913452,112.52062350463868,112.52065716552734,112.52118521118165,50.0,1000.0,894.2714245873045,49.27741390573858,50000,25000.0,1093.427080154419
1.1611490559577942,-0.707305470943451,-114.59858587646484,3.329690528869629,25500.0,22.507805736541748,113.90019537353515,113.89967221069335,113.90483697509765,51.0,1000.0,888.9216374597022,20.043172751273616,51000,25500.0,1143.3193814754486
1.1553087220191955,-0.7025538370609283,-116.5857392578125,3.3742760820388793,26000.0,20.697473056793214,115.93700595092774,115.93686639404297,115.9344935913086,52.0,1000.0,894.8647053569301,49.38356144867822,52000,26000.0,1163.569035768509
1.1494340810775756,-0.6976841676235199,-118.1787045288086,3.4005202016830443,26500.0,21.26017093849182,117.51963589477539,117.51985372924804,117.52282067871094,53.0,1000.0,896.5450392589694,49.656712768292266,53000,26500.0,1183.7073001861572
1.1435247292518615,-0.692512262582779,-119.61547811889649,3.4427309970855715,27000.0,21.649101503372194,118.97168096923828,118.97198391723633,118.97568646240235,54.0,1000.0,898.0030228708123,49.41665591965684,54000,27000.0,1203.9433937072754
1.1375802583694459,-0.6869869582653045,-120.95262033081055,3.4750887994766235,27500.0,20.6232503490448,120.3441618347168,120.34416290283202,120.34547888183593,55.0,1000.0,890.138008266791,49.35280615789894,55000,27500.0,1224.2056667804718
1.1316002197265624,-0.6814471459388733,-122.51623522949218,3.5151705656051635,28000.0,19.303819299697874,121.89568035888672,121.89547402954102,121.89836840820313,56.0,1000.0,883.9443885369475,49.5155320110827,56000,28000.0,1244.401350736618
1.125584209918976,-0.6763491847515106,-124.27845086669922,3.556062976837158,28500.0,21.971434783935546,123.65304727172851,123.65278744506836,123.65038537597657,57.0,1000.0,888.9435760331033,49.3537608734846,57000,28500.0,1264.6632432937622
1.11953178691864,-0.6709016849994659,-125.30796084594726,3.578623497009277,29000.0,19.480191133499144,124.67093078613281,124.67078616333008,124.67465090942383,58.0,1000.0,897.8332948522308,49.30611782739088,58000,29000.0,1284.9447028636932
1.1134425239562988,-0.6651019320487976,-126.10287677001953,3.608166202545166,29500.0,17.52359782409668,125.52614505004883,125.52648150634765,125.52696817016601,59.0,1000.0,890.0153379865914,49.337471310851825,59000,29500.0,1305.2132740020752
1.1073159427642822,-0.6596860339641571,-127.05071292114258,3.6308091259002686,30000.0,17.696956398010254,126.48847830200195,126.4879153137207,126.48972714233399,60.0,1000.0,890.4773109798351,49.42178522422355,60000,30000.0,1325.4472661018372
1.1011515951156616,-0.654635859966278,-128.7122475891113,3.6713656730651856,30500.0,17.11634565448761,128.16649151611327,128.16641046142578,128.16758786010743,61.0,1000.0,901.0742734175192,20.029905145645873,61000,30500.0,1375.3726155757904
1.094949013710022,-0.6491798539161682,-129.40377954101564,3.6974144792556762,31000.0,19.119028439521788,128.84065002441406,128.84017205810548,128.84200979614258,62.0,1000.0,892.3366358288761,49.52928975163062,62000,31000.0,1395.5626893043518
1.0887077226638795,-0.6438289458751678,-130.00420986938477,3.7077368803024293,31500.0,18.2862666721344,129.46651742553712,129.4666203918457,129.46803240966796,63.0,1000.0,905.9226437822138,49.3666781348973,63000,31500.0,1415.8192687034607
1.082427224636078,-0.6383557634353638,-130.84143896484375,3.729538330078125,32000.0,17.36543709754944,130.31915423583985,130.31925674438477,130.31829806518556,64.0,1000.0,891.0697955597662,49.34216392881032,64000,32000.0,1436.0859117507935
1.0761070365905763,-0.633124962091446,-132.1024453125,3.7625667486190797,32500.0,17.187789836883546,131.58623559570313,131.58598559570314,131.5857781982422,65.0,1000.0,893.3786249863848,49.20699015700409,65000,32500.0,1456.408228635788
1.069746648311615,-0.6280720098018646,-132.66363906860352,3.7876748065948487,33000.0,16.785952001571655,132.13105645751952,132.13062567138672,132.13588104248046,66.0,1000.0,892.1010504072009,49.276543769566594,66000,33000.0,1476.7018601894379
1.0633455486297607,-0.6214060218334198,-132.8714014892578,3.792596173286438,33500.0,19.511920157432556,132.32383810424804,132.32418688964844,132.32240176391602,67.0,1000.0,904.5769043138301,49.4362087641853,67000,33500.0,1496.9299495220184
1.0569032144546509,-0.6159026808738709,-134.48611569213867,3.8403196077346804,34000.0,18.650311291694642,133.9865121459961,133.98669207763672,133.98609033203124,68.0,1000.0,902.3583336527697,49.35442757026089,68000,34000.0,1517.1915566921234
1.0504190993309022,-0.6099943158626556,-134.90525537109374,3.8491826515197753,34500.0,17.273768102645874,134.37505587768555,134.37453488159179,134.3748221130371,69.0,1000.0,889.9434316096666,49.34784443848982,69000,34500.0,1537.4558670520782
1.0438926706314087,-0.6044009070396423,-135.6378238220215,3.8814450569152834,35000.0,16.184482132911683,135.1356612854004,135.13595678710936,135.13912228393554,70.0,1000.0,901.2745189068484,49.20666976338845,70000,35000.0,1557.7783162593842
1.0373233637809753,-0.5981975848674774,-137.1724725036621,3.9201190519332885,35500.0,15.605468376159667,136.6949733581543,136.69532186889649,136.69492010498047,71.0,1000.0,902.1138865692928,20.056056775853396,71000,35500.0,1607.638566493988
1.030710624217987,-0.5933955566883087,-137.04955142211915,3.9187260389328005,36000.0,15.854196405410766,136.55763415527343,136.5571844177246,136.56013159179687,72.0,1000.0,904.8117328601638,49.32534544878601,72000,36000.0,1627.9121203422546
1.0240538544654847,-0.5877764818668365,-137.95327069091798,3.94794730758667,36500.0,15.60150563430786,137.49436666870116,137.49415209960938,137.4943014831543,73.0,1000.0,898.2730340564013,49.27433990944587,73000,36500.0,1648.2066600322723
1.0173524866104127,-0.5818956999778747,-138.85200646972658,3.980828755378723,37000.0,16.02072399711609,138.3882219848633,138.38869223022462,138.38829010009766,74.0,1000.0,906.2154370664354,49.29427212692282,74000,37000.0,1668.4929928779602
1.0106058931350708,-0.5759884877204895,-138.96500897216796,3.9779795570373535,37500.0,15.024138392448425,138.5094217224121,138.50920132446288,138.51013751220702,75.0,1000.0,910.8582938102138,49.18851632480663,75000,37500.0,1688.822942018509
1.0038134808540344,-0.5700993084907532,-139.60111749267577,3.999206027984619,38000.0,14.913761425018311,139.1600799560547,139.1600932006836,139.1590133666992,76.0,1000.0,913.7771971797191,49.3335083836303,76000,38000.0,1709.0931406021118
0.9969746193885803,-0.5650501630306244,-140.34832250976564,4.016645817756653,38500.0,14.060307110786438,139.91241842651368,139.91292987060547,139.9142004394531,77.0,1000.0,908.8542281504369,49.37189935397891,77000,38500.0,1729.3475778102875
0.9900886633396149,-0.5583000450134278,-140.3721124572754,4.024338852882385,39000.0,14.65783280658722,139.93656842041017,139.93570703125,139.93567361450195,78.0,1000.0,904.0129056402333,49.225431653094816,78000,39000.0,1749.662281036377
0.9831549551486969,-0.5533099851608276,-141.19788555908204,4.049696409225464,39500.0,14.246223649024964,140.73175735473632,140.7324331970215,140.73734494018555,79.0,1000.0,907.0536516617184,49.32212743067321,79000,39500.0,1769.9371569156647
0.9761728432178497,-0.546769564628601,-141.8755530395508,4.0700637102127075,40000.0,13.371026538848877,141.46514434814452,141.4646879272461,141.46298406982422,80.0,1000.0,906.6380358524439,49.370040856927396,80000,40000.0,1790.1923568248749
0.9691416306495666,-0.5406962628364563,-142.24462805175781,4.075736832618714,40500.0,12.046068115234375,141.8240661010742,141.8235827026367,141.82372595214844,81.0,1000.0,900.5119211145994,20.082655059778055,81000,40500.0,1839.9865703582764
0.9620606324672699,-0.5340854253768921,-142.68699194335937,4.103017084121704,41000.0,15.120491531372071,142.25528430175783,142.25548400878907,142.2580803222656,82.0,1000.0,913.1630719263609,49.285990124903314,82000,41000.0,1860.276312828064
0.9549291403293609,-0.5278516581058502,-142.9731759033203,4.110584434509278,41500.0,14.018692818641663,142.5615248413086,142.5616708984375,142.56108325195314,83.0,1000.0,909.2435029163114,49.30461608341304,83000,41500.0,1880.5583899021149
0.9477464172840119,-0.5212967569828033,-143.76705114746093,4.135611012458801,42000.0,13.440817832946777,143.36695867919923,143.36632684326173,143.368802734375,84.0,1000.0,911.046136841947,49.3918122977735,84000,42000.0,1900.8046610355377
0.940511738538742,-0.5157947022914886,-144.50414031982422,4.153747254371643,42500.0,14.297749715805054,144.0782071533203,144.07883062744142,144.076263671875,85.0,1000.0,903.708866461234,49.26675786738324,85000,42500.0,1921.102323293686
0.9332243242263794,-0.5094625211954117,-144.36203247070313,4.152898931503296,43000.0,13.653246392250061,143.948892578125,143.9489446411133,143.95175689697265,86.0,1000.0,911.7945753347105,49.30730491322379,86000,43000.0,1941.383294582367
0.925883425951004,-0.503618217587471,-144.77356494140625,4.166427286148071,43500.0,12.738373083114624,144.39886346435546,144.39849200439454,144.39928540039062,87.0,1000.0,901.7753795572355,49.314563725606334,87000,43500.0,1961.6612811088562
0.9184882264137268,-0.49655583572387696,-145.4180086669922,4.187142798423767,44000.0,13.030048450469971,145.0184721069336,145.01871893310548,145.01685400390625,88.0,1000.0,909.9040588443968,49.33192780069953,88000,44000.0,1981.9321296215057
0.9110379457473755,-0.4903608261346817,-146.0734698486328,4.205952655792236,44500.0,11.525746907234192,145.6901572265625,145.68973468017577,145.69631420898438,89.0,1000.0,886.1658263514933,49.2876575388287,89000,44500.0,2002.221185207367
0.9035317225456237,-0.48345521438121797,-146.15821362304686,4.215330904006958,45000.0,12.873497608184815,145.78794665527343,145.78797088623048,145.78630291748047,90.0,1000.0,907.6273838706214,49.27347393378386,90000,45000.0,2022.5160810947418
0.8959687495231629,-0.4774149967432022,-146.65523718261718,4.227144834518433,45500.0,14.352974850654602,146.28345831298827,146.28379675292967,146.28618811035156,91.0,1000.0,908.5986636011966,20.041942250476456,91000,45500.0,2072.4114458560944
0.8883481252193451,-0.47095600473880767,-147.24163330078125,4.246891140937805,46000.0,13.029577605247498,146.8540475463867,146.85378271484376,146.84982159423828,92.0,1000.0,909.836306589047,49.232601075925515,92000,46000.0,2092.7231907844543
0.8806689910888672,-0.464172328710556,-147.02944104003907,4.245841870307922,46500.0,13.180702607154846,146.64543389892577,146.64503924560546,146.6509651489258,93.0,1000.0,910.3163218985264,49.20635918761379,93000,46500.0,2113.0457677841187
0.8729304184913635,-0.4581805467605591,-147.67844342041016,4.2623875637054445,47000.0,13.403278060913086,147.29515490722656,147.29582110595703,147.29327575683592,94.0,1000.0,915.8364104442925,49.25317853439952,94000,47000.0,2133.349026441574
0.8651315088272095,-0.4525818028450012,-148.52708850097656,4.284244577407837,47500.0,10.935518743515015,148.16025927734376,148.16018756103514,148.1605523071289,95.0,1000.0,917.7462257104721,49.323923738322506,95000,47500.0,2153.6231648921967
0.8572712848186493,-0.444340794801712,-148.96317156982423,4.308545495986938,48000.0,13.10042587852478,148.575443359375,148.57546392822266,148.57463360595702,96.0,1000.0,916.7910232664724,49.2999856542033,96000,48000.0,2173.907146692276
0.8493487944602967,-0.4370214955806732,-148.9455101928711,4.305280260086059,48500.0,13.37004787826538,148.54099530029296,148.54076391601564,148.54351263427733,97.0,1000.0,922.2163353603368,49.26775729008353,97000,48500.0,2194.204397916794
0.8413630321025848,-0.4307788727283478,-149.27561389160155,4.312501715660095,49000.0,12.299798267364501,148.88791259765625,148.88775506591796,148.88774639892577,98.0,1000.0,921.1827943924094,49.29778664984818,98000,49000.0,2214.489284992218
0.8333129856586456,-0.4241678905487061,-149.8622046508789,4.337504585266113,49500.0,13.911507371902466,149.48784075927733,149.48853399658202,149.48695849609376,99.0,1000.0,911.6473709855488,49.38508603143885,99000,49500.0,2234.7383136749268
0.8251976103782653,-0.4179669399261475,-149.9813805541992,4.337852203369141,50000.0,12.365731726646423,149.61340710449218,149.61304760742186,149.61905383300783,100.0,1000.0,929.7495148431101,49.48331262023594,100000,50000.0,2254.9471476078033
0.8170158312320709,-0.4115189825296402,-150.8637458496094,4.360618576049805,50500.0,12.306568769931793,150.4923825073242,150.49249877929688,150.4907749633789,101.0,1000.0,918.1498544458643,20.084582141224917,101000,50500.0,2304.736582994461
0.8087665660381317,-0.40415913772583006,-150.99186206054688,4.361717805862427,51000.0,11.49358212852478,150.61920446777344,150.61895581054688,150.61875219726562,102.0,1000.0,930.1807334412711,49.24640381716739,102000,51000.0,2325.0426349639893
0.800448674917221,-0.3978657913208008,-151.26933782958983,4.369985345840454,51500.0,10.447215388298035,150.91134466552734,150.91150231933594,150.91390069580078,103.0,1000.0,920.3513341694514,49.28743339569375,103000,51500.0,2345.3317828178406
0.792061023235321,-0.3911873973608017,-151.69227435302736,4.385715345382691,52000.0,9.223492630958557,151.34988720703126,151.34987518310547,151.35111242675782,104.0,1000.0,934.8317759893293,49.32629214111067,104000,52000.0,2365.6049473285675
0.7836024119853974,-0.3832298324108124,-152.08419958496094,4.397699092864991,52500.0,10.020621884346008,151.7431071166992,151.74331982421876,151.74415454101563,105.0,1000.0,929.1956268226311,49.366549724837334,105000,52500.0,2385.8615794181824
0.7750716590881348,-0.3764767245054245,-152.0923473510742,4.401614895820618,53000.0,9.688293417930604,151.74861260986327,151.74832513427734,151.7462564086914,106.0,1000.0,928.518142394951,49.20622641478002,106000,53000.0,2406.1842114925385
0.7664674823284149,-0.36865636384487155,-152.74263470458985,4.419397256851196,53500.0,11.337667186737061,152.39135314941407,152.39183813476564,152.39407208251953,107.0,1000.0,928.4486438477669,49.21556151319772,107000,53500.0,2426.502989053726
0.7577886545658111,-0.3598900303840637,-153.0979482421875,4.436474594116211,54000.0,10.614910981178284,152.73941796875,152.73965234375,152.74121270751954,108.0,1000.0,922.6993278305468,49.261195521788935,108000,54000.0,2446.8029437065125
0.7490338208675384,-0.3536517933607101,-153.33065350341798,4.43744713973999,54500.0,10.350751526355744,152.99058392333984,152.9912299194336,152.98951239013672,109.0,1000.0,921.0890321735711,49.34130543514142,109000,54500.0,2467.0699393749237
0.7402016830444336,-0.3463273713588715,-153.65820111083985,4.452038921356201,55000.0,9.926981494903565,153.325263671875,153.32474938964845,153.32704901123046,110.0,1000.0,927.3995548391704,49.36425588754371,110000,55000.0,2487.327512741089
0.7312908236980438,-0.33989909768104554,-154.1080740966797,4.458283323287964,55500.0,10.949648380756377,153.74575360107423,153.74601751708985,153.74785223388673,111.0,1000.0,923.5206190993548,20.04848398798138,111000,55500.0,2537.206596851349
0.722299863576889,-0.33254174041748047,-154.05603845214844,4.4611943912506105,56000.0,10.662109829902649,153.72745153808594,153.72713458251954,153.72607147216797,112.0,1000.0,920.2356774144978,49.41819535616213,112000,56000.0,2557.442058801651
0.7132273199558258,-0.3252322777509689,-154.6182166748047,4.48067537689209,56500.0,10.8518686709404,154.2671746826172,154.2672964477539,154.26623760986328,113.0,1000.0,925.652979644444,49.36688905422839,113000,56500.0,2577.6985516548157
0.7040717117786407,-0.31850169479846957,-154.57513293457032,4.482726867675781,57000.0,9.030181406021118,154.26302239990235,154.26317712402343,154.26381689453126,114.0,1000.0,933.7210007999996,49.281067886812245,114000,57000.0,2597.9903202056885
0.6948315076828003,-0.3108662421703339,-155.34832537841797,4.500928434371948,57500.0,9.30872659778595,155.01312615966796,155.01312310791016,155.01734875488282,115.0,1000.0,933.5420712889663,49.350445079571294,115000,57500.0,2618.2535626888275
0.6855051198005676,-0.3025232012271881,-155.4053374633789,4.500831346511841,58000.0,11.409029178619384,155.04422827148437,155.0438353881836,155.0412953491211,116.0,1000.0,927.381912582856,49.27045946448114,116000,58000.0,2638.5497007369995
0.676090931892395,-0.2943547712564468,-155.3971641845703,4.50195315361023,58500.0,10.991533180713654,155.05160394287108,155.05181231689454,155.05542779541017,117.0,1000.0,933.4634116109567,49.28922080565089,117000,58500.0,2658.838112592697
0.6665872747898102,-0.28750890636444093,-155.77411920166017,4.517983968734741,59000.0,9.871008545398713,155.44353088378907,155.4437621459961,155.44161602783203,118.0,1000.0,929.479729935668,49.308743056173974,118000,59000.0,2679.1184928417206
0.6569924280643463,-0.2798094642162323,-156.25478912353515,4.521222803115845,59500.0,9.516357092380524,155.89345373535156,155.89345123291017,155.89645050048827,119.0,1000.0,939.5647896145672,49.18914914416556,119000,59500.0,2699.4481806755066
0.647304628610611,-0.2725506398677826,-156.57231610107422,4.539429363250733,60000.0,10.084722399234773,156.2235580444336,156.22395233154296,156.22209967041016,120.0,1000.0,932.2944553492933,49.36389742210023,120000,60000.0,2719.705901145935
0.637522055387497,-0.26539743918180464,-156.8436849975586,4.549472858428955,60500.0,8.54135216140747,156.5275106201172,156.52706408691407,156.52857012939452,121.0,1000.0,927.1176735558784,20.0574935024098,121000,60500.0,2769.5625796318054
0.6276428372859955,-0.257650425195694,-156.94316558837892,4.54774200630188,61000.0,8.490596224308014,156.6424655151367,156.64225360107423,156.643318359375,122.0,1000.0,931.430192193592,49.326141317596026,122000,61000.0,2789.8358063697815
0.6176650445461274,-0.2501248862147331,-157.19506646728516,4.551942174911499,61500.0,8.745255002975464,156.86660748291015,156.86643273925782,156.86898748779296,123.0,1000.0,924.8848079404328,49.36564448192122,123000,61500.0,2810.0928103923798
0.6075866878032684,-0.24237737703323364,-157.57234899902343,4.567217393875122,62000.0,8.61358470582962,157.27573321533202,157.27598858642577,157.27670880126954,124.0,1000.0,934.3066568242118,49.34436341096649,124000,62000.0,2830.3585500717163
0.5974057233333587,-0.23362391489744186,-157.7007158203125,4.574357929229737,62500.0,9.29951842880249,157.4002822265625,157.4004574584961,157.39841198730468,125.0,1000.0,934.2342143524133,49.45873029420576,125000,62500.0,2850.5774278640747
0.5871200394630433,-0.22452769631147385,-158.09751123046874,4.585490291595459,63000.0,9.347488371372222,157.7931898803711,157.79343316650392,157.7964425048828,126.0,1000.0,932.6383294884447,49.36139237618535,126000,63000.0,2870.8361761569977
0.5767274580001831,-0.2159188892841339,-158.01145239257812,4.5793585777282715,63500.0,10.353942450046539,157.71867663574218,157.71874505615236,157.71733221435548,127.0,1000.0,941.8412562638651,49.46248004470971,127000,63500.0,2891.053521633148
0.5662257347106934,-0.20699438327550887,-158.45864215087892,4.603084867477417,64000.0,9.069441002845764,158.15390991210938,158.15337506103515,158.15719177246095,128.0,1000.0,942.4644758073798,49.32496608595766,128000,64000.0,2911.3272309303284
0.5556125552654266,-0.1980028709769249,-158.44758984375,4.599192251205444,64500.0,9.31961309337616,158.13102294921876,158.13155755615233,158.13062817382811,129.0,1000.0,945.1992111936239,49.464420759483986,129000,64500.0,2931.5437824726105
0.5448855211734772,-0.1908864113688469,-158.86412536621094,4.605963209152222,65000.0,9.284014131546021,158.5593462524414,158.5590732421875,158.55941204833985,130.0,1000.0,942.6842154018806,49.31811593665252,130000,65000.0,2951.820308446884
0.5340421712398529,-0.1812799835205078,-159.04725219726564,4.614023626327515,65500.0,8.294674251556396,158.75639788818359,158.75665014648436,158.75677813720702,131.0,1000.0,945.2259092828436,20.01395626527898,131000,65500.0,3001.7854433059692
0.5230799524784088,-0.1746044716835022,-159.75871130371092,4.634035625457764,66000.0,7.643490057945251,159.48315716552733,159.48256341552735,159.4856177368164,132.0,1000.0,940.7556010088477,49.22827132219842,132000,66000.0,3022.0989739894867
0.5119962236881256,-0.1661355687379837,-159.923005859375,4.644287015914917,66500.0,8.74274107503891,159.63447760009765,159.63496313476563,159.63402471923828,133.0,1000.0,939.3986461295692,49.10646353799679,133000,66500.0,3042.462893009186
0.5007882716655732,-0.16015782070159912,-159.82705541992186,4.638734159469604,67000.0,8.572339191436768,159.52432611083984,159.52434002685547,159.52303955078125,134.0,1000.0,944.598700897502,49.18260772004503,134000,67000.0,3062.795284509659
0.4894532742500305,-0.15016500443220138,-160.27564459228515,4.648134599685669,67500.0,8.32109985113144,159.96315594482422,159.96282330322265,159.96565130615235,135.0,1000.0,950.4993601110784,49.195838873230926,135000,67500.0,3083.122207403183
0.4779883143901825,-0.14135571271181108,-160.2974619140625,4.649185207366943,68000.0,8.739823412895202,159.98655389404297,159.98708325195312,159.9872933959961,136.0,1000.0,941.3484724091013,49.21801366082258,136000,68000.0,3103.4399724006653
0.4663903889656067,-0.13171185293793677,-160.79087280273438,4.6641225910186765,68500.0,8.423367431640624,160.48532666015626,160.48505517578124,160.48628021240233,137.0,1000.0,950.8974546436102,49.32239712947991,137000,68500.0,3123.714737892151
0.4546563663482666,-0.12265973618626594,-161.08604693603516,4.6744504718780515,69000.0,9.041923963069916,160.77967529296876,160.78005590820314,160.78128161621095,138.0,1000.0,951.301008732782,49.18854516763201,138000,69000.0,3144.0446751117706
0.44278301763534544,-0.1143022326529026,-161.36258221435546,4.680814554214478,69500.0,8.534908761024475,161.06033752441405,161.06021026611327,161.05940631103516,139.0,1000.0,952.6401432966389,49.23140949427349,139000,69500.0,3164.3569116592407
0.43076699805259705,-0.10550332728028297,-161.56934704589844,4.690449777603149,70000.0,8.386824760913848,161.28585736083986,161.28607666015625,161.286560546875,140.0,1000.0,944.8711186901622,49.079671901015374,140000,70000.0,3184.731946706772
0.41860483145713806,-0.09733214062452317,-162.12326135253906,4.703289100646972,70500.0,9.374624309539795,161.84732232666016,161.84682342529297,161.84940924072265,141.0,1000.0,944.9189451837989,19.994731479326173,141000,70500.0,3234.74512219429
0.4062929220199585,-0.08669358426332474,-161.50515338134767,4.679619846343994,71000.0,8.225253897666931,161.21845483398437,161.21889099121094,161.21798181152343,142.0,1000.0,949.786170835914,48.885250564846544,142000,71000.0,3255.2011909484863
0.3938275361061096,-0.0769752398133278,-161.80111102294921,4.697958160400391,71500.0,9.151398604393005,161.49477923583984,161.49466833496095,161.49339819335938,143.0,1000.0,945.717075858697,49.03727939193317,143000,71500.0,3275.593840122223
0.38120479822158815,-0.0692531864643097,-162.40759387207032,4.718179718017578,72000.0,8.076579096794129,162.12146209716798,162.12126696777344,162.12333807373048,144.0,1000.0,958.1814952549524,48.91935084177814,144000,72000.0,3296.035649061203
0.36842068004608153,-0.0586731768026948,-162.10392181396483,4.714556261062622,72500.0,9.545040435314178,161.79138671875,161.79116760253908,161.79457427978517,145.0,1000.0,958.6532829787303,48.840488685751716,145000,72500.0,3316.5104653835297
0.35547101640701295,-0.05147574163973331,-163.19357623291015,4.738955642700195,73000.0,6.734901786804199,162.9135535888672,162.9137564086914,162.91331066894531,146.0,1000.0,956.4600351308754,48.89541785683718,146000,73000.0,3336.9622802734375
0.34235144662857053,-0.04142475992906838,-163.38133374023437,4.746629030227661,73500.0,7.144684507369995,163.06558795166015,163.06574426269532,163.0658416748047,147.0,1000.0,950.3280713416277,48.84954498910341,147000,73500.0,3357.433300256729
0.3290574626922607,-0.03063969021011144,-163.27027856445312,4.734360340118408,74000.0,7.3036729388237,162.99570495605468,162.9953834838867,162.99589923095704,148.0,1000.0,956.8618573720652,48.99940169921908,148000,74000.0,3377.8417139053345
0.3155843667984009,-0.02185892692487687,-163.40266040039063,4.747657529830932,74500.0,7.645836692333221,163.115982421875,163.1166845703125,163.1172774658203,149.0,1000.0,948.2486672697909,49.04437231653095,149000,74500.0,3398.231413125992
0.30192725992202757,-0.011307149005122483,-163.36455908203126,4.749898191452027,75000.0,8.646278833389282,163.0870559692383,163.08656536865234,163.08416802978516,150.0,1000.0,951.4081171697695,48.91287127749912,150000,75000.0,3418.675929784775
0.2880810465812683,-0.0019060044661164284,-164.0135403442383,4.763761363983154,75500.0,7.906626673698425,163.73016821289062,163.73014349365235,163.73433514404297,151.0,1000.0,946.6458455978582,19.990256004621695,151000,75500.0,3468.700302362442
0.27404042196273803,0.009366979833692312,-163.76897174072266,4.7606053676605224,76000.0,7.53576548910141,163.49512957763673,163.4951262817383,163.4944418334961,152.0,1000.0,954.8658291689733,48.86935644118546,152000,76000.0,3489.1630244255066
0.25979984378814697,0.016999446830712257,-163.852080078125,4.764420461654663,76500.0,8.79580758523941,163.57291357421875,163.57306994628905,163.5762554321289,153.0,1000.0,959.9854459944247,49.02714414241323,153000,76500.0,3509.559889316559
0.2453535280227661,0.026670373234897852,-164.16742626953126,4.767877624511719,77000.0,6.907246931552887,163.89570697021483,163.89596978759766,163.8944398803711,154.0,1000.0,943.750885785289,49.08187848408979,154000,77000.0,3529.9340081214905
0.23069545030593872,0.03610012824460864,-164.472640625,4.786579116821289,77500.0,7.310086706161499,164.18177026367186,164.18155163574218,164.1845054321289,155.0,1000.0,948.9812324201781,49.138960132353006,155000,77500.0,3550.2844593524933
0.2158193120956421,0.05119415020942688,-164.87818377685548,4.794805955886841,78000.0,8.288054201602936,164.61964660644531,164.6196032104492,164.61971954345702,156.0,1000.0,950.4567268825133,48.940914966119394,156000,78000.0,3570.717262029648
0.20071852111816407,0.06194234663248062,-164.76193786621093,4.786760038375855,78500.0,7.412617527484894,164.48275463867188,164.4821686401367,164.4841580810547,157.0,1000.0,953.5067960326896,49.0226246975521,157000,78500.0,3591.1160073280334
0.18538619136810303,0.07064972201734782,-165.0173228149414,4.7963571453094485,79000.0,7.209488842487335,164.75951092529297,164.76016662597655,164.75985314941406,158.0,1000.0,962.6013458033418,49.07433201003314,158000,79000.0,3611.4932594299316
0.1698151135444641,0.08205643381178379,-165.3952237548828,4.807784965515137,79500.0,7.632912708759308,165.11729302978515,165.11709252929688,165.11847003173827,159.0,1000.0,961.9908888068188,49.24869307563425,159000,79500.0,3631.7983677387238
0.15399773645401002,0.09025934946537018,-165.69032220458985,4.811722019195557,80000.0,6.441253848552704,165.44498474121093,165.4448029785156,165.44332489013672,160.0,1000.0,958.8144936785301,49.02559802832729,160000,80000.0,3652.195875644684
0.13792613077163696,0.10095800168812274,-165.59581842041015,4.813277648925781,80500.0,7.660043987751007,165.3164907836914,165.31658795166015,165.31683697509766,161.0,1000.0,952.7569825227454,19.963860891161758,161000,80500.0,3702.2863879203796
0.12159200000762939,0.11333887985348702,-165.97864428710938,4.822667322158813,81000.0,7.498155333042145,165.71297296142578,165.71332421875,165.71352380371093,162.0,1000.0,952.5786916422072,48.99126883282241,162000,81000.0,3722.6981897354126
0.10498661756515502,0.12311722844839096,-165.95559606933594,4.823235731124878,81500.0,7.110475693225861,165.6619903564453,165.66177685546876,165.66301147460936,163.0,1000.0,961.3871114969644,49.045051900029435,163000,81500.0,3743.087607383728
0.08810083341598511,0.1387105343937874,-166.15241467285156,4.827150024414062,82000.0,7.690463579654693,165.85454650878907,165.85490661621094,165.85570458984375,164.0,1000.0,952.1226027644424,49.033402946600404,164000,82000.0,3763.4818687438965
0.07092500734329224,0.14972532105445863,-166.49628912353515,4.835538366317749,82500.0,8.344556718826293,166.2177520751953,166.21756427001952,166.21756311035156,165.0,1000.0,958.4940716713911,49.04600736319687,165000,82500.0,3783.8708889484406
0.05344900369644165,0.1598565490245819,-166.76977197265626,4.8405660610198975,83000.0,6.8878421530723575,166.50468249511718,166.50512512207033,166.50625524902344,166.0,1000.0,956.5557036539819,48.971495086304834,166000,83000.0,3804.2909319400787
0.03566213750839233,0.17252791005373,-166.76035955810548,4.841747554779053,83500.0,6.3962757110595705,166.47465954589845,166.47465338134765,166.4751421508789,167.0,1000.0,965.2361148010676,49.05344932093381,167000,83500.0,3824.676858663559
0.01755315351486206,0.18645384180545807,-166.86996649169922,4.845920728683471,84000.0,7.75932628250122,166.58625469970704,166.58649890136718,166.58531750488282,168.0,1000.0,959.2382438079449,49.094981931804405,168000,84000.0,3845.0455400943756
-0.0008898401260375977,0.20013394743204116,-166.94872271728516,4.852411415100097,84500.0,8.011458869934081,166.67557403564453,166.67544427490233,166.6760913696289,169.0,1000.0,959.5356138539001,49.018640575774185,169000,84500.0,3865.4459431171417
-0.019679380893707275,0.2117209280729294,-167.00351959228516,4.852972679138183,85000.0,7.278319447517395,166.7376094970703,166.73779272460936,166.739123046875,170.0,1000.0,959.7242725377037,49.02295186660879,170000,85000.0,3885.8445520401
-0.03882875490188599,0.22254685640335084,-167.4371235961914,4.8618418369293215,85500.0,6.104028321743011,167.1790698852539,167.17914794921876,167.17908044433594,171.0,1000.0,960.7799921555325,19.996612741131706,171000,85500.0,3935.8530220985413
-0.05835201168060303,0.23409603124856948,-167.81220654296874,4.874637058258057,86000.0,6.560934810161591,167.56376513671876,167.56362420654298,167.56346044921875,172.0,1000.0,961.5041606406091,48.93500574542131,172000,86000.0,3956.2882916927338
-0.07826403856277465,0.24876465737819672,-167.7826201171875,4.876972980499268,86500.0,6.841312947750091,167.5300570678711,167.53055401611329,167.53214739990236,173.0,1000.0,963.590621225201,49.02993862712539,173000,86500.0,3976.6839940547943
-0.09858063411712646,0.2635973688364029,-167.85492010498047,4.873689218521118,87000.0,6.4582011044025425,167.5966499633789,167.59649267578126,167.59741333007813,174.0,1000.0,970.7271346090876,49.07744886296296,174000,87000.0,3997.059952020645
-0.11931859397888184,0.2808366069197655,-168.09130340576172,4.887274730682373,87500.0,5.90291163110733,167.84016137695312,167.84011126708984,167.84018981933593,175.0,1000.0,959.2999880202119,49.150591912339515,175000,87500.0,4017.4055876731873
-0.14049574756622316,0.2946890306472778,-168.13261248779298,4.8909248428344725,88000.0,6.754523745536805,167.873923828125,167.8742766723633,167.874982421875,176.0,1000.0,958.0389554855625,49.144139625230096,176000,88000.0,4037.7538945674896
-0.1621311116218567,0.3088268857002258,-168.41024938964844,4.9022973480224605,88500.0,7.624844015598297,168.16325830078125,168.16323126220703,168.16433447265624,177.0,1000.0,959.7418050630861,49.06817928274026,177000,88500.0,4058.1337018013
-0.184244957447052,0.32513685983419416,-168.71607635498046,4.902485809326172,89000.0,6.851975527763367,168.4579586791992,168.45733630371095,168.45537274169922,178.0,1000.0,969.1427323707599,49.2015688508746,178000,89000.0,4078.4582579135895
-0.20685893058776855,0.34184687399864194,-168.63938952636718,4.904219539642334,89500.0,7.303488474845886,168.36410546875,168.36447290039064,168.36835369873046,179.0,1000.0,966.4065002647905,49.108352266310305,179000,89500.0,4098.821393489838
-0.22999617195129393,0.3575611358880997,-169.02120037841797,4.916879398345947,90000.0,6.712090119838715,168.73991821289061,168.74020336914063,168.73903833007813,180.0,1000.0,970.1892705045636,49.177209659200024,180000,90000.0,4119.15601682663
-0.2536814737319946,0.37114789307117463,-169.50395904541017,4.918703857421875,90500.0,5.638326234340668,169.24222259521486,169.24208917236328,169.24332946777344,181.0,1000.0,957.9783353506365,20.01955091545482,181000,90500.0,4169.1071882247925
-0.27794143772125246,0.3944975310564041,-169.42953204345704,4.916825267791748,91000.0,5.483357292175293,169.17366723632813,169.17327935791016,169.17116021728515,182.0,1000.0,966.5228747157288,49.33634776879953,182000,91000.0,4189.376220464706
-0.3028046407699585,0.4123955352306366,-169.23895709228515,4.924577365875244,91500.0,7.356776937007904,168.98568994140626,168.98564288330078,168.9899451904297,183.0,1000.0,968.013275130319,49.349876038896085,183000,91500.0,4209.639696598053
-0.32830185508728027,0.4317617143392563,-169.62831036376954,4.926811920166015,92000.0,5.480837494850158,169.3870387573242,169.38715942382814,169.3871514892578,184.0,1000.0,968.7928004239368,49.24602624585383,184000,92000.0,4229.945904493332
-0.3544662637710571,0.451384173989296,-169.86448999023438,4.937844076156616,92500.0,6.625865452051163,169.5942305908203,169.5946209716797,169.59480743408204,185.0,1000.0,960.8383712583568,49.136678761293894,185000,92500.0,4250.297301054001
-0.3813337230682373,0.4734765943288803,-169.9310298461914,4.940804264068603,93000.0,6.154800534725189,169.67172760009765,169.67151611328126,169.67119299316406,186.0,1000.0,960.9343092503751,49.208606620851384,186000,93000.0,4270.618950128555
-0.408943067073822,0.4898012977838516,-169.6691436767578,4.932846521377564,93500.0,7.5735207183361055,169.40753820800782,169.40743377685547,169.40734393310547,187.0,1000.0,968.4075844415173,49.10813205093046,187000,93500.0,4290.982176542282
-0.43733643674850464,0.5109440288543701,-169.91096203613282,4.936161460876465,94000.0,6.212394196510315,169.66707312011718,169.6673663330078,169.66878851318359,188.0,1000.0,963.1227057639536,49.27827075648236,188000,94000.0,4311.275097370148
-0.4665596652030945,0.5371767704486847,-170.30288665771485,4.945428674697876,94500.0,5.799450201034546,170.0529479370117,170.05256939697264,170.05384765625,189.0,1000.0,964.7416197148924,49.30126980122673,189000,94500.0,4331.558551073074
-0.49666273880004885,0.564949334859848,-170.7595634765625,4.955236705780029,95000.0,6.937694212913513,170.50625671386717,170.50646215820314,170.50655584716796,190.0,1000.0,959.0537841876444,49.10150926326957,190000,95000.0,4351.924525022507
-0.5277002768516541,0.5913756877183914,-170.4170093383789,4.949807886123657,95500.0,6.94955634355545,170.12508709716798,170.12488708496093,170.12438415527345,191.0,1000.0,964.3351433055628,20.00492856332818,191000,95500.0,4401.912207603455
-0.5597321696281433,0.6239861557483674,-170.7959848022461,4.95029683303833,96000.0,5.899728038787842,170.52883972167967,170.52928033447265,170.52994396972656,192.0,1000.0,949.8277818894941,49.151746177310756,192000,96000.0,4422.257365226746
-0.592824254989624,0.6498418412208558,-171.07564739990235,4.963195722579956,96500.0,6.459707638263702,170.80456091308594,170.80440509033204,170.80686065673828,193.0,1000.0,961.401366580179,49.23602069232684,193000,96500.0,4442.567699670792
-0.6270491247177123,0.6741576085090637,-171.30964739990233,4.969793872833252,97000.0,6.850944183826447,171.03527642822266,171.03552465820312,171.03518341064452,194.0,1000.0,975.0528729256062,49.115619906848686,194000,97000.0,4462.9278218746185
-0.6624870986938477,0.7056094710826873,-171.50939331054687,4.971797464370727,97500.0,6.330012160301209,171.23754455566407,171.2377014770508,171.23724011230468,195.0,1000.0,960.6002022483459,49.17050251436606,195000,97500.0,4483.265219211578
-0.6992273607254028,0.7479618818759918,-171.38358514404297,4.9690137977600095,98000.0,6.700740017414093,171.1005044555664,171.10020153808594,171.1037255859375,196.0,1000.0,962.6725904858037,49.31529198574419,196000,98000.0,4503.542905807495
-0.7373692989349365,0.7820626156330108,-171.6968973388672,4.979764165878296,98500.0,6.005651064872742,171.44010717773438,171.44100384521485,171.43992987060548,197.0,1000.0,974.3720369458833,49.23853846239002,197000,98500.0,4523.852201938629
-0.7770241174697876,0.812083743095398,-172.17587268066407,4.990284132003784,99000.0,5.739710480213165,171.91102209472658,171.91049285888673,171.91145837402343,198.0,1000.0,977.0385783876216,49.36184898202567,198000,99000.0,4544.110763311386
-0.8183168439865113,0.8514804482460022,-171.88830883789063,4.9814526596069335,99500.0,4.739607626914978,171.63356762695312,171.63372192382812,171.63367541503905,199.0,1000.0,976.0414523672544,49.23562594135473,199000,99500.0,4564.4212601184845
-0.8613886556625366,0.9025324733257294,-172.2449859008789,4.99659420967102,100000.0,5.87741509771347,171.96529315185546,171.96496978759765,171.96637536621094,200.0,1000.0,980.3659732814161,49.21783346643324,200000,100000.0,4584.7390995025635
-0.8836466073989868,0.9193226902484893,-172.43233697509766,4.996641969680786,100500.0,6.029528691291809,172.15366387939454,172.1540042114258,172.15429681396483,201.0,1000.0,967.491545112152,20.018034684272493,201000,100500.0,4634.6940541267395
-0.8836466073989868,0.9161873404979706,-172.14438958740234,4.993916698455811,101000.0,7.0945377812385555,171.88006951904296,171.8800718383789,171.88110284423828,202.0,1000.0,977.8145362795143,49.277034700901034,202000,101000.0,4654.987483739853
-0.8836466073989868,0.9202293174266816,-172.5734418334961,5.008278598785401,101500.0,7.590046082973481,172.26020642089844,172.26048175048828,172.26089947509766,203.0,1000.0,970.2234359896083,49.29963971087069,203000,101500.0,4675.271608352661
-0.8836466073989868,0.9129186205863953,-172.8052520751953,5.0086659450531,102000.0,6.295255665302276,172.55491802978514,172.5541376953125,172.55510705566405,204.0,1000.0,975.172993566977,49.266572686390546,204000,102000.0,4695.569347143173
-0.8836466073989868,0.9153238415718079,-172.75113452148437,5.004355981826782,102500.0,6.0458397731781,172.49109558105468,172.4908726196289,172.49202374267577,205.0,1000.0,959.3388126746054,49.34814228770207,205000,102500.0,4715.833535671234
-0.8836466073989868,0.9106824922561646,-173.0706173095703,5.008862697601319,103000.0,5.725924091815949,172.82117559814452,172.82120788574218,172.82150659179686,206.0,1000.0,974.3959367584035,49.22516532453704,206000,103000.0,4736.148348808289
-0.8836466073989868,0.9117676866054535,-173.4008754272461,5.025228672027588,103500.0,5.591432436943054,173.15270776367188,173.15275091552735,173.15365087890626,207.0,1000.0,973.9878781399564,49.358978198693336,207000,103500.0,4756.408088207245
-0.8836466073989868,0.913921234369278,-173.25345428466798,5.023812637329102,104000.0,5.424787822723388,173.00172644042968,173.00173736572265,173.00179327392578,208.0,1000.0,968.7890373258965,49.46155319860153,208000,104000.0,4776.625812530518
-0.8836466073989868,0.9122895634174347,-173.1923221435547,5.025444679260254,104500.0,6.858327775955201,172.932763671875,172.9325965576172,172.93405303955078,209.0,1000.0,980.2277254812626,49.37470363640231,209000,104500.0,4796.879099369049
-0.8836466073989868,0.9130811278820038,-173.81149682617186,5.035836771011352,105000.0,6.195974151134491,173.54668310546876,173.5464564819336,173.54635833740235,210.0,1000.0,959.1058325644317,49.237288215180236,210000,105000.0,4817.18891119957
-0.8836466073989868,0.9109790499210357,-173.9876796875,5.04036682510376,105500.0,5.845060005903244,173.72791223144532,173.7282716064453,173.7276840209961,211.0,1000.0,975.0344191413668,20.02732256496952,211000,105500.0,4867.120700120926
-0.8836466073989868,0.911383540391922,-173.67501263427735,5.041725685119629,106000.0,7.164267780303955,173.4187147216797,173.4189351196289,173.41913696289063,212.0,1000.0,972.994438867366,49.37175929351002,212000,106000.0,4887.375194549561
-0.8836466073989868,0.9115775434970855,-173.81663385009765,5.04023056602478,106500.0,7.086136251926422,173.55823559570314,173.55776208496093,173.5575601196289,213.0,1000.0,980.2622418607864,49.31828062878014,213000,106500.0,4907.651652574539
-0.8836466073989868,0.9130521516799927,-174.1517947998047,5.044233810424805,107000.0,5.669124267578125,173.90477990722655,173.9048427734375,173.90774981689452,214.0,1000.0,973.4665124450393,49.408042318301874,214000,107000.0,4927.891273021698
-0.8836466073989868,0.9190088493824005,-174.03659564208985,5.050105735778809,107500.0,5.725089030265808,173.78536492919923,173.7851156616211,173.78526989746095,215.0,1000.0,980.3985247526448,49.39084447724263,215000,107500.0,4948.137940645218
-0.8836466073989868,0.9175779235363006,-174.06617169189454,5.05299959564209,108000.0,6.184425355911255,173.80061651611328,173.80092462158203,173.8015487060547,216.0,1000.0,974.8662233276783,49.39367708778087,216000,108000.0,4968.383447647095
-0.8836466073989868,0.9180950536727905,-174.25619738769532,5.050166397094727,108500.0,6.440789504051208,173.99681115722657,173.99645098876954,173.99589251708986,217.0,1000.0,844.2637202083054,49.51472651182005,217000,108500.0,4988.579459667206
-0.8836466073989868,0.9150701265335083,-174.29219494628907,5.05365613746643,109000.0,5.989422825336456,174.03790997314454,174.03773913574219,174.03942126464844,218.0,1000.0,973.0674668543411,49.42026128627351,218000,109000.0,5008.814076185226
-0.8836466073989868,0.9131951546669006,-174.3445853881836,5.05791237449646,109500.0,7.35209346318245,174.07951190185548,174.0797989501953,174.0813765258789,219.0,1000.0,983.2729885825424,49.424448992981496,219000,109500.0,5029.046978235245
-0.8836466073989868,0.9157547435760498,-174.53342486572265,5.062548439025879,110000.0,5.828348131895066,174.27169458007813,174.27188983154298,174.27181463623046,220.0,1000.0,970.0835779431834,49.3180770833884,220000,110000.0,5049.3235206604
-0.8836466073989868,0.9115062785148621,-174.57916845703124,5.062331127166748,110500.0,5.6050132009983065,174.34333825683595,174.3431957397461,174.34185144042968,221.0,1000.0,968.1312794705245,19.9850439417298,221000,110500.0,5099.360939741135
-0.8836466073989868,0.916826224565506,-174.60908099365236,5.065026592254639,111000.0,6.351992060184479,174.35155932617187,174.35157971191407,174.3531231689453,222.0,1000.0,973.71859421454,49.17606399956779,222000,111000.0,5119.696037054062
-0.8836466073989868,0.9177868752479553,-174.70067095947266,5.070665418624878,111500.0,7.559036879062653,174.43304431152345,174.43309875488282,174.43461694335937,223.0,1000.0,968.8778373194372,49.305061786378886,223000,111500.0,5139.9779307842255
-0.8836466073989868,0.9127595539093017,-174.9799112548828,5.076530107498169,112000.0,6.285762711048126,174.71944134521485,174.71936602783202,174.71911242675782,224.0,1000.0,977.4149264341538,49.36954284068216,224000,112000.0,5160.233334779739
-0.8836466073989868,0.9170430281162262,-175.15748706054688,5.077694974899292,112500.0,5.742774255275727,174.90722204589844,174.9068988647461,174.90818237304688,225.0,1000.0,973.1302272127584,49.2543914141515,225000,112500.0,5180.536093235016
-0.8836466073989868,0.9145484290122986,-175.34024328613282,5.083967967987061,113000.0,6.4067951416969295,175.1015681152344,175.1015551147461,175.1014965209961,226.0,1000.0,979.6351381975669,49.473098964692966,226000,113000.0,5200.749098777771
-0.8836466073989868,0.9137690193653106,-175.49500402832032,5.090306564331055,113500.0,6.2021499066352845,175.24484173583986,175.2448087158203,175.24449938964844,227.0,1000.0,979.2479836379921,49.34129846979772,227000,113500.0,5221.016097784042
-0.8836466073989868,0.9126204941272735,-175.4435740966797,5.0850206642150875,114000.0,6.436652168512344,175.16580169677735,175.16577166748047,175.16534295654296,228.0,1000.0,963.4044252149109,49.0704192778626,228000,114000.0,5241.39497423172
-0.8836466073989868,0.9149606571197509,-175.557248046875,5.08919118309021,114500.0,5.528547702550888,175.28313470458986,175.2833180541992,175.2852520751953,229.0,1000.0,964.0369763073551,49.17062471862145,229000,114500.0,5261.732320308685
-0.8836466073989868,0.9098099408149719,-175.63705444335938,5.091530715942382,115000.0,6.469647472858429,175.40647155761718,175.40651013183594,175.4043817138672,230.0,1000.0,978.8532487379657,49.36995601330976,230000,115000.0,5281.987555027008
-0.8836466073989868,0.9118011629581452,-175.98835656738282,5.101180543899536,115500.0,8.371653489112854,175.72392663574217,175.72391802978515,175.72526391601562,231.0,1000.0,960.9270199345881,19.9707676578071,231000,115500.0,5332.060743093491
-0.8836466073989868,0.9169058346748352,-175.97595324707032,5.104018928527832,116000.0,6.18507085609436,175.7192955932617,175.7190069580078,175.7207453613281,232.0,1000.0,959.121247939786,49.10323032638275,232000,116000.0,5352.42600274086
-0.8836466073989868,0.911020620584488,-175.9928321533203,5.098800298690796,116500.0,5.91896248960495,175.76844842529297,175.7684274902344,175.76970782470704,233.0,1000.0,974.2744182097528,49.07709857050318,233000,116500.0,5372.802106142044
-0.8836466073989868,0.9113120095729828,-176.250396484375,5.107875257492066,117000.0,6.363294326543808,176.00045532226562,176.0005460205078,176.00224530029297,234.0,1000.0,964.6316566751011,49.04087376318445,234000,117000.0,5393.193260908127
-0.8836466073989868,0.9061456053256989,-176.1021065673828,5.108520740509033,117500.0,5.488708230495453,175.85493756103514,175.85496185302733,175.85476519775392,235.0,1000.0,967.7556897423735,49.00668350603082,235000,117500.0,5413.598641872406
-0.8836466073989868,0.9189092526435853,-176.1438758544922,5.106970636367798,118000.0,6.687459406375885,175.89693957519532,175.89672772216798,175.89858868408203,236.0,1000.0,975.2664388614247,48.918026036895725,236000,118000.0,5434.041004657745
-0.8836466073989868,0.9133487894535065,-176.41269659423827,5.110406301498413,118500.0,5.630641225814819,176.16459783935548,176.16469555664062,176.16249340820312,237.0,1000.0,959.5334537518696,49.01792735225903,237000,118500.0,5454.4417045116425
-0.8836466073989868,0.9079463403224945,-176.4962822265625,5.109700944900513,119000.0,5.253181710243225,176.27367407226564,176.27331072998047,176.27452423095704,238.0,1000.0,981.9203364500858,48.96770335362544,238000,119000.0,5474.863329172134
-0.8836466073989868,0.9127346007823944,-176.75998736572265,5.120934638977051,119500.0,5.205115940093994,176.54581182861327,176.5456237182617,176.54699035644532,239.0,1000.0,972.0006030769503,49.24042349048303,239000,119500.0,5495.171847343445
-0.8836466073989868,0.9144422791004181,-176.60012030029296,5.124591493606568,120000.0,6.1740241088867185,176.36543951416016,176.36530004882812,176.36560308837892,240.0,1000.0,967.9100441921266,49.00660334227684,240000,120000.0,5515.577261209488
-0.8836466073989868,0.9139806547164917,-176.39046087646486,5.1163645839691165,120500.0,5.113170910596848,176.15268096923828,176.1528956298828,176.15263037109375,241.0,1000.0,975.5152917526573,19.980127644802746,241000,120500.0,5565.626991987228
-0.8836466073989868,0.9157869884967804,-176.67500164794922,5.122852043151855,121000.0,6.017834731340408,176.44146856689454,176.44127716064452,176.44266998291016,242.0,1000.0,971.7028702161762,49.03671755028445,242000,121000.0,5586.019875049591
-0.8836466073989868,0.9138615868091583,-176.71356494140625,5.1251120872497555,121500.0,5.396546078205109,176.48556030273437,176.48571209716798,176.48600201416016,243.0,1000.0,930.5847563661473,49.169964131153215,243000,121500.0,5606.357494354248
-0.8836466073989868,0.9119200870990753,-176.78660339355469,5.126504837036133,122000.0,4.867176164150238,176.56353253173828,176.56360943603516,176.56498474121094,244.0,1000.0,971.4585470426377,48.97866793798008,244000,122000.0,5626.774547338486
-0.8836466073989868,0.9107487103939056,-176.9339884033203,5.13024224281311,122500.0,6.061958206176758,176.69369805908204,176.69337145996093,176.6925162963867,245.0,1000.0,974.2412163416849,49.113470099008346,245000,122500.0,5647.135560274124
-0.8836466073989868,0.9193608417510987,-176.68902233886718,5.127123956680298,123000.0,5.559252390861511,176.47110327148437,176.47094885253907,176.47207135009765,246.0,1000.0,944.2018949993935,48.97136586500218,246000,123000.0,5667.555657148361
-0.8836466073989868,0.9156910715103149,-177.06634259033203,5.139354013442993,123500.0,6.503064392566681,176.82190814208985,176.82216387939454,176.82346118164062,247.0,1000.0,939.4564962738309,49.00329280830426,247000,123500.0,5687.962450027466
-0.8836466073989868,0.9129999105930329,-177.03048803710936,5.133842536926269,124000.0,5.401131913423538,176.7959799194336,176.7958804321289,176.79618359375,248.0,1000.0,950.131539774477,49.05059479300535,248000,124000.0,5708.349563360214
-0.8836466073989868,0.9140857195854187,-176.8319058227539,5.132311126708984,124500.0,6.51244969201088,176.58783337402343,176.5879612426758,176.58683380126953,249.0,1000.0,940.3469554847835,49.033102579203266,249000,124500.0,5728.7439494133
-0.8836466073989868,0.9126242287158967,-177.31479760742187,5.144972721099854,125000.0,5.056588606834412,177.0639853515625,177.06391442871094,177.06737683105467,250.0,1000.0,975.0699918352,49.23619292826294,250000,125000.0,5749.054213523865
-0.8836466073989868,0.9130657205581665,-177.31616052246093,5.14212476348877,125500.0,5.187477033615112,177.07048681640626,177.0701840209961,177.07072192382813,251.0,1000.0,979.4891527109797,19.986411940376115,251000,125500.0,5799.088207483292
-0.8836466073989868,0.915238496541977,-177.8163440551758,5.160319242477417,126000.0,4.534393005132675,177.59696740722657,177.5969486694336,177.59664929199218,252.0,1000.0,959.9819118997206,49.01026881177268,252000,126000.0,5819.49209523201
-0.8836466073989868,0.9148851363658905,-177.41851458740234,5.146004726409912,126500.0,5.274541058063507,177.19268353271485,177.1926519165039,177.19305700683594,253.0,1000.0,965.8616073693405,49.21496035273657,253000,126500.0,5839.811120510101
-0.8836466073989868,0.9095949594974517,-177.85901141357422,5.15769158744812,127000.0,5.084270533561707,177.63190100097657,177.63215655517578,177.6334613647461,254.0,1000.0,975.9329544214725,49.099421615850204,254000,127000.0,5860.177960157394
-0.8836466073989868,0.9081208045482636,-177.85784130859375,5.157773828506469,127500.0,5.231605062246323,177.63606732177735,177.63632360839844,177.6366591796875,255.0,1000.0,967.7417016785304,49.0681167127732,255000,127500.0,5880.5577936172485
-0.8836466073989868,0.9086542913913727,-177.89921307373046,5.160849475860596,128000.0,4.483726014137268,177.6788042602539,177.67851434326172,177.67899877929688,256.0,1000.0,929.6812946838961,49.127689469913875,256000,128000.0,5900.912913799286
-0.8836466073989868,0.9153262095451355,-178.1547702026367,5.167787990570068,128500.0,5.559734305381775,177.90873919677733,177.9086713256836,177.909953125,257.0,1000.0,974.6703942959185,49.04837553532556,257000,128500.0,5921.300949335098
-0.8836466073989868,0.9172601792812347,-177.94012164306642,5.158050853729248,129000.0,4.891978269100189,177.69910833740235,177.69899566650392,177.69893908691407,258.0,1000.0,941.4589293476126,48.986912192360485,258000,129000.0,5941.714565753937
-0.8836466073989868,0.9148344311714173,-177.6467333984375,5.155496799468994,129500.0,5.104840506315231,177.4174214477539,177.4176312866211,177.41875286865235,259.0,1000.0,973.2598202556443,49.09091536860901,259000,129500.0,5962.084934234619
-0.8836466073989868,0.9089292736053467,-178.01609143066406,5.162690078735351,130000.0,4.2586317226886745,177.7973274536133,177.79727630615236,177.79582348632812,260.0,1000.0,974.394203943461,49.047926431104,260000,130000.0,5982.4731566905975
-0.8836466073989868,0.9100629069805145,-178.14938525390625,5.165218868255615,130500.0,5.5403853199481965,177.90701000976563,177.9070853881836,177.9092381591797,261.0,1000.0,962.3425489224106,19.991231853975485,261000,130500.0,6032.495087385178
-0.8836466073989868,0.911768052816391,-178.09264038085936,5.167639505386353,131000.0,5.695039077758789,177.84339526367188,177.84295654296875,177.84307739257812,262.0,1000.0,964.9142289268658,48.99357105859315,262000,131000.0,6052.905929327011
-0.8836466073989868,0.9082626030445099,-178.25422875976562,5.166383331298828,131500.0,5.244508595228195,178.03195782470704,178.03230853271484,178.03371374511718,263.0,1000.0,956.6010966872727,48.82004543124402,263000,131500.0,6073.389319658279
-0.8836466073989868,0.9074964153766633,-178.37557794189453,5.176678493499756,132000.0,5.057135919094086,178.1397035522461,178.13960095214844,178.1394627685547,264.0,1000.0,969.1817226922713,48.88625223228415,264000,132000.0,6093.844969034195
-0.8836466073989868,0.915265971660614,-178.5368772583008,5.179146253585816,132500.0,4.527640603065491,178.31521459960936,178.31526593017577,178.3159214477539,265.0,1000.0,961.2432930588252,48.807718740828854,265000,132500.0,6114.333532333374
-0.8836466073989868,0.9067070486545563,-178.49395001220702,5.175312894821167,133000.0,4.796891977071762,178.26724829101562,178.26706939697266,178.2679935913086,266.0,1000.0,975.5390927623956,48.9341282487809,266000,133000.0,6134.769167900085
-0.8836466073989868,0.912485383272171,-178.61286407470703,5.1785540103912355,133500.0,5.26448469543457,178.37497772216796,178.37488262939453,178.37311328125,267.0,1000.0,970.3534926618404,48.936062551202525,267000,133500.0,6155.203996419907
-0.8836466073989868,0.9094570846557617,-178.3456494140625,5.16844430732727,134000.0,5.417675868272782,178.12039709472657,178.12014831542967,178.12180029296874,268.0,1000.0,962.4399918866015,48.966562289679544,268000,134000.0,6175.62609577179
-0.8836466073989868,0.9144802410602569,-178.4301011352539,5.173326663970947,134500.0,4.660084020614624,178.20516033935547,178.20577221679687,178.20719342041016,269.0,1000.0,973.1701094884712,48.92156186244161,269000,134500.0,6196.066981554031
-0.8836466073989868,0.9132306516170502,-179.05320959472655,5.193849430084229,135000.0,5.528648183345795,178.82613653564454,178.82600091552735,178.8246155395508,270.0,1000.0,971.3381973649164,49.00235847356496,270000,135000.0,6216.47416305542
-0.8836466073989868,0.9094932131767273,-179.13064855957032,5.1976634254455565,135500.0,5.5747594313621525,178.9098197631836,178.90970721435548,178.913759765625,271.0,1000.0,943.8549515345976,19.95432569910032,271000,135500.0,6266.5886108875275
-0.8836466073989868,0.911541552066803,-178.72935864257812,5.19506386756897,136000.0,5.301432383537293,178.5226959838867,178.52266094970702,178.51957214355468,272.0,1000.0,969.8505330686976,48.840041674280634,272000,136000.0,6287.06361413002
-0.8836466073989868,0.9146374185085296,-178.9430640258789,5.190842742919922,136500.0,4.299044880151748,178.7141096801758,178.71402014160157,178.71742352294922,273.0,1000.0,963.3634376273801,48.96545614869327,273000,136500.0,6307.486175537109
-0.8836466073989868,0.9095446588993072,-179.0372533569336,5.187951961517334,137000.0,4.470399960994721,178.81485278320312,178.8148285522461,178.81600366210938,274.0,1000.0,958.4356096240654,48.77542665113378,274000,137000.0,6327.988303422928
-0.8836466073989868,0.9080060226917267,-179.16983953857422,5.195035306930542,137500.0,4.7045009064674375,178.95868487548827,178.95876690673828,178.95963793945313,275.0,1000.0,972.8749846866226,48.89414108558062,275000,137500.0,6348.440651893616
-0.8836466073989868,0.9142289292812348,-179.16532299804686,5.201526374816894,138000.0,5.945841665744782,178.9299154663086,178.9298253173828,178.92889331054687,276.0,1000.0,961.499459935084,48.92294335253916,276000,138000.0,6368.880960941315
-0.8836466073989868,0.9141613574028015,-179.29753009033203,5.204782653808594,138500.0,4.3870941848754885,179.08996984863282,179.09005786132812,179.09235552978515,277.0,1000.0,965.5207569533035,48.94992114954,277000,138500.0,6389.31000494957
-0.8836466073989868,0.909021735906601,-179.44694189453125,5.20616711807251,139000.0,5.694455050945282,179.22635864257813,179.22640008544923,179.22796801757812,278.0,1000.0,976.6797334188475,48.87361702291289,278000,139000.0,6409.770942211151
-0.8836466073989868,0.9096585674285889,-179.7289417114258,5.2105343112945555,139500.0,4.667365156173706,179.5209888305664,179.52096520996093,179.51968188476562,279.0,1000.0,974.8922720781442,48.86936896786961,279000,139500.0,6430.233658313751
-0.8836466073989868,0.9075391223430633,-179.78368176269532,5.213290880203247,140000.0,4.85860820388794,179.56380310058594,179.5638299560547,179.56458868408203,280.0,1000.0,967.4555854808849,48.80587294334053,280000,140000.0,6450.722996473312
-0.8836466073989868,0.9129148750305176,-179.45222888183594,5.204022087097168,140500.0,4.520742335796356,179.24293670654296,179.24321002197266,179.2452554321289,281.0,1000.0,969.6697517133468,19.935149679142686,281000,140500.0,6500.885650396347
-0.8836466073989868,0.9083670349121094,-179.83274798583983,5.214633464813232,141000.0,4.670232805013657,179.62243475341796,179.6223310546875,179.62049279785157,282.0,1000.0,972.3616072029979,48.79335757646883,282000,141000.0,6521.380244731903
-0.8836466073989868,0.9117094187736511,-179.66626068115235,5.215579586029053,141500.0,4.81730598950386,179.44622357177735,179.44654095458984,179.44727416992188,283.0,1000.0,977.0405385242598,48.895287326715696,283000,141500.0,6541.832113742828
-0.8836466073989868,0.9053507661819458,-179.6966608886719,5.212496011734009,142000.0,5.448110838890075,179.49842919921875,179.49777728271485,179.49840393066407,284.0,1000.0,969.256167667211,48.85430514656662,284000,142000.0,6562.301139593124
-0.8836466073989868,0.9112995667457581,-179.74828558349608,5.221510730743408,142500.0,4.86073445057869,179.5483173828125,179.54873809814453,179.5505848388672,285.0,1000.0,976.5103396272091,48.658424715658,285000,142500.0,6582.852566003799
-0.8836466073989868,0.911610339641571,-179.81496899414063,5.224331802368164,143000.0,4.2447370345592494,179.6160196533203,179.615994140625,179.61718865966796,286.0,1000.0,971.2673034696005,48.76469006838619,286000,143000.0,6603.3592076301575
-0.8836466073989868,0.9129183058738708,-179.7999959716797,5.233286294937134,143500.0,5.391817147970199,179.5896711425781,179.58940631103516,179.58876190185546,287.0,1000.0,973.1738088191288,48.811349405883014,287000,143500.0,6623.846247673035
-0.8836466073989868,0.9070106434822083,-179.6638667602539,5.2197979679107664,144000.0,5.384708273410797,179.45599145507813,179.45625146484375,179.4563375854492,288.0,1000.0,955.2956056212039,48.94587515370038,288000,144000.0,6644.276978492737
-0.8836466073989868,0.9096249716281891,-180.04574926757812,5.227692705154419,144500.0,5.391267540693283,179.81484765625,179.81501428222657,179.81535333251952,289.0,1000.0,972.1811926839823,48.889534433670654,289000,144500.0,6664.731254577637
-0.8836466073989868,0.9095612449645996,-179.98567614746094,5.228691947937012,145000.0,5.315380625247955,179.7829620361328,179.78310260009766,179.7831058959961,290.0,1000.0,962.6937197746763,48.97471097235767,290000,145000.0,6685.149956226349
-0.8836466073989868,0.9091470510959625,-179.80608508300782,5.228565328598022,145500.0,5.689718800544739,179.598349609375,179.5978952636719,179.59745556640624,291.0,1000.0,938.2114295757606,19.994534079366826,291000,145500.0,6735.163625717163
-0.8836466073989868,0.9059985783100128,-179.85036669921874,5.2267290897369385,146000.0,4.452811434268951,179.6436688232422,179.6439194946289,179.6464839477539,292.0,1000.0,978.717401275218,49.140200785148195,292000,146000.0,6755.513564109802
-0.8836466073989868,0.9053083021640778,-179.9866259765625,5.229047359466553,146500.0,4.599507594108582,179.78306842041016,179.78251629638672,179.7821945800781,293.0,1000.0,983.8471970771137,49.090647046250545,293000,146500.0,6775.884043931961
-0.8836466073989868,0.9053407402038575,-180.19324328613283,5.241153182983399,147000.0,4.380426915168762,179.9748190917969,179.97445501708984,179.9753483276367,294.0,1000.0,969.0368319698981,49.14082315012212,294000,147000.0,6796.233724355698
-0.8836466073989868,0.9107160232067109,-180.05794274902343,5.2335423049926755,147500.0,5.261725692510605,179.8435492553711,179.84412316894532,179.8450082397461,295.0,1000.0,965.2145569973197,49.016326828210076,295000,147500.0,6816.635090351105
-0.8836466073989868,0.9113449115753174,-180.1240972290039,5.232977188110351,148000.0,4.743335784196853,179.9349934692383,179.9347252807617,179.93517266845703,296.0,1000.0,979.4251845792417,48.946542299957585,296000,148000.0,6837.065543651581
-0.8836466073989868,0.9066040802001953,-180.26316180419923,5.238835886001587,148500.0,4.827375964879989,180.0533106689453,180.05329486083986,180.054650390625,297.0,1000.0,957.6538445202688,49.148137839496414,297000,148500.0,6857.412194728851
-0.8836466073989868,0.9071546683311462,-180.19576824951173,5.240486143112182,149000.0,4.7814784014225005,179.97415545654297,179.9738678588867,179.97321533203126,298.0,1000.0,912.990448861272,49.14216868683869,298000,149000.0,6877.76131772995
-0.8836466073989868,0.9094930231571198,-180.33417486572264,5.240752040863037,149500.0,4.478986460208893,180.13004498291016,180.1301928100586,180.13172637939454,299.0,1000.0,980.2786034094656,49.23841534230134,299000,149500.0,6898.070664405823
-0.8836466073989868,0.9067930099964142,-180.07868151855467,5.236703207015991,150000.0,6.005193195104599,179.87893139648438,179.87877087402345,179.87884307861327,300.0,1000.0,961.5619055699482,49.14734194547803,300000,150000.0,6918.417645215988
-0.8836466073989868,0.9069935607910157,-180.5408129272461,5.24434038734436,150500.0,4.819795036792756,180.33390563964844,180.3337630004883,180.3355087890625,301.0,1000.0,976.9140226694705,19.99666870301019,301000,150500.0,6968.425975799561
-0.8836466073989868,0.9097232837677002,-180.50704901123046,5.240295112609863,151000.0,3.9373033027648927,180.31661059570314,180.31635906982422,180.31692114257814,302.0,1000.0,971.6595491302464,49.2263623813819,302000,151000.0,6988.740294456482
-0.8836466073989868,0.9061093347072602,-180.58655212402343,5.248966415405273,151500.0,3.958791132688522,180.39527075195312,180.3957213745117,180.39542126464843,303.0,1000.0,959.2848236499017,49.27152096939214,303000,151500.0,7009.035995006561
-0.8836466073989868,0.9089629254341125,-180.8983226928711,5.257489580154419,152000.0,4.240211120843887,180.69920697021485,180.69904962158202,180.69877368164063,304.0,1000.0,985.824039232215,49.111268150137086,304000,152000.0,7029.397922039032
-0.8836466073989868,0.9095701072216034,-180.57217462158204,5.248845655441285,152500.0,3.711122615814209,180.37057360839844,180.37071997070314,180.37239837646484,305.0,1000.0,969.794784696644,49.320939631029916,305000,152500.0,7049.67328619957
-0.8836466073989868,0.908219518661499,-180.71188287353516,5.260119518280029,153000.0,5.1489711742401125,180.53058435058594,180.53034509277344,180.52953436279296,306.0,1000.0,973.3739339728838,49.12920289838945,306000,153000.0,7070.027779817581
-0.8836466073989868,0.9063312597274781,-180.86215802001954,5.2657584285736085,153500.0,4.553529939889907,180.6743154296875,180.6744097290039,180.67584771728517,307.0,1000.0,983.066274647113,49.14854385903691,307000,153500.0,7090.374263763428
-0.8836466073989868,0.9050816962718964,-180.72131005859376,5.256996097564698,154000.0,3.664345351457596,180.53810266113283,180.5384555053711,180.53913739013672,308.0,1000.0,980.8467268090662,49.098808345677384,308000,154000.0,7110.741357564926
-0.8836466073989868,0.913688080072403,-180.68903289794923,5.256267976760864,154500.0,4.230354813218117,180.48266912841797,180.48209857177736,180.48209967041015,309.0,1000.0,971.5894571154395,49.150102345267264,309000,154500.0,7131.087195634842
-0.8836466073989868,0.9087179589271546,-180.7078629760742,5.258163749694824,155000.0,4.2218746342659,180.52275396728515,180.52246557617187,180.52335693359376,310.0,1000.0,970.8383697187235,49.15606996898071,310000,155000.0,7151.43056344986
-0.8836466073989868,0.9159225060939788,-180.73405236816407,5.265654367446899,155500.0,6.078895542621613,180.52332073974608,180.5230629272461,180.5232178955078,311.0,1000.0,945.2740543605157,20.0238228984282,311000,155500.0,7201.371077537537
-0.8836466073989868,0.910612930059433,-180.56276721191406,5.256999095916748,156000.0,4.639420477628708,180.36364831542969,180.36411193847655,180.36485211181642,312.0,1000.0,965.9498950314892,48.96212888062557,312000,156000.0,7221.795027017593
-0.8836466073989868,0.9118978536128998,-180.74442938232423,5.264461463928223,156500.0,4.032747749090195,180.55855773925782,180.55844342041016,180.55884423828124,313.0,1000.0,979.0182231012799,49.032692732679855,313000,156500.0,7242.189583778381
-0.8836466073989868,0.9107916281223297,-180.59837634277343,5.26613131904602,157000.0,5.208944909334183,180.4061792602539,180.40606976318358,180.40621545410156,314.0,1000.0,977.952795919261,49.232466427775435,314000,157000.0,7262.501383781433
-0.8836466073989868,0.9066748504638672,-180.9671680908203,5.27347979927063,157500.0,3.711401270389557,180.77653155517578,180.77656170654296,180.77777087402345,315.0,1000.0,978.3709773040138,49.15222368101792,315000,157500.0,7282.846343994141
-0.8836466073989868,0.9058659026622772,-180.8703139038086,5.2654926948547365,158000.0,4.385795686721802,180.66469689941405,180.66450415039063,180.6643302001953,316.0,1000.0,975.5889950302418,49.036704364359565,316000,158000.0,7303.239243507385
-0.8836466073989868,0.9085832023620606,-181.03316174316407,5.273164859771729,158500.0,4.989434881448746,180.84285620117188,180.84300872802734,180.84476684570313,317.0,1000.0,915.6344013139188,49.21326609478363,317000,158500.0,7323.558968305588
-0.8836466073989868,0.9075761859416962,-180.99953381347657,5.268313344955445,159000.0,4.916100152254105,180.80739532470704,180.8073173828125,180.80725018310548,318.0,1000.0,971.5637521662862,49.12939452925392,318000,159000.0,7343.913381814957
-0.8836466073989868,0.9121596727371216,-181.64555517578125,5.2852438468933105,159500.0,3.598308122634888,181.44804406738282,181.44810302734376,181.44748742675782,319.0,1000.0,974.7826373300869,49.12321993352145,319000,159500.0,7364.270354270935
-0.8836466073989868,0.9096248326301575,-181.48536450195311,5.285100147247315,160000.0,3.969412454366684,181.2952338256836,181.2955520629883,181.29527252197266,320.0,1000.0,974.4785865844362,49.15742383044342,320000,160000.0,7384.613162279129
-0.8836466073989868,0.9094778082370758,-180.97065777587892,5.272996921539306,160500.0,4.90501624917984,180.79102239990235,180.79029577636717,180.78989489746093,321.0,1000.0,976.2079996913351,20.01209446377097,321000,160500.0,7434.582944869995
-0.8836466073989868,0.9064815454483032,-181.3102327270508,5.279053718566894,161000.0,4.923451036453247,181.1159825439453,181.11609918212892,181.1171268310547,322.0,1000.0,977.4102880454741,49.1160133109972,322000,161000.0,7454.9429042339325
-0.8836466073989868,0.9043440816402435,-181.5127946166992,5.283652984619141,161500.0,4.1319278786182405,181.3129780883789,181.31290393066405,181.3151831665039,323.0,1000.0,973.438246767111,49.06566168508095,323000,161500.0,7475.323757171631
-0.8836466073989868,0.9074344284534455,-181.6298236694336,5.284498640060425,162000.0,3.997661289691925,181.43882672119142,181.43861712646483,181.43976770019532,324.0,1000.0,972.0394106180366,49.14775543857425,324000,162000.0,7495.670567035675
-0.8836466073989868,0.9072024281024933,-181.24206884765624,5.284034282684326,162500.0,4.528584231615066,181.0510809326172,181.0511171875,181.050685546875,325.0,1000.0,973.2039355877054,49.21989422972482,325000,162500.0,7515.987555742264
-0.8836466073989868,0.9013838336467743,-181.29522723388672,5.279273265838623,163000.0,3.3299905931949616,181.10103692626953,181.10101391601563,181.1009730834961,326.0,1000.0,976.0985854622625,49.094070530963165,326000,163000.0,7536.356615066528
-0.8836466073989868,0.9049797937870026,-181.60383599853515,5.289223459243774,163500.0,3.809469886302948,181.42112896728514,181.42147674560547,181.42264050292968,327.0,1000.0,972.2665814557313,49.15779140229958,327000,163500.0,7556.699271202087
-0.8836466073989868,0.9061100797653199,-181.3968627319336,5.286959016799927,164000.0,4.338180516958237,181.20750549316406,181.2073381958008,181.20885864257812,328.0,1000.0,973.2851573529603,49.24555616898657,328000,164000.0,7577.005672693253
-0.8836466073989868,0.9050780429840087,-181.74934619140626,5.293536312103272,164500.0,4.288569104433059,181.57119165039063,181.5711262817383,181.56930078125,329.0,1000.0,974.0832157351643,49.32031907486773,329000,164500.0,7597.2812922000885
-0.8836466073989868,0.9082986433506012,-181.68998950195314,5.294954372406006,165000.0,4.3541700446605685,181.51547314453126,181.51548553466796,181.51600537109374,330.0,1000.0,974.8617082884207,49.218360769759265,330000,165000.0,7617.598914146423
-0.8836466073989868,0.9063860771656036,-181.87480407714844,5.29678800201416,165500.0,5.187765147209167,181.68028216552733,181.6801078491211,181.68168957519532,331.0,1000.0,981.7320631130084,20.02167587916831,331000,165500.0,7667.54478430748
-0.8836466073989868,0.9037291626930237,-181.42112115478517,5.284334981918335,166000.0,4.034570877075195,181.24042681884765,181.2405634765625,181.24037634277343,332.0,1000.0,981.0861111107793,49.030398865064775,332000,166000.0,7687.940294981003
-0.8836466073989868,0.9051076130867004,-181.91358892822265,5.295914493560791,166500.0,4.166025356531144,181.72668212890625,181.726357421875,181.7276474609375,333.0,1000.0,978.0372756072991,49.10314524761604,333000,166500.0,7708.305589914322
-0.8836466073989868,0.9109977376461029,-181.45979321289062,5.288881652832031,167000.0,3.74396727848053,181.26794842529296,181.26782067871093,181.26655810546876,334.0,1000.0,982.2071588765817,49.07695673219178,334000,167000.0,7728.681751728058
-0.8836466073989868,0.9059250197410583,-181.8953049926758,5.296585878372192,167500.0,3.811319880485535,181.7097896118164,181.7098539428711,181.71136895751954,335.0,1000.0,973.0307531613423,49.243668435298865,335000,167500.0,7748.988931655884
-0.8836466073989868,0.9025217752456665,-181.93969006347658,5.300389957427979,168000.0,3.4381007657051086,181.75599670410156,181.7561790161133,181.75644415283202,336.0,1000.0,976.5927731781403,49.21835095130276,336000,168000.0,7769.306557416916
-0.8836466073989868,0.9082226054668426,-182.21841778564453,5.308070812225342,168500.0,4.2729878013134,182.02318029785155,182.02291748046875,182.0227780151367,337.0,1000.0,976.3543515334277,49.060425840534315,337000,168500.0,7789.68958568573
-0.8836466073989868,0.9028165333271027,-182.18034869384766,5.306685991287232,169000.0,3.687904454231262,181.98307403564453,181.98295733642578,181.98378649902344,338.0,1000.0,970.666056885531,49.299192367561865,338000,169000.0,7809.973894357681
-0.8836466073989868,0.9094336676597595,-182.10369763183593,5.3050540256500245,169500.0,4.62164692234993,181.91746826171874,181.9172201538086,181.91977124023438,339.0,1000.0,947.484329079667,49.21983184982792,339000,169500.0,7830.290908575058
-0.8836466073989868,0.9051166682243347,-182.13465270996093,5.306566194534302,170000.0,3.468800163984299,181.96585852050782,181.96620971679687,181.96579412841797,340.0,1000.0,975.6980614160968,49.123838991738005,340000,170000.0,7850.647624254227
-0.8836466073989868,0.9112672054767609,-182.30285046386717,5.312566675186157,170500.0,4.074044918298721,182.121904296875,182.12179998779297,182.12419165039063,341.0,1000.0,977.9812493052825,20.033435931735433,341000,170500.0,7900.5641746521
-0.8836466073989868,0.9088312771320343,-182.18253448486328,5.308355583190918,171000.0,4.23379427742958,181.98850933837892,181.98856872558594,181.98738891601562,342.0,1000.0,980.6954339581557,49.1841262643488,342000,171000.0,7920.895938396454
-0.8836466073989868,0.9070059356689453,-182.26230944824218,5.31461141204834,171500.0,4.320394428491593,182.06611907958984,182.0662764892578,182.06523712158204,343.0,1000.0,976.3456048849862,49.24433794265986,343000,171500.0,7941.202842235565
-0.8836466073989868,0.9083477215766906,-182.13813220214843,5.307242546081543,172000.0,3.495086706161499,181.96404193115234,181.9644481201172,181.96695379638672,344.0,1000.0,971.5733283937336,49.17427383308931,344000,172000.0,7961.5386798381805
-0.8836466073989868,0.9090065312385559,-182.3374071044922,5.313102485656739,172500.0,3.7514680290222167,182.1563606567383,182.15611309814454,182.15737414550782,345.0,1000.0,978.778589978813,49.141034446903205,345000,172500.0,7981.888272047043
-0.8836466073989868,0.9166542313098908,-182.27368841552735,5.312972337722778,173000.0,4.857944193124771,182.0955496826172,182.0954376220703,182.09453552246094,346.0,1000.0,955.9554470142157,49.05716311385329,346000,173000.0,8002.272655963898
-0.8836466073989868,0.9034698219299316,-182.3843706665039,5.312513193130493,173500.0,4.290897530078888,182.22416772460937,182.22394677734374,182.22493957519532,347.0,1000.0,975.9552140353038,49.00593742065884,347000,173500.0,8022.678347110748
-0.8836466073989868,0.9049741561412812,-182.59854333496094,5.32406201171875,174000.0,3.910800283432007,182.42622491455077,182.42642163085938,182.42659271240234,348.0,1000.0,971.9576499661096,49.27848207898296,348000,174000.0,8042.9711809158325
-0.8836466073989868,0.9075319237709045,-182.2962744140625,5.314163368225097,174500.0,3.5443776338100434,182.1279398803711,182.12800500488282,182.1281594848633,349.0,1000.0,982.6255682475213,49.08064077446025,349000,174500.0,8063.345814228058
-0.8836466073989868,0.904705867767334,-182.74691290283204,5.324354158401489,175000.0,3.3651068241596223,182.57155041503907,182.57178045654297,182.5725757446289,350.0,1000.0,982.2013121137257,49.0847808851643,350000,175000.0,8083.718728303909
-0.8836466073989868,0.9002303161621094,-182.6522059326172,5.317701164245605,175500.0,3.508770644903183,182.47017230224608,182.47009735107423,182.47134295654297,351.0,1000.0,975.1957495549996,19.989034278742473,351000,175500.0,8133.746158123016
-0.8836466073989868,0.9107287268638611,-182.67566949462892,5.32697145652771,176000.0,4.158175626039505,182.49591491699218,182.49588342285156,182.49678399658202,352.0,1000.0,980.9520020206863,49.02299140221962,352000,176000.0,8154.144751548767
-0.8836466073989868,0.9095196745395661,-182.51191619873046,5.3228432598114015,176500.0,4.32460594534874,182.33493811035157,182.3349651489258,182.33515948486328,353.0,1000.0,976.5973381769498,49.055507242385005,353000,176500.0,8174.5298228263855
-0.8836466073989868,0.9086438210010529,-182.37357989501953,5.317185596466064,177000.0,4.526864725351333,182.1904818725586,182.19075091552733,182.1915034790039,354.0,1000.0,966.8044824419271,48.90419176254723,354000,177000.0,8194.977968454361
-0.8836466073989868,0.9040865323543549,-182.70933093261718,5.32153475189209,177500.0,3.41745392370224,182.54350103759765,182.54316735839845,182.5426827392578,355.0,1000.0,984.1545433135368,49.02488861350914,355000,177500.0,8215.375771522522
-0.8836466073989868,0.909593989610672,-182.4094852294922,5.3185674095153805,178000.0,3.8174586901664735,182.24943298339844,182.24951916503906,182.24885620117186,356.0,1000.0,984.1256174778277,49.03315187589007,356000,178000.0,8235.770137548447
-0.8836466073989868,0.9003522281646729,-182.8173255004883,5.331732154846192,178500.0,4.157462173461914,182.6409034423828,182.64093688964843,182.64355950927734,357.0,1000.0,982.4087777953551,49.01234773911466,357000,178500.0,8256.173159837723
-0.8836466073989868,0.9067104301452636,-182.77683514404296,5.328429368972778,179000.0,3.929557952046394,182.5968317260742,182.5967017211914,182.59574237060548,358.0,1000.0,983.6607059919019,48.99682246978608,358000,179000.0,8276.58264708519
-0.8836466073989868,0.9056482663154602,-182.91678973388673,5.329040878295898,179500.0,3.4214703993797304,182.75039373779296,182.75025805664063,182.75049523925782,359.0,1000.0,975.8909427321823,48.95451976202311,359000,179500.0,8297.009771108627
-0.8836466073989868,0.911066106557846,-182.87637286376952,5.331044427871704,180000.0,3.3623847901821136,182.70138854980468,182.70197778320312,182.70097552490233,360.0,1000.0,969.0914788823483,48.951381939505055,360000,180000.0,8317.438204050064
-0.8836466073989868,0.9098702030181884,-182.91277355957033,5.3321311473846436,180500.0,3.9942409944534303,182.7357533569336,182.73565423583983,182.7384562988281,361.0,1000.0,973.296707250126,19.998017698326528,361000,180500.0,8367.443161010742
-0.8836466073989868,0.9067139780521393,-182.7893916015625,5.330750299453736,181000.0,3.2363281834125517,182.62150354003907,182.62152532958984,182.6215377807617,362.0,1000.0,968.7092730749575,49.09008570467942,362000,181000.0,8387.813873767853
-0.8836466073989868,0.9055636134147644,-183.1754965209961,5.344245313644409,181500.0,3.8630314977169036,183.00579547119142,183.00581951904297,183.00593176269533,363.0,1000.0,966.4095344002541,49.10243301193824,363000,181500.0,8408.179464101791
-0.8836466073989868,0.9045041344165802,-183.42891088867188,5.346093978881836,182000.0,3.083636586546898,183.25371362304688,183.2534263305664,183.2531492919922,364.0,1000.0,962.2809697899987,48.99874341467937,364000,182000.0,8428.588151216507
-0.8836466073989868,0.9074589474201202,-182.97612518310547,5.341182186126709,182500.0,3.6925188989639284,182.79687915039062,182.79687365722657,182.7999153442383,365.0,1000.0,985.5219437519004,49.01798062847903,365000,182500.0,8448.988829135895
-0.8836466073989868,0.9037955784797669,-183.02304168701173,5.341694755554199,183000.0,3.7827734134197235,182.8569775390625,182.85718963623046,182.85584674072265,366.0,1000.0,976.6270166360232,49.11823639291886,366000,183000.0,8469.347866773605
-0.8836466073989868,0.910201889038086,-182.92902172851564,5.3390401840209964,183500.0,3.807195033311844,182.7486470336914,182.74847186279297,182.7494688720703,367.0,1000.0,969.2666744917883,49.32527119994442,367000,183500.0,8489.621450901031
-0.8836466073989868,0.9056605997085572,-183.12923455810548,5.337172969818115,184000.0,3.0179615957736967,182.9647122192383,182.9646580810547,182.96531982421874,368.0,1000.0,979.2688206817721,49.12692415945345,368000,184000.0,8509.976888656616
-0.8836466073989868,0.9033886947631836,-183.10634216308594,5.342753412246704,184500.0,3.8922224242687227,182.93943078613282,182.939478515625,182.940146484375,369.0,1000.0,973.833148275669,49.03897588785447,369000,184500.0,8530.368832588196
-0.8836466073989868,0.9104286541938782,-182.8809515991211,5.33754257774353,185000.0,3.9634547761678696,182.7004769897461,182.70085650634766,182.69997680664062,370.0,1000.0,980.1890556236433,48.987487197048395,370000,185000.0,8550.782208919525
-0.8836466073989868,0.9077273256778717,-183.4917770385742,5.356472505569458,185500.0,3.625589121580124,183.3361531982422,183.33559619140624,183.33534033203125,371.0,1000.0,978.4659929207716,19.970518813376835,371000,185500.0,8600.856021404266
-0.8836466073989868,0.9070259220600129,-183.64315502929688,5.3578193054199215,186000.0,4.101777885198593,183.46693365478515,183.46662915039062,183.4679346923828,372.0,1000.0,981.3120230452533,48.94007380430995,372000,186000.0,8621.28917503357
-0.8836466073989868,0.907588434934616,-183.08440405273439,5.342898290634155,186500.0,3.826769767045975,182.91332751464844,182.91396868896484,182.91452362060548,373.0,1000.0,972.9491126795127,48.931201965020506,373000,186500.0,8641.726032733917
-0.8836466073989868,0.904479246377945,-183.39893560791015,5.344273706436157,187000.0,3.9147289834022523,183.22763458251953,183.22710461425783,183.22902856445313,374.0,1000.0,976.6321256600716,48.83933705067602,374000,187000.0,8662.201331853867
-0.8836466073989868,0.9078787653446198,-183.6483060913086,5.350020830154419,187500.0,3.513450191259384,183.4828680419922,183.48278021240233,183.48076776123048,375.0,1000.0,980.3510419240116,48.77606703722859,375000,187500.0,8682.703191041946
-0.8836466073989868,0.9048341641426086,-183.61176361083983,5.352627208709717,188000.0,2.8949943945407868,183.44301739501952,183.44371887207032,183.44568426513672,376.0,1000.0,986.1936186522723,48.800540224943944,376000,188000.0,8703.194767951965
-0.8836466073989868,0.9106383328437805,-183.54351708984376,5.34737739944458,188500.0,4.12038640487194,183.37063598632812,183.37039672851563,183.37050085449218,377.0,1000.0,976.2351187947471,48.76073075389007,377000,188500.0,8723.703074455261
-0.8836466073989868,0.9063600194454193,-183.71927795410156,5.358352575302124,189000.0,3.4431128227710723,183.56843615722656,183.56818975830078,183.5687390136719,378.0,1000.0,980.4761032781709,48.768267269988186,378000,189000.0,8744.20821237564
-0.8836466073989868,0.9055803475379944,-183.4663313598633,5.351829961776733,189500.0,3.601104426383972,183.31605419921874,183.31648345947266,183.31575421142577,379.0,1000.0,982.1945215705128,48.86868342605088,379000,189500.0,8764.67121553421
-0.8836466073989868,0.9068604192733765,-183.59110400390625,5.3587694854736325,190000.0,3.3521967196464537,183.4236351928711,183.42306274414062,183.4242470703125,380.0,1000.0,982.4457996660672,48.89499092902784,380000,190000.0,8785.123208761215
-0.8836466073989868,0.9096786999702453,-183.43943206787108,5.352995042800903,190500.0,3.4778390927314757,183.28696661376952,183.2874432373047,183.28707611083985,381.0,1000.0,984.8038553329488,19.990366237858794,381000,190500.0,8835.147305727005
-0.8836466073989868,0.905868889093399,-183.57240447998046,5.360376615524292,191000.0,3.8288251516819,183.41063116455078,183.4103060913086,183.4096137084961,382.0,1000.0,974.0884758918147,48.94702267937238,382000,191000.0,8855.577558040619
-0.8836466073989868,0.8974280726909637,-183.58586334228517,5.360983814239502,191500.0,3.0709631024599076,183.4226239013672,183.42286547851563,183.4243442993164,383.0,1000.0,974.1496025569695,48.98818751949706,383000,191500.0,8875.990643262863
-0.8836466073989868,0.9023922846317292,-183.72416259765626,5.366163297653198,192000.0,3.8242980575561525,183.5621008911133,183.5622742919922,183.5631602783203,384.0,1000.0,976.9652582036616,48.910354191881446,384000,192000.0,8896.436212301254
-0.8836466073989868,0.905185641527176,-183.76434033203125,5.3672042560577395,192500.0,3.8476530287265778,183.59783489990235,183.59832556152344,183.59723419189453,385.0,1000.0,983.7398400717472,49.08269810621337,385000,192500.0,8916.80999159813
-0.8836466073989868,0.9063082253932953,-183.89712646484375,5.36252903175354,193000.0,4.265170841217041,183.73380432128906,183.7336024169922,183.73626287841796,386.0,1000.0,983.2270092509274,49.078990783483796,386000,193000.0,8937.185309410095
-0.8836466073989868,0.9017542061805726,-183.68944244384767,5.364643213272095,193500.0,4.226382042169571,183.5106494140625,183.51040350341796,183.50953704833984,387.0,1000.0,986.4874279475581,49.083700988740205,387000,193500.0,8957.558671712875
-0.8836466073989868,0.9045247676372528,-183.67630004882812,5.366724887847901,194000.0,3.65371887922287,183.50919256591797,183.5091781616211,183.50951025390626,388.0,1000.0,984.717860874517,49.05313264469941,388000,194000.0,8977.94473028183
-0.8836466073989868,0.9077060000896454,-183.9564172973633,5.3676759796142575,194500.0,3.418435976028442,183.79693621826172,183.79691088867187,183.7970756225586,389.0,1000.0,981.6858304659482,49.07643934513935,389000,194500.0,8998.321107387543
-0.8836466073989868,0.9022711639404297,-183.83059307861328,5.373718915939331,195000.0,2.930459001302719,183.67220532226563,183.672287109375,183.67232415771485,390.0,1000.0,986.4306576820603,48.90650063821622,390000,195000.0,9018.768287420273
-0.8836466073989868,0.9036493406295777,-183.93339721679686,5.374478487014771,195500.0,3.1687593178749083,183.77870306396485,183.7788519897461,183.7797886352539,391.0,1000.0,984.8482240600139,19.949986241262508,391000,195500.0,9068.893635988235
-0.8836466073989868,0.9043576612472534,-183.9036044921875,5.37198491859436,196000.0,3.8234034817218783,183.73954943847656,183.7396646118164,183.74053247070313,392.0,1000.0,985.321295674446,48.677769004911895,392000,196000.0,9089.436895608902
-0.8836466073989868,0.9051698224544525,-184.1293703613281,5.3750701522827145,196500.0,4.490826255321503,183.94132818603515,183.94095770263672,183.94038098144532,393.0,1000.0,984.1231247583062,48.90077589320313,393000,196500.0,9109.88647031784
-0.8836466073989868,0.9007029187679291,-184.1549271850586,5.376875059127808,197000.0,3.3756354515552522,183.98309405517577,183.98334881591796,183.98425079345702,394.0,1000.0,977.1648968737561,48.823639284037974,394000,197000.0,9130.368352890015
-0.8836466073989868,0.9067828826904297,-184.1073178100586,5.3769260597229005,197500.0,3.4924091382026674,183.94307989501954,183.94291119384766,183.94335180664064,395.0,1000.0,979.2126858210439,48.98499274709103,395000,197500.0,9150.782768726349
-0.8836466073989868,0.911904798746109,-184.21083618164062,5.382690431594849,198000.0,2.896310834646225,184.05253350830077,184.05235070800782,184.0524677734375,396.0,1000.0,982.5245238574475,48.80831567321461,396000,198000.0,9171.27108168602
-0.8836466073989868,0.9016221907138825,-184.22036083984375,5.379064348220825,198500.0,2.9920846197605133,184.04816149902345,184.04817364501952,184.0498316040039,397.0,1000.0,978.6113680207916,48.89019833528002,397000,198500.0,9191.725080013275
-0.8836466073989868,0.9048626964092255,-184.2121922607422,5.384096315383911,199000.0,3.2899094231128694,184.05376873779298,184.05355029296874,184.05283563232422,398.0,1000.0,982.4253585182144,48.94397719922089,398000,199000.0,9212.15660405159
-0.8836466073989868,0.903624137878418,-184.34452795410155,5.383872337341309,199500.0,3.557830943584442,184.17964025878905,184.17972576904296,184.1813740234375,399.0,1000.0,980.4389253881731,48.87156408372837,399000,199500.0,9232.618401527405
-0.8836466073989868,0.9054847648143768,-184.30192065429688,5.383366237640381,200000.0,3.622684675693512,184.1480068359375,184.14801379394532,184.14830871582032,400.0,1000.0,981.8881994952661,48.81189587000991,400000,200000.0,9253.105211257935
-0.8836466073989868,0.9048422026634216,-183.99096954345703,5.371042350769043,200500.0,2.924171031832695,183.83663580322266,183.83656225585938,183.8365697631836,401.0,1000.0,979.9980085207593,19.936899296195282,401000,200500.0,9303.263463258743
-0.8836466073989868,0.9050149505138397,-184.23109167480467,5.379793157577515,201000.0,3.056348582983017,184.0657158203125,184.06546630859376,184.06564038085938,402.0,1000.0,980.2693561565336,48.660741492560405,402000,201000.0,9323.813910961151
-0.8836466073989868,0.9046140353679657,-184.52208087158203,5.386583198547363,201500.0,2.8057611761093137,184.37393676757813,184.37407836914062,184.37415795898437,403.0,1000.0,974.7262219680625,48.83200710022271,403000,201500.0,9344.292283296585
-0.8836466073989868,0.9055371780395508,-184.19839251708984,5.381590286254883,202000.0,3.174875115394592,184.03811340332032,184.03795239257812,184.039025390625,404.0,1000.0,976.1283150048905,48.75332973951789,404000,202000.0,9364.803703784943
-0.8836466073989868,0.9044790365695954,-184.16283099365234,5.37961229133606,202500.0,3.2829575259685515,184.01181561279296,184.0120828857422,184.0114248046875,405.0,1000.0,980.4079024077046,48.770048411985464,405000,202500.0,9385.308092594147
-0.8836466073989868,0.9028787765502929,-184.80516265869142,5.3948410148620605,203000.0,3.089361104488373,184.65334295654296,184.6533981323242,184.65505529785156,406.0,1000.0,977.5151864928602,48.77281876878327,406000,203000.0,9405.811317205429
-0.8836466073989868,0.9092115042209625,-184.60353503417969,5.390715631484985,203500.0,3.041342844247818,184.4490072631836,184.4493502807617,184.448490234375,407.0,1000.0,976.2702026287027,48.84770171567155,407000,203500.0,9426.283110141754
-0.8836466073989868,0.9043397138118744,-184.7099906616211,5.39188791847229,204000.0,3.8768485666513444,184.54984362792968,184.54947479248048,184.54970642089845,408.0,1000.0,972.9849075653688,48.88815881853927,408000,204000.0,9446.737961530685
-0.8836466073989868,0.9022199134826661,-184.53925317382811,5.385882852554321,204500.0,2.9803851716518404,184.36812030029296,184.36803948974608,184.36932244873046,409.0,1000.0,985.3087536286474,48.80913129615868,409000,204500.0,9467.225931882858
-0.8836466073989868,0.9056440689563752,-184.72532830810547,5.3916352825164795,205000.0,2.8093298213481903,184.55086517333984,184.55087634277345,184.5509266357422,410.0,1000.0,986.7570766776042,48.89239190321873,410000,205000.0,9487.679012537003
-0.8836466073989868,0.9083256015777588,-184.65179376220703,5.395628633499146,205500.0,3.1600154371261597,184.5025206298828,184.5026906738281,184.50175689697267,411.0,1000.0,973.5705175796681,19.987216161477072,411000,205500.0,9537.710993766785
-0.8836466073989868,0.9096178014278412,-184.62173834228517,5.395284244537353,206000.0,3.2785956649780275,184.46097259521486,184.46117462158202,184.46234399414064,412.0,1000.0,983.0764557181237,48.8522242416402,412000,206000.0,9558.180891036987
-0.8836466073989868,0.9039574482440949,-184.5887360229492,5.390640741348267,206500.0,3.534936107993126,184.43435064697266,184.4342669067383,184.43437908935547,413.0,1000.0,978.8300930249349,48.89571653973704,413000,206500.0,9578.632581233978
-0.8836466073989868,0.9102120678424835,-184.5596866455078,5.3897895317077635,207000.0,3.3276487398147583,184.3963610229492,184.39610766601564,184.39642462158204,414.0,1000.0,980.2609306971068,48.815643057583735,414000,207000.0,9599.117818593979
-0.8836466073989868,0.9036577005386353,-184.88141479492188,5.396212129592896,207500.0,3.5282486461400984,184.72867791748047,184.7286328125,184.7287607421875,415.0,1000.0,971.7029392735225,48.79081985715493,415000,207500.0,9619.61347913742
-0.8836466073989868,0.8934561479091644,-184.94399780273437,5.402948196411133,208000.0,3.490036274909973,184.78368798828126,184.7835537109375,184.78591247558595,416.0,1000.0,979.4987336776034,48.668425580544735,416000,208000.0,9640.160681962967
-0.8836466073989868,0.9067029726505279,-184.72776635742187,5.400836086273193,208500.0,3.675132557988167,184.57028619384766,184.57034045410157,184.57003784179688,417.0,1000.0,971.6924685818396,48.78882437691742,417000,208500.0,9660.65717959404
