cmpe-260-team-4/drqv2/Various Attempts/pendulum_swingup_1090_train_R.csv
actor_ent,actor_logprob,actor_loss,batch_reward,buffer_size,critic_loss,critic_q1,critic_q2,critic_target_q,episode,episode_length,episode_reward,fps,frame,step,total_time
1.3984889798164368,-0.9223822166919708,0.12955787670612334,0.0,2500.0,0.0003105087796566295,-0.12678207996487617,-0.12630159485340117,-0.12677129304409027,5.0,1000.0,0.0,10.468804149016025,5000,2500.0,95.521897315979
1.3938854260444642,-0.9335952153205872,0.12124703371524811,0.0,3000.0,6.136444645790106e-07,-0.12107108759880066,-0.1210702593922615,-0.12106881827116013,6.0,1000.0,0.0,34.35926451141177,6000,3000.0,124.6261305809021
1.3892605791091919,-0.9292652583122254,0.11262924167513848,0.0,3500.0,3.483260296093249e-07,-0.11249197712540626,-0.11249093362689018,-0.1124893163740635,7.0,1000.0,0.0,35.062699458464344,7000,3500.0,153.14646863937378
1.384614252090454,-0.9249984152317047,0.10522554528713227,0.0,4000.0,3.267008784348491e-06,-0.10469082808494568,-0.10468371897935867,-0.10468945714831353,8.0,1000.0,0.0,34.263476546136374,8000,4000.0,182.33206701278687
1.3799462265968323,-0.9206147937774658,0.09754234525561332,0.0,4500.0,1.1466502257917456e-06,-0.0972868190407753,-0.09729580691456795,-0.0972863499224186,9.0,1000.0,0.0,34.961228482200426,9000,4500.0,210.93518209457397
1.3752563061714171,-0.9162166342735291,0.09121849718689919,0.0,5000.0,5.354562054662892e-06,-0.09046126341819763,-0.09045718890428543,-0.09045976138114929,10.0,1000.0,0.0,34.41414977078178,10000,5000.0,239.99299883842468
1.3705442967414856,-0.9117967593669891,0.0848155891597271,0.0,5500.0,5.549018446345144e-06,-0.08410014754533768,-0.08409876555204392,-0.08409856450557708,11.0,1000.0,0.0,13.379943457407524,11000,5500.0,314.7317318916321
1.3658099727630615,-0.9073746190071106,0.07938520777225494,0.0,6000.0,8.327147122770384e-06,-0.07815966615080834,-0.07816647797822952,-0.07816056123375893,12.0,1000.0,0.0,34.007383688947975,12000,6000.0,344.13711190223694
1.361053126335144,-0.9030463540554047,0.0736661406159401,0.0,6500.0,5.767600903709536e-06,-0.07263268595933914,-0.07262960770726204,-0.07263296663761139,13.0,1000.0,0.0,35.331130837623974,13000,6500.0,372.44076442718506
1.356273549079895,-0.8987532868385315,0.06859769666194916,0.0,7000.0,7.334072884304987e-06,-0.06749308830499649,-0.06749330165982247,-0.06749445706605911,14.0,1000.0,0.0,34.18925870261835,14000,7000.0,401.6897177696228
1.3514710178375244,-0.8942794678211212,0.0634011161327362,0.0,7500.0,4.371891523703653e-06,-0.06272472928464412,-0.06272565269470215,-0.06272265577316284,15.0,1000.0,0.0,34.77023328994609,15000,7500.0,430.44995188713074
1.346645299911499,-0.8898593816757202,0.05902175106108189,0.0,8000.0,5.109013970468368e-06,-0.05822316654026508,-0.05822387608885765,-0.05822586911916733,16.0,1000.0,0.0,35.49765844996905,16000,8000.0,458.6208255290985
1.3417961983680724,-0.8853418703079223,0.05495700073242187,0.0,8500.0,4.823698196105397e-06,-0.05417551390826702,-0.05417332725226879,-0.05417228789627552,17.0,1000.0,0.0,34.05381319001825,17000,8500.0,487.9861135482788
1.3369234552383422,-0.880780740737915,0.05094091773033142,0.0,9000.0,2.6890434835706854e-06,-0.05038085383176803,-0.05038262279331684,-0.050380402088165285,18.0,1000.0,0.0,34.850519473572284,18000,9000.0,516.6800920963287
1.3320268664360047,-0.876174287557602,0.047412440538406375,0.0,9500.0,3.029884840259456e-06,-0.04678236171603203,-0.04677882102131844,-0.04678190425038338,19.0,1000.0,0.0,33.798662759435494,19000,9500.0,546.2670631408691
1.327106165409088,-0.8717447807788848,0.0439944322258234,0.0,10000.0,3.141437740850961e-06,-0.043442834302783014,-0.04344319649040699,-0.04344239385426044,20.0,1000.0,0.0,34.560442236127614,20000,10000.0,575.2018802165985
1.322161141395569,-0.8673658692836761,0.0409780694693327,0.0,10500.0,2.8414931195186454e-06,-0.04035226537287235,-0.04035311613976955,-0.04035334385931492,21.0,1000.0,0.0,13.345222680989776,21000,10500.0,650.1350629329681
1.3171915378570556,-0.8627499990463257,0.037896719843149185,0.0,11000.0,1.4169606163392246e-06,-0.037485863476991656,-0.03748356355726719,-0.03748458142578602,22.0,1000.0,0.0,34.36542946786843,22000,11000.0,679.2340755462646
1.3121971201896667,-0.8580206763744355,0.03533889504522085,0.0,11500.0,2.543943894508516e-06,-0.03486713131517172,-0.03488055182248354,-0.03487297156453133,23.0,1000.0,0.0,34.45229264744847,23000,11500.0,708.2597215175629
1.3071776242256166,-0.8534833042621612,0.032724911414086816,0.0,12000.0,8.371624680307832e-07,-0.03241747944056988,-0.032405841417610645,-0.032411688685417175,24.0,1000.0,0.0,33.960819940678455,24000,12000.0,737.7054193019867
1.3021328134536743,-0.8487801141738892,0.030558476209640504,0.0,12500.0,1.3617414782487458e-06,-0.030134771652519703,-0.030135306105017662,-0.030135454706847666,25.0,1000.0,0.0,34.718257712794355,25000,12500.0,766.5087099075317
1.2970624189376831,-0.8443819842338562,0.028240357741713525,0.0,13000.0,1.135999613183003e-06,-0.02792787364125252,-0.027929053977131843,-0.027928555339574813,26.0,1000.0,0.0,34.438243792958524,26000,13000.0,795.5461971759796
1.2919661893844605,-0.8395073280334473,0.026329674690961837,0.0,13500.0,1.0031147967595188e-06,-0.025938232108950614,-0.025938283868134022,-0.025939299695193766,27.0,1000.0,0.0,34.486440185232865,27000,13500.0,824.5431025028229
1.2868438501358033,-0.8348546195030212,0.024395913355052472,0.0,14000.0,7.763942447098771e-07,-0.024088167048990725,-0.02408582019805908,-0.024085002355277538,28.0,1000.0,0.0,34.28835251535233,28000,14000.0,853.7075262069702
1.281695140838623,-0.830220294713974,0.022593149684369564,0.0,14500.0,7.105589207014873e-07,-0.02228559347987175,-0.022284840643405916,-0.022286202453076838,29.0,1000.0,0.0,35.01193428928241,29000,14500.0,882.2692174911499
1.2765197858810424,-0.8254242539405823,0.020924809910356997,0.0,15000.0,7.036587544746453e-07,-0.02065305759012699,-0.02065377873927355,-0.020653918273746966,30.0,1000.0,0.0,34.10555956194104,30000,15000.0,911.5899515151978
1.271317497730255,-0.8206940577030182,0.019396341428160668,0.0,15500.0,5.345182222669109e-07,-0.019156612031161785,-0.019157326214015485,-0.01915647081285715,31.0,1000.0,0.0,13.318982730329347,31000,15500.0,986.6707620620728
1.266088010787964,-0.8160595948696137,0.018037775196135045,0.0,16000.0,6.968537947926734e-07,-0.017783427238464357,-0.01778415472432971,-0.017783157490193845,32.0,1000.0,0.0,37.61259712946471,32000,16000.0,1013.2576005458832
1.260831030845642,-0.8111116628646851,0.016676819451153277,0.0,16500.0,3.988854741834302e-07,-0.016476640176028012,-0.016476643241941927,-0.016476578176021574,33.0,1000.0,0.0,40.327012793437675,33000,16500.0,1038.054875612259
1.2555462789535523,-0.8062715175151824,0.01552007632702589,0.0,17000.0,4.183307755596388e-07,-0.015311320286244153,-0.015311066322028636,-0.01531172327697277,34.0,1000.0,0.0,48.736461695354,34000,17000.0,1058.5733947753906
1.250233431339264,-0.8014274046421052,0.014500752866268158,0.0,17500.0,5.021895745400684e-07,-0.014252125214785338,-0.014252070650458335,-0.01425187336653471,35.0,1000.0,0.0,48.57007341273382,35000,17500.0,1079.1622054576874
1.2448922271728515,-0.7966594703197479,0.013398037653416395,0.0,18000.0,3.3377803953982267e-07,-0.013286783777177335,-0.013286916289478541,-0.013286461599171162,36.0,1000.0,0.0,48.43513707807424,36000,18000.0,1099.8083746433258
1.2395223212242126,-0.7918096034526825,0.012626066822558641,0.0,18500.0,4.4211571517394077e-07,-0.012428559754043817,-0.012428715776652098,-0.012428141571581364,37.0,1000.0,0.0,48.535135491042425,37000,18500.0,1120.4120066165924
1.2341234402656556,-0.7869430177211761,0.011923789475113154,0.0,19000.0,1.2804998660911338e-06,-0.01162509330175817,-0.011600108841434122,-0.011618944767862559,38.0,1000.0,0.0,48.6944404081529,38000,19000.0,1140.9482324123383
1.2286952390670776,-0.7817988586425781,0.01382971459114924,0.0,19500.0,7.89941635358531e-05,-0.012773911540862173,-0.012732487092725932,-0.01273724627867341,39.0,1000.0,0.0,47.93562161754928,39000,19500.0,1161.8095467090607
1.2232374181747436,-0.7770579931735992,0.01210917528346181,0.0,20000.0,2.180541388696611e-08,-0.012094400204718112,-0.012094579625874758,-0.01209394621104002,40.0,1000.0,0.0,47.68239216659407,40000,20000.0,1182.7816495895386
1.2177496480941772,-0.7719779195785522,0.011269511517137289,0.0,20500.0,6.864810368156782e-09,-0.0112534239590168,-0.011253648895770312,-0.011253088876605035,41.0,1000.0,0.0,20.481624728883524,41000,20500.0,1231.6059024333954
1.212231595993042,-0.7670383636951447,0.010495913214981556,0.0,21000.0,5.34066270141409e-09,-0.010481590952724218,-0.010481613785028458,-0.01048125097900629,42.0,1000.0,0.0,48.84358102353168,42000,21000.0,1252.079422235489
1.2066829209327699,-0.762082061290741,0.009776743590831756,0.0,21500.0,4.566069348399537e-09,-0.00976321991160512,-0.009763278231024743,-0.009762932918965817,43.0,1000.0,0.0,49.008078397333726,43000,21500.0,1272.484222650528
1.2011032924652099,-0.7569823625087738,0.009107802607119084,0.0,22000.0,4.150587955109586e-09,-0.009094976980239153,-0.00909502012655139,-0.009094765976071357,44.0,1000.0,0.0,49.086370946813204,44000,22000.0,1292.8564772605896
1.195492350101471,-0.7520863037109375,0.00848700861632824,0.0,22500.0,3.8098021502008805e-09,-0.00847396394237876,-0.008474039301276206,-0.00847380493581295,45.0,1000.0,0.0,48.70678969074394,45000,22500.0,1313.3874967098236
1.1898497490882873,-0.7468742561340332,0.007910459810867906,0.0,23000.0,3.645552969722132e-09,-0.007896581759676337,-0.007896602736786008,-0.007896428344771266,46.0,1000.0,0.0,48.59335953948327,46000,23000.0,1333.9664416313171
1.1841751313209534,-0.741681625366211,0.007374044070020318,0.0,23500.0,3.3672632850922925e-09,-0.0073606725949794055,-0.0073606935534626244,-0.0073605060894042255,47.0,1000.0,0.0,48.555336847277886,47000,23500.0,1354.5615010261536
1.1784681248664857,-0.7366457407474518,0.006875975279137492,0.0,24000.0,3.2465141446280656e-09,-0.006862676141783595,-0.006862721424549818,-0.006862639583647251,48.0,1000.0,0.0,48.553547747037314,48000,24000.0,1375.1573193073273
1.1727283692359924,-0.7314515912532806,0.006413141936063766,0.0,24500.0,3.338104277439413e-09,-0.006400035623461008,-0.006400108570232987,-0.00639997099712491,49.0,1000.0,0.0,48.849199649201054,49000,24500.0,1395.6284847259521
1.166955466747284,-0.726297394990921,0.005983731498941779,0.0,25000.0,3.2738527524500683e-09,-0.005969261592254043,-0.005969223184511065,-0.005969127845019102,50.0,1000.0,0.0,48.654088690578234,50000,25000.0,1416.1817429065704
1.1611490559577942,-0.721157883644104,0.005588484205305577,0.0,25500.0,4.7347667679886744e-09,-0.0055692567247897385,-0.0055694821830838915,-0.005569384487345815,51.0,1000.0,0.0,20.447506535890565,51000,25500.0,1465.0874626636505
1.1553087220191955,-0.7157790849208832,0.0052769352700561285,0.0,26000.0,7.640293725152958e-08,-0.00519692444615066,-0.005196850977838039,-0.0051967600528150795,52.0,1000.0,0.0,48.59232311307175,52000,26000.0,1485.666846036911
1.1494340810775756,-0.7106540107727051,0.004994258025661111,0.0,26500.0,1.6763194447921848e-07,-0.004848983014933765,-0.004849411074072122,-0.0048492080066353084,53.0,1000.0,0.0,48.90981008370225,53000,26500.0,1506.1126432418823
1.1435247292518615,-0.7053191771507263,0.004651404337957501,0.0,27000.0,1.014783492978566e-07,-0.004523884770460427,-0.004522656934335828,-0.004522929279133677,54.0,1000.0,0.0,48.63929715859361,54000,27000.0,1526.6721522808075
1.1375802583694459,-0.7000693247318268,0.0043834942113608125,0.0,27500.0,2.684459381168125e-07,-0.004210972150787711,-0.004212574514560401,-0.004212162172421813,55.0,1000.0,41.0,48.6355380812201,55000,27500.0,1547.233249425888
1.1316002197265624,-0.6941264939308166,-0.006593026375310728,0.003126813981682062,28000.0,0.035469996894676725,0.0054926940255390945,0.005478153321513674,0.005733614063356072,56.0,1000.0,0.0,48.82875649307579,56000,28000.0,1567.7129855155945
1.125584209918976,-0.6893402781486512,-0.031227552574127914,0.004054815523326397,28500.0,0.04642072766092497,0.02892096019908786,0.028896241258829832,0.028958508029580117,57.0,1000.0,0.0,48.61149204802491,57000,28500.0,1588.284253835678
1.11953178691864,-0.6576637620925904,-0.03247920458763838,0.004394982680678367,29000.0,0.029807314959073666,0.033108115259557966,0.03309464497119188,0.034202387295663356,58.0,1000.0,0.0,48.95307992461819,58000,29000.0,1608.7119789123535
1.1134425239562988,-0.6461712076663971,-0.03697854648437351,0.0045187373384833335,29500.0,0.06536077529104842,0.036632716668071226,0.036606081198900936,0.03719286675006151,59.0,1000.0,78.0,48.56340208172996,59000,29500.0,1629.3036181926727
1.1073159427642822,-0.6401880276203156,-0.0732879019184038,0.010827399969100952,30000.0,0.37422143114854045,0.06744891844689846,0.06732744063436985,0.0688509177416563,60.0,1000.0,0.0,46.61808733826925,60000,30000.0,1650.7545206546783
1.1011515951156616,-0.6345491693019867,-0.10266161350905895,0.012009903145954013,30500.0,0.140251528790046,0.09231060952693224,0.09224860958755016,0.09339783734083176,61.0,1000.0,0.0,20.486666669434495,61000,30500.0,1699.5667567253113
1.094949013710022,-0.6284315907955169,-0.13860963517427444,0.011446796918287873,31000.0,0.1808048873064108,0.12685401125252246,0.12683559910953046,0.12712579318881034,62.0,1000.0,0.0,48.629013950669126,62000,31000.0,1720.1306128501892
1.0887077226638795,-0.622902135848999,-0.1389477457785979,0.010447823464870453,31500.0,0.19525776036642492,0.1278898282260634,0.12793745012953878,0.12897196170687675,63.0,1000.0,0.0,48.805238021276985,63000,31500.0,1740.6202178001404
1.082427224636078,-0.6169091172218323,-0.1449765506274998,0.011105060897767544,32000.0,0.21086363272368908,0.13631472616642715,0.13632904524356126,0.13646435814350844,64.0,1000.0,0.0,49.051854507541044,64000,32000.0,1761.006807565689
1.0761070365905763,-0.6109522669315338,-0.15038729555159808,0.011291159430518746,32500.0,0.24871081342175602,0.14582072250545025,0.1457909153588116,0.14683661805093287,65.0,1000.0,0.0,49.01548650900359,65000,32500.0,1781.4085235595703
1.069746648311615,-0.6049742655754089,-0.20063115014135838,0.009901114124804735,33000.0,0.22678058768250048,0.19852985230833292,0.19850927200168372,0.19936135964095592,66.0,1000.0,75.0,48.4492467046273,66000,33000.0,1802.048680305481
1.0633455486297607,-0.5986691284179687,-0.3223954237550497,0.016707273568958046,33500.0,0.22866870808042586,0.31827530458569525,0.3182181874215603,0.31806311923265457,67.0,1000.0,0.0,48.613861830247856,67000,33500.0,1822.6189467906952
1.0569032144546509,-0.5927883791923523,-0.4103641014099121,0.015787431363016368,34000.0,0.1281927243769169,0.4143023324012756,0.4142242447137833,0.41544070303440095,68.0,1000.0,78.0,48.66048462654764,68000,34000.0,1843.1695034503937
1.0504190993309022,-0.5868207621574402,-0.42867705288529395,0.021779479868710042,34500.0,0.14060774688795208,0.42869323322176933,0.4286039153933525,0.4287374064922333,69.0,1000.0,0.0,48.72601736128311,69000,34500.0,1863.6924209594727
1.0438926706314087,-0.5806056213378906,-0.3995891036391258,0.02246867684274912,35000.0,0.1269478653073311,0.3990671293437481,0.399080906867981,0.3996433802545071,70.0,1000.0,0.0,48.62878786482237,70000,35000.0,1884.2563726902008
1.0373233637809753,-0.57470778632164,-0.3824618488699198,0.02250079084560275,35500.0,0.14867537553422153,0.3809575554728508,0.38104193469882014,0.38132054908573626,71.0,1000.0,0.0,20.448220988432215,71000,35500.0,1933.1603841781616
1.030710624217987,-0.5682508647441864,-0.4007355695962906,0.022265254924073816,36000.0,0.271741505975835,0.39902858903259036,0.3991943390145898,0.3981242482662201,72.0,1000.0,0.0,47.455035907021255,72000,36000.0,1954.2329652309418
1.0240538544654847,-0.5619151501655578,-0.37224712437205015,0.02148448147252202,36500.0,0.20879895469732582,0.36941567438840867,0.3693686909759417,0.3706262852102518,73.0,1000.0,0.0,48.651750538030335,73000,36500.0,1974.7872111797333
1.0173524866104127,-0.5556454298496246,-0.39347250082716345,0.02279921117424965,37000.0,0.182854740944691,0.3932868697289377,0.3932849566508084,0.3940527624981478,74.0,1000.0,0.0,48.55908859645485,74000,37000.0,1995.3806793689728
1.0106058931350708,-0.5495609905719757,-0.40267464532190933,0.020794906357303262,37500.0,0.5276470917724073,0.4020397343980148,0.4021459654979408,0.4020473594563082,75.0,1000.0,0.0,48.56285610686509,75000,37500.0,2015.9725501537323
1.0038134808540344,-0.5432049131393433,-0.4270839259028435,0.020859417421743274,38000.0,0.2671104466095567,0.42653478847350923,0.4266374287083745,0.4277014374928549,76.0,1000.0,0.0,48.69093224861111,76000,38000.0,2036.5102562904358
0.9969746193885803,-0.536672902584076,-0.43406844163499775,0.021669032990932466,38500.0,0.3316908330852166,0.43390213969536123,0.4339038936281577,0.434111356375739,77.0,1000.0,0.0,48.70580780699369,77000,38500.0,2057.041689634323
0.9900886633396149,-0.5303219108581543,-0.4471236402783543,0.021937292395159604,39000.0,0.3664179301476106,0.4446990002728999,0.44479703639633955,0.4459305879361927,78.0,1000.0,0.0,48.92065688892072,78000,39000.0,2077.482953310013
0.9831549551486969,-0.5236426334381103,-0.45430315942689775,0.021469168931245803,39500.0,0.26827633852418514,0.4522760575581342,0.45221710569038986,0.4530260480158031,79.0,1000.0,0.0,48.69124765703415,79000,39500.0,2098.020525932312
0.9761728432178497,-0.5172599687576294,-0.4766131821870804,0.02033502048999071,40000.0,0.6340011125896126,0.47680495414324103,0.4768625360000879,0.4763897928688675,80.0,1000.0,0.0,48.658948003433956,80000,40000.0,2118.5717313289642
0.9691416306495666,-0.5106849176883698,-0.4644975338745862,0.020732858009636403,40500.0,0.2157746811392717,0.4643636354161426,0.4643299855813384,0.46493164035864176,81.0,1000.0,0.0,20.431209911588763,81000,40500.0,2167.516459941864
0.9620606324672699,-0.5042309664487838,-0.4709115943517536,0.019918129941448568,41000.0,0.5357976287128404,0.46999212834984067,0.4701227710060775,0.46999978253245356,82.0,1000.0,75.0,48.82258278189096,82000,41000.0,2187.998785972595
0.9549291403293609,-0.497637494802475,-0.5871529817022383,0.02519158147275448,41500.0,0.3032599431257695,0.5878453061599285,0.5878660086672753,0.5878623588643969,83.0,1000.0,0.0,48.69904711905522,83000,41500.0,2208.5330698490143
0.9477464172840119,-0.49125848615169526,-0.6172422207035124,0.024537215936928987,42000.0,0.3406419250974432,0.6143785615190863,0.6144343389663846,0.614672250393778,84.0,1000.0,0.0,48.78697490092071,84000,42000.0,2229.0303449630737
0.940511738538742,-0.4840844274759293,-0.6074634831286967,0.02530834566615522,42500.0,0.261942902040435,0.6059360382836312,0.6059601180348545,0.6060557152796536,85.0,1000.0,0.0,48.85894386384938,85000,42500.0,2249.4974274635315
0.9332243242263794,-0.47758793652057646,-0.6222398458905518,0.023732520569115876,43000.0,0.3521527134864591,0.6217129369340837,0.621695881806314,0.6225314254052937,86.0,1000.0,0.0,48.990716056163635,86000,43000.0,2269.9094591140747
0.925883425951004,-0.47076688849925996,-1.7055830452889205,0.023064973732456563,43500.0,0.5906614924236201,1.7031924348473548,1.7031069996356965,1.7052872266471386,87.0,1000.0,0.0,48.75006806673672,87000,43500.0,2290.4222536087036
0.9184882264137268,-0.46412855517864227,-1.517621506690979,0.024038643904030325,44000.0,0.2261237786896527,1.5214620020389558,1.5212669219970703,1.521680475473404,88.0,1000.0,0.0,49.00638804663561,88000,44000.0,2310.8277575969696
0.9110379457473755,-0.45713583767414095,-1.3512405047416687,0.023200487606227397,44500.0,0.1981843228614889,1.3529791853427886,1.3529501824378967,1.3536983091831207,89.0,1000.0,0.0,48.69678379662186,89000,44500.0,2331.3629953861237
0.9035317225456237,-0.4501794550418854,-1.2556491045951843,0.021147145602852108,45000.0,0.2378597973897122,1.2551959688663483,1.255262093782425,1.2549982178211212,90.0,1000.0,0.0,48.68600833730992,90000,45000.0,2351.9027791023254
0.8959687495231629,-0.44344963371753693,-1.200281145811081,0.021294350270181894,45500.0,0.321006790837273,1.1997316448688506,1.1997208070755006,1.2000316159725188,91.0,1000.0,0.0,20.253148322660124,91000,45500.0,2401.2778191566467
0.8883481252193451,-0.4368524694442749,-1.1567311227321624,0.022158926783129574,46000.0,0.227021552978782,1.1567719886302947,1.1566945843696594,1.156825891494751,92.0,1000.0,0.0,48.86015789517215,92000,46000.0,2421.7443935871124
0.8806689910888672,-0.4292786945104599,-1.111922165632248,0.019974729740992188,46500.0,0.1976723837640602,1.1109245327711106,1.1109479390382766,1.111278602361679,93.0,1000.0,0.0,48.825383550360634,93000,46500.0,2442.225545167923
0.8729304184913635,-0.42189636182785034,-1.069150161743164,0.019914722003042697,47000.0,0.21198658330575562,1.0689018918275832,1.0689155070781708,1.0690267810821532,94.0,1000.0,70.0,48.5653403635349,94000,47000.0,2462.8163623809814
0.8651315088272095,-0.41506872344017026,-1.1469539088010787,0.025715678315609693,47500.0,0.3227633452208247,1.147077214241028,1.1470695801973343,1.1474099885225295,95.0,1000.0,0.0,48.59112516956714,95000,47500.0,2483.3962535858154
0.8572712848186493,-0.4074899866580963,-1.1142241288423538,0.02530680499970913,48000.0,0.21247788206487894,1.1142215042114259,1.1142253515720368,1.114508883714676,96.0,1000.0,0.0,48.847898552434444,96000,48000.0,2503.867964029312
0.8493487944602967,-0.4001840525865555,-1.109144265651703,0.026709215681999923,48500.0,0.353466717479052,1.1090633850097655,1.1090144428014754,1.1090453847646713,97.0,1000.0,0.0,48.96088805858818,97000,48500.0,2524.2924313545227
0.8413630321025848,-0.392898090004921,-1.078417299747467,0.025840533187612893,49000.0,0.38400782824470664,1.0787707860469817,1.0788038861751557,1.0794523994922638,98.0,1000.0,66.0,48.44307682300296,98000,49000.0,2544.935216665268
0.8333129856586456,-0.3857607673406601,-1.1497222326993943,0.027423133159056305,49500.0,0.31988341349875554,1.1500785720348359,1.150124813079834,1.149996710062027,99.0,1000.0,0.0,48.07497024444947,99000,49500.0,2565.736062526703
0.8251976103782653,-0.37845306515693666,-1.124555148601532,0.02912895053625107,50000.0,0.30108597785234453,1.1245660504102708,1.124597697377205,1.1247811627388,100.0,1000.0,0.0,48.81053995707893,100000,50000.0,2586.223441839218
0.8170158312320709,-0.37120515036582946,-1.068890567958355,0.0276626315806061,50500.0,0.30768587270821446,1.0693100623488425,1.0693295670747758,1.069078773677349,101.0,1000.0,0.0,20.477661966944467,101000,50500.0,2635.0571432113647
0.8087665660381317,-0.36320209097862244,-1.100319003045559,0.027681225160136817,51000.0,0.6412299303882756,1.1000006831884384,1.0998807547092437,1.1008554711341858,102.0,1000.0,66.0,48.558077242290054,102000,51000.0,2655.651040315628
0.800448674917221,-0.3554088876247406,-1.1732437158823013,0.033299889467656614,51500.0,0.4380338441594504,1.1721466330885888,1.1721191514134408,1.1722618897557258,103.0,1000.0,0.0,48.75058539467654,103000,51500.0,2676.1636157035828
0.792061023235321,-0.34791067624092104,-1.121620952308178,0.031820122294127944,52000.0,0.3634424703104887,1.1231990420222282,1.123174649119377,1.1229193862080573,104.0,1000.0,0.0,48.669647104839896,104000,52000.0,2696.7103033065796
0.7836024119853974,-0.3401740254163742,-1.0868455970287323,0.03129853329434991,52500.0,0.2768127532256767,1.0877065292000772,1.087740729212761,1.0884356465935707,105.0,1000.0,0.0,48.8217041979304,105000,52500.0,2717.1929976940155
0.7750716590881348,-0.33210630977153777,-1.0541516211628914,0.029124841058626772,53000.0,0.14271909096743912,1.0553670021295547,1.0553247839212418,1.0553634297251702,106.0,1000.0,0.0,49.21260147398072,106000,53000.0,2737.5129973888397
0.7664674823284149,-0.32537231040000913,-1.0480751953721046,0.031087250424548983,53500.0,0.2718824708815664,1.048016487956047,1.0480628986358642,1.0482506392896176,107.0,1000.0,0.0,49.072275953678755,107000,53500.0,2757.8911035060883
0.7577886545658111,-0.31676822412014005,-1.0560309386849402,0.0300535301361233,54000.0,0.395984908413142,1.057092857092619,1.0570799727141857,1.0570305774509907,108.0,1000.0,0.0,48.9226528964707,108000,54000.0,2778.3315331935883
0.7490338208675384,-0.30877308988571167,-1.015146129578352,0.029440385030582546,54500.0,0.34529332613525915,1.015628868997097,1.0157146308124065,1.0155659210383892,109.0,1000.0,0.0,48.72928827145019,109000,54500.0,2798.8530733585358
0.7402016830444336,-0.30109728956222537,-1.007636078581214,0.028556770680472254,55000.0,0.25933067113393915,1.007361340880394,1.0073098161518574,1.0076178632974624,110.0,1000.0,0.0,48.757953268086965,110000,55000.0,2819.362548828125
0.7312908236980438,-0.29341468620300293,-0.9503563611358404,0.02969711583480239,55500.0,0.2684110034938203,0.9519188412278891,0.9519908867925405,0.9516106682121753,111.0,1000.0,0.0,20.49685856608829,111000,55500.0,2868.1505143642426
0.722299863576889,-0.28556524074077605,-0.9520898244380951,0.0315207708645612,56000.0,0.31203466482041403,0.9514562125429511,0.9515035949349403,0.9517069064080715,112.0,1000.0,0.0,48.576287502600046,112000,56000.0,2888.736691236496
0.7132273199558258,-0.27664764857292173,-0.9440542583167553,0.03153166912309825,56500.0,0.2373679106957279,0.94433235604316,0.9443178429454565,0.944057650834322,113.0,1000.0,0.0,48.73025808051251,113000,56500.0,2909.257823228836
0.7040717117786407,-0.2680423721075058,-0.9527930652201175,0.030141917452216147,57000.0,0.2976068158193957,0.9524105273485184,0.9524232538272627,0.9530738068372011,114.0,1000.0,0.0,48.7357906367368,114000,57000.0,2929.7766256332397
0.6948315076828003,-0.2602711951136589,-0.8916506647393108,0.02854407852701843,57500.0,0.2425490449233912,0.8910516306571662,0.891022902995348,0.8914444597065448,115.0,1000.0,0.0,48.4970636370062,115000,57500.0,2950.396431684494
0.6855051198005676,-0.25226675391197206,-0.885138315149583,0.024850862706080078,58000.0,0.1748432132611051,0.8861754679754377,0.8861781873460859,0.8860605093203485,116.0,1000.0,0.0,48.533019911895465,116000,58000.0,2971.0009620189667
0.676090931892395,-0.24359387761354445,-0.8773488305320497,0.029469598732888697,58500.0,0.3363776764862705,0.8785059276605025,0.878445362391416,0.8784845845862291,117.0,1000.0,0.0,48.8858699072751,117000,58500.0,2991.4567708969116
0.6665872747898102,-0.23475785344839095,-0.8590572060025297,0.026115555034950375,59000.0,0.3670567283662967,0.8608413493735716,0.8609169945064932,0.8609527389567811,118.0,1000.0,0.0,48.62442949848174,118000,59000.0,3012.0225660800934
0.6569924280643463,-0.22629592162370682,-0.8235522189551265,0.028545462680980564,59500.0,0.2331832234764006,0.8253772414721315,0.8252471486332361,0.8251196365114302,119.0,1000.0,0.0,48.67230496501018,119000,59500.0,3032.568132162094
0.647304628610611,-0.2173728910088539,-0.779899925544858,0.02611289560049772,60000.0,0.2128537443773821,0.7801967294593342,0.7802284243889153,0.780360395224765,120.0,1000.0,0.0,48.61197995861976,120000,60000.0,3053.1391940116882
0.637522055387497,-0.20936930060386658,-0.8026015055608005,0.02741986140049994,60500.0,0.1836967349544866,0.802460093059577,0.8024142800350673,0.8027443507406861,121.0,1000.0,0.0,20.441347687220375,121000,60500.0,3102.0596482753754
0.6276428372859955,-0.20051821339130402,-0.7890919927661307,0.025742092452943326,61000.0,0.2844877323798137,0.7893262050272897,0.7893735316847451,0.7895860164146871,122.0,1000.0,0.0,48.481493184642254,122000,61000.0,3122.6860768795013
0.6176650445461274,-0.1912920289039612,-0.8049228772372007,0.027647478586062788,61500.0,0.201150698794052,0.8064265938606113,0.8064344359021633,0.806307428073138,123.0,1000.0,0.0,48.590614597877334,123000,61500.0,3143.266183614731
0.6075866878032684,-0.18251277393102647,-0.7837377532422543,0.026449348792433738,62000.0,0.5734435768043622,0.7862284745527431,0.7861444137841463,0.7861689662840218,124.0,1000.0,0.0,48.616084204002185,124000,62000.0,3163.835508584976
0.5974057233333587,-0.17389217895269393,-0.7361483650337904,0.024488651810213924,62500.0,0.2765373573898105,0.7371360698053613,0.7370581893641501,0.7374688679352402,125.0,1000.0,0.0,48.66552308269126,125000,62500.0,3184.383937358856
0.5871200394630433,-0.16370482754707336,-0.7681707838736475,0.027422278534621,63000.0,0.3804204879468307,0.7673408283637837,0.7674011571016163,0.7675891582742334,126.0,1000.0,62.0,48.622585137377946,126000,63000.0,3204.950512647629
0.5767274580001831,-0.15522332686185836,-0.8119654441922903,0.02771028626896441,63500.0,0.2554364920007065,0.812143108908087,0.8121689503155649,0.8114211773462594,127.0,1000.0,64.0,48.365664043628804,127000,63500.0,3225.6263387203217
0.5662257347106934,-0.14621430253982545,-0.9210450392179191,0.03041960041038692,64000.0,0.26378004959144163,0.9220488467216492,0.9221108289547264,0.9223534173965454,128.0,1000.0,0.0,48.753964445127515,128000,64000.0,3246.137492418289
0.5556125552654266,-0.13693080511689187,-0.91843086425215,0.03242438480816782,64500.0,0.1786812495252816,0.9192877899631858,0.9193463480956853,0.9194475809335708,129.0,1000.0,0.0,48.78233622168809,129000,64500.0,3266.6367168426514
0.5448855211734772,-0.12673409873247146,-0.8966570937111974,0.02956406456977129,65000.0,0.2050869019496022,0.8982564303167164,0.8983224995583295,0.8983110638186336,130.0,1000.0,0.0,48.63718940929023,130000,65000.0,3287.1971163749695
0.5340421712398529,-0.1167343248128891,-0.9089880070984363,0.029946573823690415,65500.0,0.22806758729019203,0.9110175204649568,0.9109465999752283,0.9114046967811883,131.0,1000.0,63.0,20.283212333365164,131000,65500.0,3336.498972415924
0.5230799524784088,-0.10783103838562966,-0.9873105433881283,0.031823244277387856,66000.0,0.29860861781786663,0.9894690011367202,0.9894171212166548,0.9894853273704648,132.0,1000.0,0.0,47.99779093419029,132000,66000.0,3357.3332657814026
0.5119962236881256,-0.09841207042336464,-1.0003425159156323,0.033008086374029515,66500.0,0.2388511784528382,1.002042649049312,1.002012701936066,1.001990684263408,133.0,1000.0,62.0,48.42357308041666,133000,66500.0,3377.984365940094
0.5007882716655732,-0.08862394297122955,-1.0578643713593483,0.034432327046990396,67000.0,0.24477533709816635,1.0597182672023773,1.0596967675685882,1.0602333543151616,134.0,1000.0,0.0,48.57799501040315,134000,67000.0,3398.5698189735413
0.4894532742500305,-0.07882743375003338,-1.08708922983706,0.037002669394016266,67500.0,0.2721981938253157,1.0879170296192169,1.0879398253560066,1.0882528409808874,135.0,1000.0,0.0,48.6030047597364,135000,67500.0,3419.144679546356
0.4779883143901825,-0.06916521714627742,-1.0578364727646112,0.035528269186615946,68000.0,0.34688595759496094,1.0588642295002937,1.0590178112387658,1.0587577842772007,136.0,1000.0,0.0,48.276929731541486,136000,68000.0,3439.8585076332092
0.4663903889656067,-0.058561314851045605,-1.038355411477387,0.03567199914716184,68500.0,0.23976909176679329,1.041391439124942,1.0413598001897335,1.0419014429599047,137.0,1000.0,0.0,48.78022286526659,137000,68500.0,3460.35861992836
0.4546563663482666,-0.04772961477190256,-1.0173613325804471,0.03278792413510382,69000.0,0.23838794329715893,1.0199240397140383,1.0198521537929772,1.0198004666864873,138.0,1000.0,0.0,48.774138556075,138000,69000.0,3480.86128950119
0.44278301763534544,-0.03918398243188858,-1.0229998858571052,0.03398981154151261,69500.0,0.1504092792896554,1.0255792495831848,1.0255576184689998,1.0256752087175847,139.0,1000.0,0.0,48.66500529991256,139000,69500.0,3501.4099373817444
0.43076699805259705,-0.027327838219702243,-0.9931926858276129,0.03507714898511767,70000.0,0.2523379501348827,0.9934442589282989,0.9934874380230904,0.99363867649436,140.0,1000.0,0.0,48.644036172395886,140000,70000.0,3521.967442750931
0.41860483145713806,-0.016332861008122562,-1.0136697287112475,0.03337329271249473,70500.0,0.3008982090728823,1.0152993804067374,1.0153706318289042,1.0149458055719733,141.0,1000.0,63.0,20.253936889936327,141000,70500.0,3571.3405611515045
0.4062929220199585,-0.006967076440341771,-1.074647987678647,0.03522538498044014,71000.0,0.38502856099419297,1.0762772979587316,1.0762671570777893,1.076999163635075,142.0,1000.0,0.0,48.758238937741694,142000,71000.0,3591.8499159812927
0.3938275361061096,0.003466792684048414,-1.0490145685374737,0.0368653024379164,71500.0,0.2770618519540876,1.049646868109703,1.0496570818424225,1.0493235150277616,143.0,1000.0,0.0,48.68982213390328,143000,71500.0,3612.388090133667
0.38120479822158815,0.015530720406211913,-1.0573405454456806,0.03565605996362865,72000.0,0.3071783493743278,1.0578577108383178,1.05788109216094,1.0579466067552568,144.0,1000.0,0.0,48.55333191727783,144000,72000.0,3632.9840004444122
0.36842068004608153,0.02639138445723802,-1.080970743238926,0.034694473925977944,72500.0,0.18877336772135458,1.0833560640811921,1.0833480772674084,1.0835691446661948,145.0,1000.0,0.0,48.67677416796399,145000,72500.0,3653.5276799201965
0.35547101640701295,0.03687875866517425,-1.0575445396527647,0.03736420184932649,73000.0,0.15766759624797852,1.0584401855021714,1.058420302644372,1.0589260127320885,146.0,1000.0,0.0,48.7342883252437,146000,73000.0,3674.047114610672
0.34235144662857053,0.04860496424138546,-1.0277823042869567,0.036025814771652225,73500.0,0.27199103170866146,1.0292396058440207,1.0292551864087582,1.0290198069810867,147.0,1000.0,0.0,48.68447123198884,147000,73500.0,3694.587546110153
0.3290574626922607,0.059611819624900815,-1.013743519231677,0.03517291129380465,74000.0,0.31260990115767345,1.0156205745786429,1.0156955084651709,1.0156651945412158,148.0,1000.0,0.0,48.87356178206938,148000,74000.0,3715.0485076904297
0.3155843667984009,0.0704286989569664,-1.0087126317620276,0.03371344415284693,74500.0,0.1612747901552357,1.0097791337668895,1.0097857914865016,1.0104275109767913,149.0,1000.0,63.0,48.37637738405649,149000,74500.0,3735.719754934311
0.30192725992202757,0.08299744802713394,-1.079905528768897,0.036620873901993034,75000.0,0.23495510687632487,1.0802588338255883,1.0803035657703877,1.0802863085269927,150.0,1000.0,0.0,47.956284783294294,150000,75000.0,3756.5720801353455
0.2880810465812683,0.09520500306785107,-1.0981511573940514,0.03668796772882342,75500.0,0.242027799598407,1.098835757791996,1.0988442811369896,1.0993360490724444,151.0,1000.0,0.0,20.45254575290295,151000,75500.0,3805.465749979019
0.27404042196273803,0.1061709089577198,-1.0551269282400608,0.037681458439677955,76000.0,0.25042376053892074,1.0567015483528375,1.056675844848156,1.0563419049084186,152.0,1000.0,0.0,48.88631604866538,152000,76000.0,3825.9213728904724
0.25979984378814697,0.11867487019300461,-1.0771150984913112,0.03716390049643815,76500.0,0.33631550991442055,1.0755701457709075,1.0755787595510482,1.0758554911017417,153.0,1000.0,61.0,48.70786550974864,153000,76500.0,3846.451938390732
0.2453535280227661,0.13148038589954375,-1.1695671549215914,0.04027029449865222,77000.0,0.3094233723555226,1.1706022913902998,1.1706526520177722,1.1707923348471523,154.0,1000.0,0.0,48.715511868086466,154000,77000.0,3866.9792823791504
0.23069545030593872,0.14151230335235596,-1.1143283426761628,0.03689452861249447,77500.0,0.12503423585556447,1.1166100768744947,1.1166044682115317,1.1168069518953563,155.0,1000.0,0.0,48.867823109670894,155000,77500.0,3887.442646741867
0.2158193120956421,0.1536952265202999,-1.1163679731115699,0.03710858198441565,78000.0,0.22225798450992443,1.1167528036534786,1.1166376613974571,1.1177314329147339,156.0,1000.0,0.0,48.03987575044266,156000,78000.0,3908.258688211441
0.20071852111816407,0.16809852623939514,-1.093767711699009,0.03656615217216313,78500.0,0.17262821910739876,1.097241124548018,1.0972395679354667,1.0969405983909966,157.0,1000.0,0.0,48.82732404389228,157000,78500.0,3928.739025115967
0.18538619136810303,0.18172925215959548,-1.0891749137043953,0.037204852059483526,79000.0,0.40576723543554544,1.0921451308950783,1.0922839569821954,1.091861952573061,158.0,1000.0,59.0,48.85620298171535,158000,79000.0,3949.2072558403015
0.1698151135444641,0.19364651864767074,-1.1897399585545063,0.039011652128770946,79500.0,0.2405620053075254,1.1920215765833855,1.1920337829589844,1.191802111595869,159.0,1000.0,0.0,48.081540565802136,159000,79500.0,3970.005259037018
0.15399773645401002,0.20727320057153703,-1.1247908578366042,0.037746572513133285,80000.0,0.12747482929099352,1.1265987841635943,1.1265596333518624,1.1266152496263384,160.0,1000.0,0.0,48.72828453424649,160000,80000.0,3990.527221918106
0.13792613077163696,0.22043392652273178,-1.1232851133570074,0.038591125776991246,80500.0,0.1983039089953527,1.1256652862653136,1.1257147459164263,1.1259189845845103,161.0,1000.0,0.0,20.494852363322046,161000,80500.0,4039.319962978363
0.12159200000762939,0.23484044253826142,-1.1231542405635118,0.039240581950172784,81000.0,0.17404829984344541,1.1253005504906177,1.1252275358960033,1.1255991011187434,162.0,1000.0,76.0,48.47416212202327,162000,81000.0,4059.949511051178
0.10498661756515502,0.24934890550374986,-1.1759212948605418,0.03996006476506591,81500.0,0.42205296974256634,1.1769764812141656,1.177021284531802,1.1772976786866785,163.0,1000.0,63.0,47.26345871707085,163000,81500.0,4081.1075065135956
0.08810083341598511,0.26338496059179306,-1.2497116015553476,0.04121146464347839,82000.0,0.4565604135019239,1.2521678069978952,1.2522901301532985,1.2523184576034545,164.0,1000.0,0.0,47.90953051731838,164000,82000.0,4101.980181217194
0.07092500734329224,0.27583112281560895,-1.2764284266456962,0.0421302943918854,82500.0,0.1997508680797182,1.2780473421141505,1.2779889422282578,1.2778863469138741,165.0,1000.0,0.0,48.705553292897186,165000,82500.0,4122.5117218494415
0.05344900369644165,0.2908213013410568,-1.2391909387633204,0.04243390093185007,83000.0,0.3261225070604123,1.241538170352578,1.2415826662182807,1.240820601284504,166.0,1000.0,0.0,48.706333811222336,166000,83000.0,4143.042933940887
0.03566213750839233,0.30679411661624906,-1.2531838129758834,0.04200581800378859,83500.0,0.3392801926652901,1.2560626461058855,1.2560819259732963,1.256602673560381,167.0,1000.0,0.0,48.77604775166218,167000,83500.0,4163.544800281525
0.01755315351486206,0.3211653300523758,-1.2173283612132073,0.04060683974064887,84000.0,0.2836418520039879,1.2237350485622882,1.2237685485631227,1.223347148105502,168.0,1000.0,77.0,48.710017290338286,168000,84000.0,4184.074459552765
-0.0008898401260375977,0.3386840409040451,-1.2933686515539884,0.044170132031664255,84500.0,0.18046821821574122,1.2967894757390022,1.2968239291459323,1.2972010419368745,169.0,1000.0,60.0,48.42063598885649,169000,84500.0,4204.726812124252
-0.019679380893707275,0.35350884413719175,-1.3422277574539185,0.04517282720282674,85000.0,0.15973540754662827,1.3454089038968087,1.3454475006461144,1.345347852885723,170.0,1000.0,58.0,48.43832150214341,170000,85000.0,4225.37162399292
-0.03882875490188599,0.36764381897449494,-1.4204942378997802,0.04796306004188955,85500.0,0.09116019103862345,1.4221354053616524,1.4220697293877602,1.4220871981978416,171.0,1000.0,0.0,20.486361175194595,171000,85500.0,4274.184588432312
-0.05835201168060303,0.3855801913738251,-1.422574304819107,0.047406809957697985,86000.0,0.17388399619422854,1.4252074036598206,1.4252241333723068,1.4254831931591034,172.0,1000.0,0.0,48.942218738404925,172000,86000.0,4294.616847038269
-0.07826403856277465,0.40130907356739043,-1.395793585717678,0.046742766248062256,86500.0,0.11834389768913388,1.399507159113884,1.3994718636870385,1.3993519185185432,173.0,1000.0,59.0,48.64377891856736,173000,86500.0,4315.174461603165
-0.09858063411712646,0.41942569267749785,-1.4216507098078728,0.04876473339088261,87000.0,0.15959272930165752,1.4244799055457116,1.4244642533659935,1.4247069527506828,174.0,1000.0,0.0,47.93150930628397,174000,87000.0,4336.037565231323
-0.11931859397888184,0.4362896765470505,-1.4478881219625472,0.04903539435938001,87500.0,0.16743465506192295,1.4509223046898843,1.4509112733006477,1.4509879987239838,175.0,1000.0,62.0,48.559774474835855,175000,87500.0,4356.630743265152
-0.14049574756622316,0.4519189337491989,-1.5026244345605373,0.05048071975260973,88000.0,0.16386009767220822,1.5053852752745152,1.5054391017258166,1.5054972308576107,176.0,1000.0,0.0,48.910569214908044,176000,88000.0,4377.0762231349945
-0.1621311116218567,0.4727582176923752,-1.546545299783349,0.050359261637553575,88500.0,0.13442781003192067,1.5493152933120728,1.5493022430539132,1.5491182373315096,177.0,1000.0,0.0,48.94922877583573,177000,88500.0,4397.505555391312
-0.184244957447052,0.49080867612361906,-1.481282605305314,0.05324732738733291,89000.0,0.1477070614770055,1.4844841779768467,1.484433672428131,1.4846867754533888,178.0,1000.0,0.0,49.2639588894458,178000,89000.0,4417.804372549057
-0.20685893058776855,0.5108061903715133,-1.5034364333152772,0.05112066987901926,89500.0,0.12951202767016365,1.5056023252606392,1.5055728819370269,1.5057073999643327,179.0,1000.0,0.0,48.829195339564336,179000,89500.0,4438.283924102783
-0.22999617195129393,0.5288893929719924,-1.4387915703058243,0.050822634983807805,90000.0,0.11105436389707028,1.440886244893074,1.4408771228194237,1.440949603199959,180.0,1000.0,0.0,48.84833262292539,180000,90000.0,4458.75545334816
-0.2536814737319946,0.5492241923809051,-1.491204453766346,0.05166967456415296,90500.0,0.11101845405669883,1.4932450270056725,1.4932455474436284,1.4931875940561294,181.0,1000.0,58.0,20.31768038472174,181000,90500.0,4507.973671197891
-0.27794143772125246,0.5714223763942718,-1.4903440472781657,0.048755605576559904,91000.0,0.11694310527155176,1.4919118222296237,1.4919192953407765,1.4921057416796684,182.0,1000.0,0.0,48.98711244121739,182000,91000.0,4528.387204408646
-0.3028046407699585,0.594228343963623,-1.5480079514980316,0.05117637584358454,91500.0,0.08938828357029706,1.5499951775074006,1.5499701752066612,1.5498473386764526,183.0,1000.0,0.0,48.82177580190793,183000,91500.0,4548.869868993759
-0.32830185508728027,0.6163774058818817,-1.5165492616295815,0.050507245980203154,92000.0,0.1568156754532829,1.5181163874864578,1.5181626749634742,1.5185993880033493,184.0,1000.0,0.0,48.85913282303509,184000,92000.0,4569.336872816086
-0.3544662637710571,0.6378020417690277,-1.5239258723855018,0.05217543505132198,92500.0,0.1317920301137492,1.5264227890968323,1.5263998610377312,1.5262943755984306,185.0,1000.0,0.0,48.80088033478933,185000,92500.0,4589.828307628632
-0.3813337230682373,0.6628833768367768,-1.4916704681813717,0.047277441514655946,93000.0,0.13089256024360657,1.4947814352512359,1.4947804168760777,1.494783832013607,186.0,1000.0,0.0,48.70689998545866,186000,93000.0,4610.359280586243
-0.408943067073822,0.6831733810901642,-1.4622126826047896,0.04940077404864132,93500.0,0.09890656504151411,1.465123755991459,1.465155162036419,1.4652801097035408,187.0,1000.0,0.0,48.948310211251034,187000,93500.0,4630.788995981216
-0.43733643674850464,0.7094010622501373,-1.461612608462572,0.048791795702651145,94000.0,0.14858102541882545,1.464489074021578,1.4644958181977272,1.4645856397747994,188.0,1000.0,62.0,48.80623527657283,188000,94000.0,4651.2781817913055
-0.4665596652030945,0.737162350654602,-1.5149741695523262,0.050883461628109215,94500.0,0.13326542056072505,1.5193020049333572,1.5192895122766494,1.5193441754579544,189.0,1000.0,58.0,48.51770080615444,189000,94500.0,4671.88921713829
-0.49666273880004885,0.7682219610214234,-1.5782201125621795,0.053348799172788855,95000.0,0.10656762728746981,1.5809876462221146,1.581005320072174,1.581132901906967,190.0,1000.0,0.0,48.70259886169352,190000,95000.0,4692.422003030777
-0.5277002768516541,0.7923393769264221,-1.5870767986774446,0.05126438666507602,95500.0,0.17267374777328223,1.5887464689016342,1.588727205991745,1.5887375198602676,191.0,1000.0,0.0,20.442905808388748,191000,95500.0,4741.338729143143
-0.5597321696281433,0.8241665251255036,-1.553846552014351,0.053460322448983785,96000.0,0.13213933893758803,1.5561261899471284,1.556138383746147,1.556141851067543,192.0,1000.0,0.0,48.949900012429154,192000,96000.0,4761.767780780792
-0.592824254989624,0.8553059000968933,-1.5493843568563461,0.051523952251300215,96500.0,0.13387067589908838,1.5523126415014268,1.5523268353939057,1.5525655641555787,193.0,1000.0,0.0,48.85084275980082,193000,96500.0,4782.238257408142
-0.6270491247177123,0.8845605454444885,-1.5249472853541375,0.050997091079130766,97000.0,0.15076527435332537,1.5279666249752044,1.5279621052742005,1.5279918066859246,194.0,1000.0,0.0,48.85808332122357,194000,97000.0,4802.705700874329
-0.6624870986938477,0.9181601164340973,-1.5338111646175385,0.052616439735516905,97500.0,0.1530920956544578,1.5365444068908691,1.5366038444042205,1.5365126363039017,195.0,1000.0,0.0,48.854541869978576,195000,97500.0,4823.1746282577515
-0.6992273607254028,0.953797569513321,-1.5075732015371324,0.049679757094010714,98000.0,0.09498383731395006,1.5112547479867935,1.511284086227417,1.5113964170217513,196.0,1000.0,0.0,48.63925823943703,196000,98000.0,4843.73415350914
-0.7373692989349365,0.9927884066104888,-1.5007709082365035,0.051816954029724,98500.0,0.14596032575983553,1.5042094132900239,1.5041856154203415,1.5043041450977326,197.0,1000.0,0.0,48.5054730133733,197000,98500.0,4864.350384712219
-0.7770241174697876,1.0327726323604585,-1.502077233850956,0.05181092133745551,99000.0,0.10137812050059437,1.5055413437485694,1.5055106389522552,1.5055343321561814,198.0,1000.0,0.0,48.7406509912414,198000,99000.0,4884.867141723633
-0.8183168439865113,1.069567185640335,-1.5076598972082138,0.04911010862141848,99500.0,0.11491705363430083,1.5120385571718216,1.512006272315979,1.5120268565416337,199.0,1000.0,55.0,48.51116448520269,199000,99500.0,4905.48095369339
-0.8613886556625366,1.1183205676078796,-1.5188789554834365,0.05022493500262499,100000.0,0.1373063905769959,1.520124619960785,1.5201708279252053,1.5205688769221306,200.0,1000.0,0.0,48.56196772910212,200000,100000.0,4926.073200941086
-0.8836466073989868,1.0974988300800324,-1.5679449834227561,0.051720939710736276,100500.0,0.16910719668027013,1.5652252002954483,1.5651903972625731,1.5653798149824143,201.0,1000.0,0.0,20.427220968338474,201000,100500.0,4975.027487039566
-0.8836466073989868,1.085168425321579,-1.6475416597723962,0.04965723367035389,101000.0,0.15982542659714818,1.6164111603498459,1.6163613305091857,1.616328113079071,202.0,1000.0,0.0,48.74950598792669,202000,101000.0,4995.540516614914
-0.8836466073989868,1.1011632814407348,-1.722371298313141,0.05181708199344576,101500.0,0.11336941504850984,1.6981580018997193,1.6982366313934327,1.6983445745706558,203.0,1000.0,0.0,48.498989336511265,203000,101500.0,5016.159503698349
-0.8836466073989868,1.0979601321220398,-1.7630458174943924,0.050334527559578415,102000.0,0.14548406904935837,1.7274604210853577,1.7274179010391235,1.727884735226631,204.0,1000.0,226.0,48.267429591221536,204000,102000.0,5036.87740945816
-0.8836466073989868,1.0987707266807556,-1.986322146296501,0.05566592236794531,102500.0,0.2514253120906651,1.9158738193511964,1.9158459632396698,1.9159014891386033,205.0,1000.0,52.0,48.30766968034077,205000,102500.0,5057.5780572891235
-0.8836466073989868,1.1076528220176696,-2.2861451518535616,0.057223594320937994,103000.0,0.2835560226105154,2.1782648417949675,2.178228028535843,2.179141111373901,206.0,1000.0,387.0,48.54093729135579,206000,103000.0,5078.179226160049
-0.8836466073989868,1.1163062963485717,-2.6509160797595976,0.07133073663711548,103500.0,0.7189295269399881,2.542820485115051,2.542514771461487,2.5437290771007537,207.0,1000.0,895.0,48.512145269950636,207000,103500.0,5098.792621850967
-0.8836466073989868,1.1197333841323853,-3.140803176164627,0.09351948194392025,104000.0,0.8315304491817951,2.993933463573456,2.9938425192832945,2.995173825263977,208.0,1000.0,911.0,48.84616803615463,208000,104000.0,5119.2650582790375
-0.8836466073989868,1.1186213684082031,-3.899588771343231,0.12074292845278978,104500.0,1.4697681162506342,3.7197611923217773,3.7196106910705566,3.7211293902397156,209.0,1000.0,0.0,48.537536590732834,209000,104500.0,5139.867670059204
-0.8836466073989868,1.124846306324005,-4.368028384208679,0.11780377838760614,105000.0,1.5626600966453552,4.132134318351746,4.132190165042878,4.134491393089294,210.0,1000.0,0.0,48.50222759303123,210000,105000.0,5160.485280990601
-0.8836466073989868,1.1194532361030578,-5.059550245285034,0.11915838954597711,105500.0,2.395034155368805,4.748361275672913,4.748291185379029,4.752296666145325,211.0,1000.0,815.0,20.40754236317461,211000,105500.0,5209.486772298813
-0.8836466073989868,1.1187635893821717,-5.91237361907959,0.13103646186180412,106000.0,2.7912210252285004,5.596696944236755,5.5968068466186525,5.598553394317627,212.0,1000.0,0.0,48.56674342296016,212000,106000.0,5230.0769946575165
-0.8836466073989868,1.1175071353912354,-6.814641247749329,0.14202478839457036,106500.0,4.217122166454792,6.485203310966492,6.485302296638489,6.490132238388061,213.0,1000.0,0.0,48.429847597327964,213000,106500.0,5250.725419282913
-0.8836466073989868,1.1236425957679748,-7.418617548942566,0.14517414462566375,107000.0,4.1185851205587385,7.064600797653198,7.064544838905334,7.067965934753418,214.0,1000.0,0.0,48.442938625801624,214000,107000.0,5271.368263959885
-0.8836466073989868,1.1193863162994384,-8.215606576919555,0.1427049654647708,107500.0,4.891729006052017,7.829315277099609,7.829413782119751,7.833228312492371,215.0,1000.0,0.0,48.382792597724716,215000,107500.0,5292.0367703437805
-0.8836466073989868,1.1200762729644775,-8.700696663856506,0.14352515418827533,108000.0,5.187559496164322,8.301552344322205,8.30123684501648,8.306026941299438,216.0,1000.0,1000.0,48.72947396453481,216000,108000.0,5312.558232545853
-0.8836466073989868,1.1226419620513917,-10.061725763320922,0.16497432040795684,108500.0,6.47395018529892,9.578929368972778,9.578827215194702,9.581278400421143,217.0,1000.0,0.0,48.87261017848303,217000,108500.0,5333.019591808319
-0.8836466073989868,1.1194712824821471,-10.546443675994873,0.16545572304725648,109000.0,6.025721143484116,10.15768104171753,10.157616292953492,10.164262475967407,218.0,1000.0,259.0,48.69223291073806,218000,109000.0,5353.5567491054535
-0.8836466073989868,1.1212163920402527,-11.381212482452392,0.17049018213525413,109500.0,6.643346737861633,10.909392154693604,10.908702909469605,10.913082719802857,219.0,1000.0,664.0,48.80009791889765,219000,109500.0,5374.048512458801
-0.8836466073989868,1.121679697036743,-12.640590124130249,0.18961836215853692,110000.0,8.708871496200562,12.141415895462035,12.141055070877075,12.146086317062379,220.0,1000.0,0.0,48.517703051072694,220000,110000.0,5394.659547328949
-0.8836466073989868,1.11487934923172,-13.2359267578125,0.18313157904706895,110500.0,8.974007012844085,12.725373525619506,12.724827680587769,12.727852025985717,221.0,1000.0,626.0,20.38432961270627,221000,110500.0,5443.716840028763
-0.8836466073989868,1.1174057807922364,-14.281961326599122,0.20167677026987077,111000.0,9.010373643398285,13.791340520858764,13.791054939270019,13.798968215942383,222.0,1000.0,665.0,48.52794933817893,222000,111000.0,5464.32352232933
-0.8836466073989868,1.1173910593986511,-15.48815130996704,0.22181182821840048,111500.0,11.97724177312851,14.983243621826173,14.983070774078369,14.988705081939697,223.0,1000.0,613.0,48.64702356248577,223000,111500.0,5484.879766464233
-0.8836466073989868,1.1134773874282837,-16.431092775344847,0.2339286959171295,112000.0,11.485786732196807,15.92543496322632,15.924614978790283,15.930118204116821,224.0,1000.0,670.0,48.61131401380339,224000,112000.0,5505.451109886169
-0.8836466073989868,1.1163242831230165,-17.72830541229248,0.2564236665666103,112500.0,9.576786361932754,17.191285774230955,17.191065967559815,17.19608650970459,225.0,1000.0,880.0,48.71239272842888,225000,112500.0,5525.979768037796
-0.8836466073989868,1.1159087882041931,-18.871066745758057,0.2765517602562904,113000.0,9.882218406200408,18.317550575256348,18.316913341522216,18.322010890960694,226.0,1000.0,528.0,48.492370595307996,226000,113000.0,5546.601569652557
-0.8836466073989868,1.115488320350647,-19.94061407852173,0.2876611696779728,113500.0,10.141871737480164,19.34652406692505,19.346041202545166,19.353335147857667,227.0,1000.0,924.0,48.514721982673564,227000,113500.0,5567.21387052536
-0.8836466073989868,1.1146510915756225,-20.98695972442627,0.30483029049634935,114000.0,11.527727462291718,20.422574913024903,20.422207736968993,20.42582918548584,228.0,1000.0,481.0,48.4278328875463,228000,114000.0,5587.863154172897
-0.8836466073989868,1.1176368527412415,-22.3110523147583,0.31576759573817254,114500.0,13.001867176532745,21.684044567108153,21.683826335906982,21.68548189163208,229.0,1000.0,578.0,48.42317895055435,229000,114500.0,5608.514422178268
-0.8836466073989868,1.1145524220466614,-23.068240341186524,0.33131352084875104,115000.0,11.131136005878448,22.47263170623779,22.472124557495118,22.479185150146485,230.0,1000.0,354.0,48.75329630459131,230000,115000.0,5629.025857210159
-0.8836466073989868,1.118609854698181,-24.164340557098388,0.3404094267785549,115500.0,13.786487191677093,23.521577278137208,23.521531970977783,23.529029502868653,231.0,1000.0,844.0,20.367101813171946,231000,115500.0,5678.1246457099915
-0.8836466073989868,1.1185430312156677,-25.21923320388794,0.3641872744858265,116000.0,12.721900408744812,24.5458373336792,24.54549213409424,24.549441917419433,232.0,1000.0,911.0,48.46844124264169,232000,116000.0,5698.756628274918
-0.8836466073989868,1.116908697605133,-26.794026748657227,0.3830851202309132,116500.0,12.45403438615799,26.141601165771483,26.141596504211424,26.148925048828126,233.0,1000.0,659.0,47.9628731603286,233000,116500.0,5719.606089115143
-0.8836466073989868,1.1157550659179687,-27.319979938507082,0.3895789073109627,117000.0,12.176589606285095,26.675931213378906,26.67556631088257,26.676449913024904,234.0,1000.0,793.0,48.6311232468571,234000,117000.0,5740.169053554535
-0.8836466073989868,1.1118599722385407,-29.237529708862304,0.42541653805971147,117500.0,13.584831681728364,28.571224647521973,28.57060275268555,28.576860191345215,235.0,1000.0,1000.0,48.31261251824291,235000,117500.0,5760.867583274841
-0.8836466073989868,1.1190714087486267,-29.98534017944336,0.43967580497264863,118000.0,12.313690915822983,29.312234252929688,29.31232725906372,29.31775274658203,236.0,1000.0,915.0,48.3517981392109,236000,118000.0,5781.549338340759
-0.8836466073989868,1.115913951396942,-31.323043113708497,0.4670013647079468,118500.0,12.77795686674118,30.633013946533204,30.63286474609375,30.636837280273436,237.0,1000.0,0.0,48.54701244079233,237000,118500.0,5802.147928953171
-0.8836466073989868,1.1122581005096435,-31.421346702575683,0.4534152748584747,119000.0,15.87458565044403,30.75568460083008,30.75542922973633,30.757799865722657,238.0,1000.0,924.0,48.41320987851543,238000,119000.0,5822.803449392319
-0.8836466073989868,1.1172304377555846,-32.4862243270874,0.4746093698441982,119500.0,15.113966175079346,31.818446784973144,31.81788730621338,31.826043090820313,239.0,1000.0,746.0,48.53458397374129,239000,119500.0,5843.407314777374
-0.8836466073989868,1.117721517086029,-33.533955612182616,0.49761774438619616,120000.0,12.506840903759002,32.84578305053711,32.84489372253418,32.84855609893799,240.0,1000.0,747.0,48.66792241846495,240000,120000.0,5863.95473074913
-0.8836466073989868,1.1153211908340455,-34.82864415740967,0.5114759476184845,120500.0,15.034193076133729,34.10139463806152,34.10086916351318,34.10437449645996,241.0,1000.0,876.0,20.324393742176355,241000,120500.0,5913.15669131279
-0.8836466073989868,1.115766885280609,-36.132226371765135,0.5302992588281632,121000.0,13.080807209968567,35.39953285980225,35.39944393157959,35.40423513793945,242.0,1000.0,597.0,48.37418468188032,242000,121000.0,5933.828875541687
-0.8836466073989868,1.1149231944084168,-36.969130065917966,0.5383170832395554,121500.0,11.330729615211487,36.207603660583494,36.206719604492186,36.21323571014404,243.0,1000.0,922.0,48.398261172129004,243000,121500.0,5954.490775823593
-0.8836466073989868,1.1134981756210327,-38.52669556427002,0.5757466921806336,122000.0,12.705780689239502,37.77896828460693,37.77868226623535,37.78236751556396,244.0,1000.0,715.0,48.42203573072497,244000,122000.0,5975.142531633377
-0.8836466073989868,1.1111305446624755,-39.20601913452148,0.5811999661922455,122500.0,12.14370854663849,38.44338282775879,38.442890480041505,38.449909790039065,245.0,1000.0,57.0,48.24175071507691,245000,122500.0,5995.871464967728
-0.8836466073989868,1.1124323711395263,-39.30352135467529,0.5785988164544106,123000.0,12.163763631820679,38.71122797393799,38.71103217315674,38.71568741607666,246.0,1000.0,925.0,48.05724837311537,246000,123000.0,6016.679981470108
-0.8836466073989868,1.11098033952713,-40.34850538635254,0.6020033276081085,123500.0,11.772876242637635,39.64660181427002,39.64613967895508,39.647470001220704,247.0,1000.0,52.0,48.24071869090574,247000,123500.0,6037.4093589782715
-0.8836466073989868,1.1116873950958253,-40.36068636322022,0.5932516540288926,124000.0,11.915157910346984,39.70336428070068,39.70338485717773,39.7072154006958,248.0,1000.0,82.0,48.39026241588677,248000,124000.0,6058.074674844742
-0.8836466073989868,1.1110164489746093,-40.69339122772217,0.592914833843708,124500.0,11.403635685920715,40.03838381195068,40.037827514648434,40.03754781341553,249.0,1000.0,83.0,48.36920413678253,249000,124500.0,6078.748987436295
-0.8836466073989868,1.1085552759170532,-41.44402562713623,0.6019111666679382,125000.0,10.28623965358734,40.83208010101318,40.83167137908936,40.836355682373046,250.0,1000.0,681.0,48.23293443463121,250000,125000.0,6099.481709957123
-0.8836466073989868,1.1121031579971314,-41.407849166870115,0.6075250747203826,125500.0,10.721661549568177,40.803796173095705,40.8042303237915,40.80356356811524,251.0,1000.0,549.0,20.435722335516246,251000,125500.0,6148.415631055832
-0.8836466073989868,1.1088889870643617,-42.321644981384274,0.6289379142522812,126000.0,10.832742957115173,41.61696073913574,41.616939483642575,41.617672767639164,252.0,1000.0,0.0,48.55577472758324,252000,126000.0,6169.010504722595
-0.8836466073989868,1.1091778407096862,-41.929020217895506,0.6129865676760674,126500.0,10.669730234146119,41.19040407562256,41.18981848907471,41.18962605285645,253.0,1000.0,862.0,48.61082949689294,253000,126500.0,6189.582053422928
-0.8836466073989868,1.1069881992340087,-42.85782628631592,0.6389935958385468,127000.0,9.936400341033936,42.112185546875,42.11234115600586,42.1152732925415,254.0,1000.0,540.0,48.54794578770434,254000,127000.0,6210.180248260498
-0.8836466073989868,1.1102143607139587,-43.22895346069336,0.643529188632965,127500.0,10.94008025932312,42.44361462402344,42.44309876251221,42.44264497375488,255.0,1000.0,923.0,48.59151134227182,255000,127500.0,6230.75997543335
-0.8836466073989868,1.1028997001647949,-44.07373877716064,0.6607558184862137,128000.0,10.979839965820313,43.326896942138674,43.327123580932614,43.32742964935303,256.0,1000.0,757.0,48.54188782014333,256000,128000.0,6251.360740661621
-0.8836466073989868,1.1075690622329712,-45.056473022460935,0.691440078496933,128500.0,10.129237080574036,44.3485860748291,44.348737632751465,44.34765857696533,257.0,1000.0,931.0,48.927774330943684,257000,128500.0,6271.799030780792
-0.8836466073989868,1.1051546325683594,-45.36171992492676,0.6903709342479706,129000.0,10.491030169486999,44.618927558898925,44.618856300354004,44.622465744018555,258.0,1000.0,930.0,48.60977317083347,258000,129000.0,6292.371026515961
-0.8836466073989868,1.1076260011196137,-46.0732541809082,0.7100150038003922,129500.0,12.03373456478119,45.295819801330566,45.29531084442139,45.29603064727783,259.0,1000.0,68.0,48.405506725586925,259000,129500.0,6313.029834508896
-0.8836466073989868,1.10219065117836,-46.906823928833006,0.7085510940551758,130000.0,11.553526805877686,46.18220874023437,46.18199054718018,46.179966789245604,260.0,1000.0,929.0,48.593785720042135,260000,130000.0,6333.608598470688
-0.8836466073989868,1.1047998483181,-47.735468170166016,0.7447642691135407,130500.0,11.16145564365387,47.02599478149414,47.025663887023924,47.02888575744629,261.0,1000.0,837.0,20.47474994619788,261000,130500.0,6382.449244737625
-0.8836466073989868,1.0984868588447572,-48.71137126159668,0.7679178038835526,131000.0,10.338945833206177,47.99431207275391,47.994342559814456,47.991118270874026,262.0,1000.0,664.0,48.99249803308326,262000,131000.0,6402.860534191132
-0.8836466073989868,1.0947090520858764,-48.687134536743166,0.76497798037529,131500.0,11.565859066009521,47.8555064163208,47.8551890411377,47.85656818389893,263.0,1000.0,839.0,48.82017555994481,263000,131500.0,6423.343870639801
-0.8836466073989868,1.0990473656654358,-49.56800030517578,0.7787965170145035,132000.0,10.561355486869813,48.78338694763183,48.78320222473145,48.78469508361816,264.0,1000.0,835.0,48.672615048778866,264000,132000.0,6443.889305353165
-0.8836466073989868,1.1057592973709107,-50.004839767456055,0.7950951718091964,132500.0,9.8617140083313,49.19275852966309,49.19242282104492,49.190623001098636,265.0,1000.0,661.0,48.651341962872785,265000,132500.0,6464.443724155426
-0.8836466073989868,1.0943548612594605,-51.25130981445312,0.8179327706098557,133000.0,10.067744787216187,50.34765606689453,50.34758201599121,50.351661911010744,266.0,1000.0,882.0,48.491507219421614,266000,133000.0,6485.065892934799
-0.8836466073989868,1.105184490442276,-51.60137905883789,0.8206224792003631,133500.0,11.220491093635559,50.76559504699707,50.765438369750974,50.764980041503904,267.0,1000.0,824.0,48.67892150741171,267000,133500.0,6505.608665943146
-0.8836466073989868,1.097296653032303,-52.22986152648926,0.8336424577236176,134000.0,9.778476413726807,51.35821716308594,51.358080932617185,51.35644563293457,268.0,1000.0,875.0,46.98943356606989,268000,134000.0,6526.890047073364
-0.8836466073989868,1.1024729964733124,-53.201775527954105,0.8530020813941955,134500.0,10.673971155166626,52.32443510437012,52.32421971130371,52.328529052734375,269.0,1000.0,878.0,48.60117103415147,269000,134500.0,6547.4656846523285
-0.8836466073989868,1.1031682529449462,-54.15262158203125,0.8659036846160889,135000.0,9.892047351837158,53.254138427734375,53.254081100463864,53.2570295715332,270.0,1000.0,877.0,48.65903663041777,270000,135000.0,6568.016852617264
-0.8836466073989868,1.0888494651317597,-55.19723760986328,0.8908775445222855,135500.0,9.763216264724731,54.314508865356444,54.314330505371096,54.31531713867187,271.0,1000.0,874.0,20.30303230675366,271000,135500.0,6617.270580530167
-0.8836466073989868,1.093882363796234,-56.28928240966797,0.9233904144763947,136000.0,10.94929164505005,55.34798138427735,55.34781430053711,55.34980770874024,272.0,1000.0,881.0,48.72494413649765,272000,136000.0,6637.793950080872
-0.8836466073989868,1.0962752697467804,-56.50320295715332,0.912722908616066,136500.0,9.89347703552246,55.59382827758789,55.59371661376953,55.593628967285156,273.0,1000.0,931.0,48.74316593411564,273000,136500.0,6658.309648036957
-0.8836466073989868,1.099014313697815,-57.12235037231445,0.9234075449705124,137000.0,9.594519746780396,56.25718365478516,56.257304809570314,56.26071630859375,274.0,1000.0,869.0,48.62800250064769,274000,137000.0,6678.873931646347
-0.8836466073989868,1.094274769306183,-58.83049481201172,0.9499514110088348,137500.0,8.734506321907043,57.90796850585937,57.907770706176755,57.90694036865234,275.0,1000.0,585.0,48.70794865862179,275000,137500.0,6699.404462814331
-0.8836466073989868,1.0975432512760162,-59.8722721862793,0.9795092029571533,138000.0,8.230113808631897,58.94636842346191,58.94658140563965,58.94860954284668,276.0,1000.0,825.0,48.705821946743704,276000,138000.0,6719.935889482498
-0.8836466073989868,1.0939981100559235,-59.67054533386231,0.9573725962638855,138500.0,8.644795174598693,58.73675775146484,58.73685542297363,58.738591949462894,277.0,1000.0,650.0,48.924364868030665,277000,138500.0,6740.375604152679
-0.8836466073989868,1.087420910358429,-60.51030241394043,0.99043483877182,139000.0,8.888324880599976,59.5653509979248,59.5656015625,59.565942749023435,278.0,1000.0,864.0,48.67133746127028,278000,139000.0,6760.921578407288
-0.8836466073989868,1.0964778580665588,-62.055282638549805,1.0233807406425477,139500.0,8.543815845489503,61.12618650817871,61.12583572387695,61.130121673583986,279.0,1000.0,887.0,48.66234033275783,279000,139500.0,6781.471351623535
-0.8836466073989868,1.0965346059799195,-62.173342239379885,1.0131770825386048,140000.0,8.593119141578674,61.215765151977536,61.21582604980469,61.21733142089844,280.0,1000.0,751.0,48.64853291229073,280000,140000.0,6802.026957273483
-0.8836466073989868,1.097460515499115,-62.81836470031738,1.0376484055519104,140500.0,9.558233080863953,61.896481979370115,61.896382720947265,61.89446496582031,281.0,1000.0,672.0,20.43458244428758,281000,140500.0,6850.963607549667
-0.8836466073989868,1.100103505373001,-63.56425791931152,1.0417258415222168,141000.0,9.26485010242462,62.577899490356444,62.57810530090332,62.58043682861328,282.0,1000.0,684.0,48.715441141284984,282000,141000.0,6871.490980625153
-0.8836466073989868,1.0906583518981934,-63.91616659545898,1.0513607280254365,141500.0,9.896722929954528,62.961100967407226,62.96061967468262,62.963572799682616,283.0,1000.0,821.0,48.627231255995795,283000,141500.0,6892.055590867996
-0.8836466073989868,1.0925612483024598,-64.76228848266602,1.0609579503536224,142000.0,9.193909507751465,63.76829304504395,63.768156188964845,63.77113101196289,284.0,1000.0,780.0,48.61649782235551,284000,142000.0,6912.624741315842
-0.8836466073989868,1.0976325485706329,-65.81843173217773,1.0794880990982056,142500.0,8.32119457435608,64.83623863220215,64.83641862487794,64.83602903747558,285.0,1000.0,786.0,48.82735587518327,285000,142500.0,6933.105064868927
-0.8836466073989868,1.089225539445877,-66.71824641418458,1.0991873641014098,143000.0,7.897169021606445,65.74604917907715,65.74621409606934,65.74610891723633,286.0,1000.0,658.0,48.796372986726894,286000,143000.0,6953.598392248154
-0.8836466073989868,1.0849770655632018,-66.92515097045899,1.1107220582962036,143500.0,7.662920348167419,65.97334138488769,65.97326351928712,65.97743312072754,287.0,1000.0,984.0,48.91592829066803,287000,143500.0,6974.041632175446
-0.8836466073989868,1.096965541601181,-67.35787306213379,1.1084956517219544,144000.0,9.46126424884796,66.37719241333008,66.37658695983886,66.37748640441895,288.0,1000.0,754.0,48.774904825474664,288000,144000.0,6994.543979406357
-0.8836466073989868,1.097908236026764,-68.64263084411621,1.1434348137378694,144500.0,8.494351412773133,67.65955499267578,67.65986311340332,67.66273567199707,289.0,1000.0,932.0,48.5608263800617,289000,144500.0,7015.136710882187
-0.8836466073989868,1.0954375941753387,-68.47774444580078,1.1457818753719329,145000.0,8.702533355712891,67.54420008850097,67.54377778625488,67.54377944946289,290.0,1000.0,842.0,48.520240502744315,290000,145000.0,7035.746668100357
-0.8836466073989868,1.095218889951706,-68.94482437133789,1.1573348054885864,145500.0,8.423565271377564,67.99542213439942,67.99561270141602,67.99827882385254,291.0,1000.0,1000.0,20.471228658271524,291000,145500.0,7084.5957152843475
-0.8836466073989868,1.0940465157032013,-69.84877964782714,1.1826561186313629,146000.0,8.147714245796204,68.85785603332519,68.85778396606446,68.85724241638184,292.0,1000.0,703.0,48.71944177188386,292000,146000.0,7105.12140250206
-0.8836466073989868,1.0866352634429932,-69.71243180847168,1.1773516328334808,146500.0,7.103575953006745,68.74563041687011,68.74569309997558,68.74825134277344,293.0,1000.0,929.0,47.48687316351263,293000,146500.0,7126.179854631424
-0.8836466073989868,1.07530570936203,-71.17710012817383,1.1972806231975555,147000.0,7.298219828128815,70.19772120666504,70.19769856262207,70.19952110290528,294.0,1000.0,849.0,48.61248703543655,294000,147000.0,7146.750702142715
-0.8836466073989868,1.097022620677948,-70.57566191101074,1.1916582770347595,147500.0,7.8788595361709595,69.59184165954589,69.59172807312012,69.59270684814453,295.0,1000.0,888.0,48.65528748301205,295000,147500.0,7167.3034546375275
-0.8836466073989868,1.094672416448593,-72.34920251464844,1.2250123882293702,148000.0,6.9439682188034055,71.34075080871582,71.34112707519532,71.34133050537109,296.0,1000.0,635.0,48.71099651526767,296000,148000.0,7187.83270072937
-0.8836466073989868,1.0825018210411073,-72.79438558959961,1.2316747715473175,148500.0,7.1262296304702755,71.8308687286377,71.83042597961426,71.83268856811523,297.0,1000.0,885.0,48.906852491462615,297000,148500.0,7208.2797338962555
-0.8836466073989868,1.0815866706371307,-73.17631028747559,1.2493679859638214,149000.0,6.804423044204712,72.24559783935547,72.24526486206055,72.24708558654785,298.0,1000.0,631.0,48.63374814117523,298000,149000.0,7228.841588020325
-0.8836466073989868,1.0899867160320282,-74.10901316833495,1.2570253474712372,149500.0,6.352629690647126,73.1250979309082,73.12523425292969,73.12651960754394,299.0,1000.0,597.0,48.509860013166104,299000,149500.0,7249.455954790115
-0.8836466073989868,1.086349496603012,-74.21264590454102,1.2704660353660584,150000.0,6.81427520942688,73.2813992767334,73.28125149536133,73.28022438049317,300.0,1000.0,691.0,48.48506314571479,300000,150000.0,7270.080864906311
-0.8836466073989868,1.0903493897914887,-73.81459692382812,1.2541413383483886,150500.0,7.3130329613685605,72.90879196166992,72.90903266906739,72.9097901763916,301.0,1000.0,758.0,20.41469232270363,301000,150500.0,7319.065195083618
-0.8836466073989868,1.1077309050559998,-75.18431253051757,1.2816431019306183,151000.0,7.693077120780945,74.2267174987793,74.22643041992187,74.23042485046386,302.0,1000.0,671.0,48.5419350104857,302000,151000.0,7339.665940523148
-0.8836466073989868,1.091077975988388,-75.36706117248535,1.2920770111083983,151500.0,6.290292576313019,74.41981866455077,74.4201778564453,74.41855940246582,303.0,1000.0,831.0,48.458136648649415,303000,151500.0,7360.3023109436035
-0.8836466073989868,1.09061749792099,-75.71913595581054,1.3125411341190338,152000.0,6.4091736669540404,74.82398760986328,74.82382441711425,74.82622198486328,304.0,1000.0,930.0,48.446052450358636,304000,152000.0,7380.943829298019
-0.8836466073989868,1.0969100244045258,-75.53943795776367,1.303314239025116,152500.0,6.83408509683609,74.60227616882324,74.6021731414795,74.60213551330567,305.0,1000.0,707.0,48.499307871145824,305000,152500.0,7401.56268119812
-0.8836466073989868,1.1045976943969726,-76.84040538024902,1.3359073872566223,153000.0,6.637292570114136,75.89260314941406,75.89234182739258,75.89377030944824,306.0,1000.0,841.0,47.814456874149535,306000,153000.0,7422.476858377457
-0.8836466073989868,1.0957881228923798,-77.38391629028321,1.3469381833076477,153500.0,7.26553301525116,76.43721987915039,76.43692842102051,76.43787919616699,307.0,1000.0,881.0,48.69294573245275,307000,153500.0,7443.0137155056
-0.8836466073989868,1.0830889933109284,-77.03141258239746,1.3487913198471069,154000.0,7.558845579624176,76.1258565826416,76.12591590881348,76.12538717651367,308.0,1000.0,792.0,47.54128600217803,308000,154000.0,7464.048065423965
-0.8836466073989868,1.0960163559913636,-77.62992944335937,1.3633717529773712,154500.0,6.869687691688537,76.72800695800781,76.72809622192383,76.73115658569336,309.0,1000.0,934.0,48.666196724979145,309000,154500.0,7484.596209764481
-0.8836466073989868,1.086807345867157,-78.91521179199219,1.3867796938419341,155000.0,7.327343349933624,77.95643130493164,77.95661029052734,77.95624047851562,310.0,1000.0,886.0,48.62234896554524,310000,155000.0,7505.162884473801
-0.8836466073989868,1.1030207085609436,-78.87095344543457,1.3768244230747222,155500.0,6.434775039196015,77.90055364990235,77.90022685241699,77.90160607910157,311.0,1000.0,689.0,20.45090279900883,311000,155500.0,7554.060482978821
-0.8836466073989868,1.1045735428333283,-79.63136262512207,1.3954863064289094,156000.0,6.669484551906586,78.68504638671875,78.68500907897949,78.68660694885254,312.0,1000.0,686.0,48.644196957420476,312000,156000.0,7574.617920398712
-0.8836466073989868,1.0897434360980987,-79.54175314331054,1.3921509182453156,156500.0,6.323029139518738,78.61159307861328,78.61162780761718,78.61303352355957,313.0,1000.0,791.0,48.54384011628196,313000,156500.0,7595.217857122421
-0.8836466073989868,1.0955567283630372,-80.13002856445313,1.4181042280197143,157000.0,6.662414795398712,79.17538845825196,79.1751540222168,79.17622955322265,314.0,1000.0,729.0,48.44607986945964,314000,157000.0,7615.859363555908
-0.8836466073989868,1.0840000872612,-81.14433911132812,1.4484113070964812,157500.0,6.809352170467377,80.26793704223633,80.26822969055176,80.26883753967284,315.0,1000.0,667.0,48.30202029228781,315000,157500.0,7636.562431812286
-0.8836466073989868,1.0928347461223602,-80.80616009521485,1.432725790500641,158000.0,7.128244644641876,79.91003591918945,79.90995635986329,79.90844326782226,316.0,1000.0,1000.0,48.29050141606755,316000,158000.0,7657.270438909531
-0.8836466073989868,1.089630985736847,-81.62898217773437,1.4496553890705108,158500.0,6.523306111812592,80.71402304077148,80.71408233642578,80.71485113525391,317.0,1000.0,841.0,48.512989180560034,317000,158500.0,7677.883476018906
-0.8836466073989868,1.0970945239067078,-81.5212370300293,1.470917474269867,159000.0,6.269386640071869,80.59908241271972,80.59920613098144,80.59952529907227,318.0,1000.0,801.0,48.634497035157246,318000,159000.0,7698.44501376152
-0.8836466073989868,1.0943781080245971,-82.26888061523438,1.4876529636383056,159500.0,6.845406999588013,81.40638888549805,81.4063466796875,81.40748361206055,319.0,1000.0,791.0,47.73281846928168,319000,159500.0,7719.394961595535
-0.8836466073989868,1.084490279197693,-81.75694839477539,1.4841036610603333,160000.0,6.302819244384765,80.85329719543456,80.85306069946289,80.85379321289062,320.0,1000.0,664.0,48.36186405399929,320000,160000.0,7740.072411775589
-0.8836466073989868,1.08869233584404,-82.20483181762695,1.4789213891029358,160500.0,5.99523534154892,81.29481359863281,81.29484146118165,81.29728909301758,321.0,1000.0,874.0,20.38505818409027,321000,160500.0,7789.127950668335
-0.8836466073989868,1.0817224514484405,-82.7953848876953,1.4966930809020995,161000.0,6.95005973482132,81.91690386962891,81.91688385009766,81.91658581542968,322.0,1000.0,931.0,48.553105410505275,322000,161000.0,7809.723956823349
-0.8836466073989868,1.0917780544757842,-83.12499841308593,1.5086627159118653,161500.0,6.7008903365135195,82.1994828491211,82.1992312927246,82.19994482421875,323.0,1000.0,795.0,48.5120947709117,323000,161500.0,7830.3373737335205
-0.8836466073989868,1.0825169286727905,-83.38660696411132,1.5235682740211487,162000.0,6.89658594417572,82.48187802124023,82.482126953125,82.48193313598632,324.0,1000.0,601.0,48.308643923076005,324000,162000.0,7851.037603855133
-0.8836466073989868,1.0870580081939698,-83.73126962280273,1.5309980082511903,162500.0,7.28924162197113,82.83849920654296,82.83823986816407,82.8389582824707,325.0,1000.0,1000.0,48.58643360522427,325000,162500.0,7871.619482040405
-0.8836466073989868,1.082692393064499,-84.15094863891602,1.560782765865326,163000.0,7.094114810943603,83.29186584472656,83.29240362548828,83.29518795776367,326.0,1000.0,996.0,48.46500925113099,326000,163000.0,7892.252926111221
-0.8836466073989868,1.0913362681865693,-83.8734224243164,1.5422647881507874,163500.0,6.278970729827881,82.98833087158204,82.98805004882813,82.9861728515625,327.0,1000.0,713.0,48.339838780919365,327000,163500.0,7912.939797878265
-0.8836466073989868,1.0952582230567933,-85.0469599609375,1.5618940634727478,164000.0,7.004126031398773,84.1601444091797,84.16017376708984,84.15935708618164,328.0,1000.0,936.0,48.49060967747388,328000,164000.0,7933.562348127365
-0.8836466073989868,1.097168381214142,-85.29502127075196,1.5703620805740357,164500.0,6.694358182430268,84.41395568847656,84.41391317749023,84.41587948608398,329.0,1000.0,925.0,48.654251799636036,329000,164500.0,7954.1155371665955
-0.8836466073989868,1.093080365419388,-85.65190576171875,1.592048460006714,165000.0,5.869654918193818,84.75582806396484,84.75578186035156,84.7567883605957,330.0,1000.0,800.0,48.70010054320827,330000,165000.0,7974.649376869202
-0.8836466073989868,1.0869245686531066,-85.4375267944336,1.5722398719787598,165500.0,8.674439808368684,84.52968539428711,84.52912103271484,84.53158102416992,331.0,1000.0,718.0,20.360757936950147,331000,165500.0,8023.763462543488
-0.8836466073989868,1.0911774988174439,-86.90059237670899,1.621331867456436,166000.0,5.787024633407593,86.00609642028809,86.00630754089356,86.00642080688476,332.0,1000.0,845.0,48.45989968788379,332000,166000.0,8044.399082183838
-0.8836466073989868,1.0926210460662842,-87.46203717041016,1.6168354539871215,166500.0,5.739609775066376,86.55250326538086,86.552330078125,86.55552642822266,333.0,1000.0,800.0,48.704229862472545,333000,166500.0,8064.9311809539795
-0.8836466073989868,1.084981216430664,-87.48134259033203,1.6306427330970765,167000.0,6.950047782897949,86.61990811157227,86.62004446411133,86.61681271362305,334.0,1000.0,1000.0,48.8740247839299,334000,167000.0,8085.391948699951
-0.8836466073989868,1.0679486799240112,-88.21162554931641,1.6402708773612975,167500.0,8.041353826999664,87.35130267333984,87.35145693969727,87.35250213623047,335.0,1000.0,743.0,48.58857410702145,335000,167500.0,8105.9729199409485
-0.8836466073989868,1.0755243504047394,-87.58145700073243,1.6427125148773194,168000.0,6.473705250263214,86.71141903686524,86.71124575805663,86.71248037719727,336.0,1000.0,659.0,48.35895674577172,336000,168000.0,8126.651613950729
-0.8836466073989868,1.079239761352539,-88.58393313598633,1.6637957768440246,168500.0,5.822645447731018,87.70028051757812,87.70038293457031,87.70143829345703,337.0,1000.0,888.0,48.37315535209189,337000,168500.0,8147.324237585068
-0.8836466073989868,1.0879920601844788,-88.60440835571289,1.6699918789863586,169000.0,6.079920175075531,87.72877920532227,87.72868499755859,87.73181652832031,338.0,1000.0,674.0,48.08295108782142,338000,169000.0,8168.121631145477
-0.8836466073989868,1.1057194657325744,-88.79991622924804,1.6662208104133607,169500.0,6.641825983047485,87.93372030639648,87.93338717651368,87.93217080688477,339.0,1000.0,761.0,48.348309637251084,339000,169500.0,8188.804878473282
-0.8836466073989868,1.0853881092071533,-88.96969027709962,1.6807937879562378,170000.0,6.228595216751098,88.1168076171875,88.11687948608399,88.1183896484375,340.0,1000.0,922.0,48.39512724313301,340000,170000.0,8209.468116521835
-0.8836466073989868,1.090798858165741,-89.38297314453125,1.6823849511146545,170500.0,6.141611775398254,88.52745782470703,88.52756503295899,88.52783871459961,341.0,1000.0,674.0,20.405104597941474,341000,170500.0,8258.475462675095
-0.8836466073989868,1.0997191061973572,-89.52559002685547,1.707627043247223,171000.0,7.501084869384766,88.70955795288086,88.70912911987304,88.70919564819336,342.0,1000.0,689.0,48.30211096134652,342000,171000.0,8279.1784927845
-0.8836466073989868,1.0944204654693603,-90.07403732299805,1.7221308012008667,171500.0,6.779764134407044,89.25052697753907,89.25059579467774,89.25019473266602,343.0,1000.0,765.0,48.41021034685514,343000,171500.0,8299.83529305458
-0.8836466073989868,1.091991544485092,-89.51298852539063,1.7114723272323609,172000.0,7.298752595901489,88.64361544799804,88.64364758300782,88.64523315429688,344.0,1000.0,657.0,48.45240611776226,344000,172000.0,8320.474103927612
-0.8836466073989868,1.0959020802974702,-90.70626806640625,1.7210241742134094,172500.0,6.750779714107513,89.83042999267577,89.83076687622071,89.83032098388672,345.0,1000.0,731.0,48.32835142244722,345000,172500.0,8341.16589307785
-0.8836466073989868,1.1072325088977815,-91.1271142578125,1.7346299052238465,173000.0,6.448083353042603,90.26360415649414,90.26369116210938,90.26591998291016,346.0,1000.0,930.0,48.52277148368155,346000,173000.0,8361.77477478981
-0.8836466073989868,1.0951244275569916,-91.77009503173828,1.748020480155945,173500.0,5.3031119306087495,90.87747427368164,90.87731680297851,90.8762807006836,347.0,1000.0,837.0,47.19509626055368,347000,173500.0,8382.963418006897
-0.8836466073989868,1.1017878479957581,-92.38483898925782,1.764269991874695,174000.0,6.383661340236664,91.47684732055664,91.47664715576173,91.47717953491211,348.0,1000.0,936.0,48.61453178917696,348000,174000.0,8403.533400774002
-0.8836466073989868,1.0859621279239655,-91.92509118652343,1.7469364886283874,174500.0,5.945218892097473,91.06767581176757,91.06823422241212,91.06920504760743,349.0,1000.0,752.0,48.51993965408392,349000,174500.0,8424.143485307693
-0.8836466073989868,1.0916422789096831,-92.312076171875,1.7579168696403504,175000.0,7.584203834056854,91.42241973876953,91.4222758178711,91.42083239746094,350.0,1000.0,654.0,48.223504826444696,350000,175000.0,8444.88026189804
-0.8836466073989868,1.0846527900695802,-92.06736184692383,1.7728298172950745,175500.0,5.560078486442566,91.21564382934571,91.21579049682617,91.21878436279297,351.0,1000.0,747.0,20.358605255286708,351000,175500.0,8493.999541521072
-0.8836466073989868,1.099551152229309,-92.71107055664062,1.7831969394683838,176000.0,6.931686880588532,91.84713708496093,91.84728842163086,91.84656338500976,352.0,1000.0,843.0,48.63178635130385,352000,176000.0,8514.562226057053
-0.8836466073989868,1.1076928749084474,-93.15680758666993,1.779699158668518,176500.0,6.596338122367859,92.2950610961914,92.29516204833985,92.29575988769531,353.0,1000.0,790.0,48.48911123207462,353000,176500.0,8535.185414075851
-0.8836466073989868,1.0924979777336121,-93.45984289550782,1.8024053845405579,177000.0,6.438253914356232,92.62913180541992,92.62911233520508,92.6298428955078,354.0,1000.0,790.0,48.33631134035762,354000,177000.0,8555.873795747757
-0.8836466073989868,1.077448989868164,-93.58214636230468,1.8065319933891297,177500.0,6.401254205226898,92.72441229248047,92.72447888183594,92.72590625,355.0,1000.0,938.0,47.69685412692478,355000,177500.0,8576.83954000473
-0.8836466073989868,1.088184832572937,-94.04258880615234,1.8162640948295594,178000.0,6.664943848133087,93.18133602905273,93.18105407714843,93.18255303955078,356.0,1000.0,885.0,47.1125857856714,356000,178000.0,8598.06529211998
-0.8836466073989868,1.080129118680954,-94.52256729125976,1.8350352954864502,178500.0,6.840883893013,93.66871255493164,93.66862609863281,93.66872952270508,357.0,1000.0,757.0,48.36816274787824,357000,178500.0,8618.74004983902
-0.8836466073989868,1.0918693313598633,-94.5081290588379,1.8220958094596862,179000.0,6.769646534919739,93.64647378540039,93.64603988647461,93.6470404663086,358.0,1000.0,875.0,48.65406272868377,358000,179000.0,8639.293318748474
-0.8836466073989868,1.0804771893024445,-94.99859078979492,1.84474791097641,179500.0,6.3272343573570256,94.12258843994141,94.12305685424805,94.12290307617188,359.0,1000.0,745.0,48.40678547928466,359000,179500.0,8659.951580286026
-0.8836466073989868,1.097874102115631,-95.48000775146484,1.8560005221366882,180000.0,5.536897820472717,94.63799536132812,94.63758868408203,94.63972268676758,360.0,1000.0,604.0,48.55685962552084,360000,180000.0,8680.545993804932
-0.8836466073989868,1.0983595805168151,-95.5746272277832,1.8578033466339112,180500.0,5.949261396884919,94.71217822265625,94.71232363891602,94.70959716796875,361.0,1000.0,886.0,20.365772775847717,361000,180500.0,8729.64798617363
-0.8836466073989868,1.099391014099121,-95.99822778320312,1.867286190032959,181000.0,6.472310164690017,95.17714678955078,95.17721496582031,95.17833242797852,362.0,1000.0,716.0,48.39229410072272,362000,181000.0,8750.312433958054
-0.8836466073989868,1.0936709632873536,-96.41817294311524,1.8855769629478454,181500.0,6.549899968624115,95.58996337890625,95.58970907592773,95.59103933715821,363.0,1000.0,678.0,47.61378136750537,363000,181500.0,8771.314758062363
-0.8836466073989868,1.090231796503067,-96.28780325317383,1.8805360255241395,182000.0,5.711701699256897,95.47617098999024,95.47621871948242,95.47606509399414,364.0,1000.0,927.0,48.314178545479564,364000,182000.0,8792.012616634369
-0.8836466073989868,1.095332887172699,-96.04530819702148,1.8721615009307861,182500.0,5.931005908489228,95.27400201416016,95.27403436279297,95.27499447631835,365.0,1000.0,598.0,48.57885640503092,365000,182500.0,8812.597705125809
-0.8836466073989868,1.0730649983882905,-96.70033813476563,1.901413070678711,183000.0,6.987018406867981,95.90701547241211,95.90726470947266,95.90744915771485,366.0,1000.0,937.0,48.49718363827321,366000,183000.0,8833.217460393906
-0.8836466073989868,1.0826322963237762,-96.83099185180664,1.9049110803604126,183500.0,6.262038414955139,96.01263201904297,96.01247454833984,96.01389685058594,367.0,1000.0,608.0,48.453062678169644,367000,183500.0,8853.855992078781
-0.8836466073989868,1.0979654324054717,-97.23060842895508,1.9088798623085022,184000.0,8.09797178220749,96.36453216552735,96.36453833007812,96.36575845336914,368.0,1000.0,929.0,48.61384999766568,368000,184000.0,8874.426262378693
-0.8836466073989868,1.0816285157203673,-97.58517889404297,1.9169907836914062,184500.0,5.557713979721069,96.71345443725586,96.7134620666504,96.71416693115235,369.0,1000.0,987.0,48.583544255074635,369000,184500.0,8895.009364366531
-0.8836466073989868,1.0951000738143921,-97.72438552856445,1.9284043326377869,185000.0,6.227196268081665,96.87354098510743,96.87354745483398,96.8731665649414,370.0,1000.0,722.0,47.80835169150023,370000,185000.0,8915.926213026047
-0.8836466073989868,1.0948236794471742,-98.25357333374023,1.9334592700004578,185500.0,7.569907216072083,97.38565783691406,97.38553005981446,97.38655465698243,371.0,1000.0,879.0,20.45558274618914,371000,185500.0,8964.812623739243
-0.8836466073989868,1.0848811569213868,-98.23509335327148,1.9448362646102906,186000.0,5.989127995967865,97.42668481445313,97.42646240234374,97.42790124511718,372.0,1000.0,657.0,48.64072874998085,372000,186000.0,8985.371527194977
-0.8836466073989868,1.094794648885727,-99.18042391967774,1.9547413635253905,186500.0,7.900459055423736,98.31654165649414,98.31626077270508,98.31740274047851,373.0,1000.0,709.0,48.65813964992252,373000,186500.0,9005.923074245453
-0.8836466073989868,1.0770697882175446,-98.73550036621094,1.947838086128235,187000.0,6.028565436363221,97.9039563293457,97.9040783996582,97.90308682250976,374.0,1000.0,844.0,48.50524583103112,374000,187000.0,9026.539402008057
-0.8836466073989868,1.0870296959877015,-99.07459600830079,1.9650968351364135,187500.0,5.465407164096832,98.31526678466797,98.31531866455079,98.31684936523438,375.0,1000.0,647.0,48.672084689323384,375000,187500.0,9047.085061311722
-0.8836466073989868,1.067827996969223,-99.62059289550781,1.9718226914405823,188000.0,6.019051246643066,98.82637783813476,98.82611431884766,98.8264139099121,376.0,1000.0,875.0,48.62276043585418,376000,188000.0,9067.651562213898
-0.8836466073989868,1.0664120926856995,-99.44677743530274,1.9721781749725342,188500.0,6.579764548778534,98.64708334350586,98.64728454589844,98.64767791748046,377.0,1000.0,668.0,48.666217617787495,377000,188500.0,9088.199698209763
-0.8836466073989868,1.0526461374759675,-99.89909719848633,1.99193070602417,189000.0,5.233552366256714,99.11116769409179,99.11091323852538,99.11134161376953,378.0,1000.0,836.0,48.76287530276365,378000,189000.0,9108.70710349083
-0.8836466073989868,1.05127259683609,-99.43461071777344,1.9753645286560058,189500.0,5.884628819942474,98.62778359985352,98.62779235839844,98.62927819824219,379.0,1000.0,834.0,48.19124558596336,379000,189500.0,9129.45776104927
-0.8836466073989868,1.061081970691681,-100.3749689025879,2.010737310409546,190000.0,5.531294257640838,99.55800088500976,99.55785516357422,99.55544873046875,380.0,1000.0,694.0,48.77313126890338,380000,190000.0,9149.960854053497
-0.8836466073989868,1.0626093692779541,-100.7989666442871,2.0147362885475157,190500.0,4.857743247509003,99.99676220703125,99.99663705444335,99.99978631591797,381.0,1000.0,874.0,20.53991768791197,381000,190500.0,9198.646541833878
-0.8836466073989868,1.0795769250392915,-100.28811889648438,1.9904031381607055,191000.0,5.432639769792557,99.50707202148438,99.50726580810547,99.50593698120117,382.0,1000.0,935.0,48.482144929514334,382000,191000.0,9219.272693157196
-0.8836466073989868,1.0791507923603059,-100.61050112915039,2.0028804659843447,191500.0,6.144737199783325,99.81696591186524,99.81697244262695,99.8175549621582,383.0,1000.0,608.0,48.75538465878755,383000,191500.0,9239.783249378204
-0.8836466073989868,1.0725095200538635,-100.76345202636719,2.033117043972015,192000.0,6.8340904426574705,100.03339562988282,100.03344619750976,100.03489620971679,384.0,1000.0,802.0,48.7433902524376,384000,192000.0,9260.298852443695
-0.8836466073989868,1.0774164137840272,-101.6646996459961,2.0427189655303954,192500.0,6.175377496242524,100.86786489868165,100.8677476196289,100.86952853393555,385.0,1000.0,792.0,48.86645725594721,385000,192500.0,9280.762788295746
-0.8836466073989868,1.0633142914772034,-101.07557009887695,2.024113109111786,193000.0,5.567884559869766,100.29867428588867,100.2985899963379,100.29633981323242,386.0,1000.0,788.0,48.69678436200214,386000,193000.0,9301.2980260849
-0.8836466073989868,1.076348479270935,-101.1905200805664,2.0302708988189697,193500.0,6.431374815940857,100.38824139404296,100.38839599609375,100.39099157714844,387.0,1000.0,843.0,48.64233699352953,387000,193500.0,9321.856250047684
-0.8836466073989868,1.0881747634410859,-101.83352368164063,2.0513030281066893,194000.0,5.993872924804688,101.0346704711914,101.03463729858399,101.03500448608398,388.0,1000.0,876.0,48.72901426350783,388000,194000.0,9342.37790608406
-0.8836466073989868,1.0829041721820831,-102.19480130004882,2.062927586555481,194500.0,6.770433646202087,101.39786862182618,101.39801086425781,101.39872613525391,389.0,1000.0,642.0,48.64848777149868,389000,194500.0,9362.933530569077
-0.8836466073989868,1.0725631585121156,-102.68171069335938,2.0634188680648804,195000.0,5.781624384403229,101.84578982543945,101.84538482666015,101.84556735229492,390.0,1000.0,1000.0,48.86760219943264,390000,195000.0,9383.396986722946
-0.8836466073989868,1.0742200391292571,-102.73377938842773,2.074972013950348,195500.0,5.705347430706024,101.93569229125977,101.9357292175293,101.93791287231446,391.0,1000.0,805.0,20.463047244629387,391000,195500.0,9432.2655646801
-0.8836466073989868,1.088435634613037,-102.7308486328125,2.0710548186302185,196000.0,5.519987449645996,101.88803997802735,101.88811895751954,101.88577291870118,392.0,1000.0,757.0,48.617127279594335,392000,196000.0,9452.834448575974
-0.8836466073989868,1.0786362080574035,-103.12993222045898,2.0755206637382506,196500.0,6.028824808120728,102.31814505004883,102.31840829467774,102.32147912597657,393.0,1000.0,889.0,48.78074537205578,393000,196500.0,9473.334341526031
-0.8836466073989868,1.0909963583946227,-104.22832196044922,2.110197266578674,197000.0,5.628475975990296,103.40144515991211,103.40124795532226,103.40255569458007,394.0,1000.0,655.0,48.85442692226606,394000,197000.0,9493.803316831589
-0.8836466073989868,1.0871560306549073,-103.43384448242188,2.0963499751091,197500.0,5.935643597126007,102.67761944580079,102.67751712036133,102.67676916503906,395.0,1000.0,935.0,48.726585691444726,395000,197500.0,9514.325995445251
-0.8836466073989868,1.0880238704681398,-103.64342837524414,2.097478641986847,198000.0,6.14645042181015,102.83944763183594,102.8395998840332,102.83871978759765,396.0,1000.0,766.0,48.668399603347645,396000,198000.0,9534.873209953308
-0.8836466073989868,1.076242570400238,-104.11496936035157,2.110330760002136,198500.0,5.575068478107452,103.33701956176758,103.33660903930664,103.33631539916992,397.0,1000.0,879.0,48.77202137282987,397000,198500.0,9555.376769304276
-0.8836466073989868,1.0889245114326478,-104.73606527709961,2.1326020278930664,199000.0,6.018847082614899,103.96637161254883,103.96641317749024,103.96865216064454,398.0,1000.0,849.0,48.77882673211596,398000,199000.0,9575.87746834755
-0.8836466073989868,1.0868392612934112,-104.62011340332032,2.1273257846832276,199500.0,6.098166140556335,103.82246640014648,103.82242141723633,103.82248098754883,399.0,1000.0,1000.0,48.80644484166593,399000,199500.0,9596.36656665802
-0.8836466073989868,1.077768296957016,-104.38511233520508,2.1300696029663087,200000.0,6.024662473678589,103.63727575683593,103.63729043579102,103.63595156860352,400.0,1000.0,928.0,48.8965407866685,400000,200000.0,9616.817911863327
-0.8836466073989868,1.0613900716304778,-104.43131622314453,2.1372052054405213,200500.0,6.071934243202209,103.65015719604492,103.65024105834961,103.65219180297852,401.0,1000.0,566.0,20.45835829350169,401000,200500.0,9665.69769024849
-0.8836466073989868,1.06393678855896,-104.93178213500977,2.149020347595215,201000.0,7.696402650356292,104.15305392456055,104.15278665161132,104.1537462158203,402.0,1000.0,755.0,48.74855127691143,402000,201000.0,9686.211121559143
-0.8836466073989868,1.096738643169403,-105.66445034790038,2.1670114364624022,201500.0,6.0613647360801695,104.90583569335938,104.9060191040039,104.90502951049805,403.0,1000.0,657.0,48.69549306766453,403000,201500.0,9706.746903657913
-0.8836466073989868,1.082747185945511,-105.49242581176757,2.1612508187294006,202000.0,5.902961999893188,104.72804342651366,104.72795593261719,104.73087081909179,404.0,1000.0,839.0,48.836579603007415,404000,202000.0,9727.223359584808
-0.8836466073989868,1.0717616188526153,-105.98049337768555,2.1713195991516114,202500.0,5.461341187477112,105.22603216552734,105.2259874572754,105.22463467407226,405.0,1000.0,852.0,48.85326324939525,405000,202500.0,9747.692822217941
-0.8836466073989868,1.068210961818695,-105.7809740600586,2.1836487846374513,203000.0,5.28333783197403,105.03673516845703,105.03690866088867,105.03749295043946,406.0,1000.0,692.0,48.98143973881449,406000,203000.0,9768.108719825745
-0.8836466073989868,1.0801550829410553,-105.75482620239258,2.187488094329834,203500.0,5.6941311917304995,105.01284579467773,105.01260238647461,105.0127974243164,407.0,1000.0,800.0,48.900413295130974,407000,203500.0,9788.558445930481
-0.8836466073989868,1.0743299729824065,-106.60354754638672,2.204355202674866,204000.0,4.953343453884124,105.87268313598632,105.8726731262207,105.87228677368164,408.0,1000.0,791.0,48.7091795214044,408000,204000.0,9809.088457584381
-0.8836466073989868,1.0808578004837037,-106.54116528320313,2.2063968148231505,204500.0,6.246973425388336,105.80111004638673,105.80121594238281,105.80509936523437,409.0,1000.0,632.0,48.65402547905749,409000,204500.0,9829.641742229462
-0.8836466073989868,1.0824306008815765,-106.55543191528321,2.202947079181671,205000.0,6.134671544075013,105.81870016479492,105.81876083374023,105.81731127929687,410.0,1000.0,879.0,48.75342891118004,410000,205000.0,9850.153121232986
-0.8836466073989868,1.0848195922374726,-106.3649878540039,2.187988715171814,205500.0,5.3812575688362125,105.62423965454101,105.62421478271484,105.62461120605468,411.0,1000.0,731.0,20.444724564422568,411000,205500.0,9899.06549525261
-0.8836466073989868,1.0970900847911835,-106.55692190551758,2.2020619893074036,206000.0,5.696689186573028,105.80508605957031,105.80497570800782,105.80580462646485,412.0,1000.0,939.0,48.79889708989894,412000,206000.0,9919.557762384415
-0.8836466073989868,1.0731173963546754,-106.06333465576172,2.191749993801117,206500.0,5.083880278110504,105.32037902832032,105.3205110168457,105.31993020629884,413.0,1000.0,754.0,48.82971207436331,413000,206500.0,9940.037097930908
-0.8836466073989868,1.0627925996780396,-107.53217337036133,2.2376797947883604,207000.0,5.741425523519516,106.79340460205079,106.79311721801758,106.79339007568359,414.0,1000.0,837.0,48.69536699487295,414000,207000.0,9960.572933197021
-0.8836466073989868,1.0826860501766205,-107.20572625732422,2.2281841716766357,207500.0,5.301755445957184,106.47585330200195,106.47604116821289,106.47709158325195,415.0,1000.0,746.0,48.98811428222506,415000,207500.0,9980.986049175262
-0.8836466073989868,1.057164475440979,-107.55034164428712,2.2451364040374755,208000.0,5.608440935611725,106.82466665649414,106.82453503417969,106.82366369628906,416.0,1000.0,887.0,48.85247573891556,416000,208000.0,10001.455842971802
-0.8836466073989868,1.0577964432239533,-108.40526751708984,2.2639348320961,208500.0,6.189726290702819,107.65463586425781,107.65456332397461,107.65578326416015,417.0,1000.0,766.0,48.82675734017625,417000,208500.0,10021.93641781807
-0.8836466073989868,1.078912665128708,-108.06638729858399,2.2596718955039976,209000.0,4.677631141901016,107.3324296875,107.33253161621094,107.33188940429687,418.0,1000.0,881.0,48.66408269138586,418000,209000.0,10042.485455274582
-0.8836466073989868,1.0829851861000062,-108.50468353271485,2.2584052968025206,209500.0,5.932496314525604,107.74139331054687,107.7413243713379,107.7434010925293,419.0,1000.0,764.0,48.74680456417861,419000,209500.0,10062.999621152878
-0.8836466073989868,1.0723632900714875,-109.2640491027832,2.2928213839530946,210000.0,5.375276484966278,108.53004766845703,108.53016464233399,108.53064154052734,420.0,1000.0,936.0,48.558388683163585,420000,210000.0,10083.593386411667
-0.8836466073989868,1.0749786410331725,-108.5338112487793,2.2688185238838194,210500.0,5.564532389640808,107.79828311157226,107.79811334228516,107.79661499023437,421.0,1000.0,721.0,20.414881512078402,421000,210500.0,10132.577262163162
-0.8836466073989868,1.0917823090553285,-108.57637530517579,2.2604342784881593,211000.0,6.215751603126526,107.81302456665038,107.81312060546875,107.81530215454102,422.0,1000.0,631.0,48.34086947902773,422000,211000.0,10153.263692855835
-0.8836466073989868,1.0759505126476288,-109.59940969848633,2.2967444462776183,211500.0,7.463425473213196,108.84587408447265,108.84598703002929,108.8467442932129,423.0,1000.0,658.0,48.38992688885832,423000,211500.0,10173.929151535034
-0.8836466073989868,1.0874980671405792,-108.6957180480957,2.2642684535980226,212000.0,6.503964789390564,107.93532720947266,107.93508297729493,107.93462747192383,424.0,1000.0,646.0,48.43572772830233,424000,212000.0,10194.575068950653
-0.8836466073989868,1.0727919855117798,-109.27132962036133,2.283314718723297,212500.0,5.666954077720642,108.50957727050782,108.5096716003418,108.51090676879883,425.0,1000.0,876.0,48.836521602708714,425000,212500.0,10215.051548957825
-0.8836466073989868,1.0679304990768432,-109.70243692016602,2.2875800647735596,213000.0,6.316045268058777,108.93644790649414,108.93657781982422,108.93734790039062,426.0,1000.0,732.0,48.50707513001273,426000,213000.0,10235.667099237442
-0.8836466073989868,1.0745271327495576,-109.91435754394531,2.2949953961372374,213500.0,7.8434399948120115,109.16189212036133,109.16193588256836,109.15948663330079,427.0,1000.0,651.0,48.40112964249194,427000,213500.0,10256.327774763107
-0.8836466073989868,1.0691224589347839,-110.20148751831054,2.312535780906677,214000.0,7.211830759048462,109.48617315673827,109.48587280273438,109.48862384033202,428.0,1000.0,844.0,48.35358856766992,428000,214000.0,10277.00876379013
-0.8836466073989868,1.086406909942627,-110.13414053344727,2.298905872344971,214500.0,8.672608021736146,109.33597155761719,109.33598291015625,109.33599893188476,429.0,1000.0,879.0,48.30599447531883,429000,214500.0,10297.710129499435
-0.8836466073989868,1.0945773882865906,-110.95826538085937,2.3188671951293944,215000.0,5.641883432865143,110.18392352294921,110.18388610839844,110.18518072509765,430.0,1000.0,844.0,48.270781436030155,430000,215000.0,10318.426596164703
-0.8836466073989868,1.0767318437099456,-110.81615957641601,2.3154119834899904,215500.0,5.80843053483963,110.09059237670898,110.09040481567382,110.0913868408203,431.0,1000.0,876.0,20.524023228104628,431000,215500.0,10367.149987459183
-0.8836466073989868,1.0689358072280883,-111.03396633911133,2.325135712146759,216000.0,5.086473916053772,110.2968818359375,110.2966951599121,110.29661907958985,432.0,1000.0,877.0,48.31487533223573,432000,216000.0,10387.847548007965
-0.8836466073989868,1.072128207206726,-111.55949673461915,2.3505235662460326,216500.0,5.454952930927276,110.84408584594726,110.84433740234375,110.84546905517578,433.0,1000.0,1000.0,47.425122894134844,433000,216500.0,10408.933419466019
-0.8836466073989868,1.0675783476829528,-111.21374136352539,2.335906280040741,217000.0,5.437546339273453,110.47706689453125,110.47708920288086,110.47653305053711,434.0,1000.0,989.0,48.1978216990953,434000,217000.0,10429.681245565414
-0.8836466073989868,1.0655234835147858,-111.63392431640625,2.3449316873550416,217500.0,6.2580113272666935,110.89364422607422,110.89368203735351,110.89623580932617,435.0,1000.0,755.0,48.3195351928501,435000,217500.0,10450.376809597015
-0.8836466073989868,1.0521487662792206,-112.59044079589843,2.379085196495056,218000.0,5.430096981048584,111.8583408203125,111.85807177734375,111.85772998046875,436.0,1000.0,884.0,48.46617354233844,436000,218000.0,10471.009757757187
-0.8836466073989868,1.0657762327194213,-112.31840161132813,2.3766590642929075,218500.0,5.072173369884491,111.60778622436523,111.60808065795898,111.60655310058594,437.0,1000.0,685.0,48.51844332419512,437000,218500.0,10491.62047791481
